(G-CODE GENERATED BY FLATCAM v8.912 - www.flatcam.org - Version Date: 2019/03/17)

(Name: drill_1_16.xln_edit_1_cnc)
(Type: G-code from Excellon)
(Units: MM)

(Created on Sunday, 25 July 2021 at 16:50)

(Feedrate: 36.0 mm/min)
(Feedrate rapids 76.2 mm/min)

(Z_Cut: -1.6 mm)
(Z_Move: 2.54 mm)
(Z Toolchange: 25.4 mm)
(X,Y Toolchange: 0.0000, 0.0000 mm)
(Z Start: None mm)
(Z End: 10.8 mm)
(Steps per circle: 64)
(Postprocessor Excellon: default)

(X range:   29.5890 ...   58.9970  mm)
(Y range:   21.2670 ...   35.4350  mm)

(Spindle Speed: None RPM)

G21
G90
G94

G01 F36.00
G00 Z2.5400

M03
G00 X58.5470 Y24.2570
G01 Z-1.6000
G01 Z0
G00 Z2.5400
G00 X58.5470 Y21.7170
G01 Z-1.6000
G01 Z0
G00 Z2.5400
M03
G00 X30.0990 Y34.9250
G01 Z-1.6000
G01 Z0
G00 Z2.5400
G00 X32.6390 Y34.9250
G01 Z-1.6000
G01 Z0
G00 Z2.5400
G00 X35.1790 Y34.9250
G01 Z-1.6000
G01 Z0
G00 Z2.5400
G00 X37.7190 Y34.9250
G01 Z-1.6000
G01 Z0
G00 Z2.5400
G00 X40.2590 Y34.9250
G01 Z-1.6000
G01 Z0
G00 Z2.5400
M05
G00 Z10.80
G00 X0.0 Y0.0

