(G-CODE GENERATED BY FLATCAM v8.912 - www.flatcam.org - Version Date: 2019/03/17)

(Name: drill_1_16.xln_edit_mill_cnc_1)
(Type: G-code from Geometry)
(Units: MM)

(Created on Sunday, 25 July 2021 at 18:09)

(TOOL DIAMETER: 1.0 mm)
(Feedrate: 76.2 mm/min)
(Feedrate_Z: 76.2 mm/min)
(Feedrate rapids 76.2 mm/min)

(Z_Cut: -1.6 mm)
(DepthPerCut: 0.508 mm <=>4 passes)
(Z_Move: 2.54 mm)
(Z Toolchange: 25.4 mm)
(X,Y Toolchange: 0.0000, 0.0000 mm)
(Z Start: None mm)
(Z End: 10.8 mm)
(Steps per circle: 64)
(Postprocessor Geometry: default)

(X range:    8.9870 ...   59.7200  mm)
(Y range:    8.7330 ...   31.6650  mm)

(Spindle Speed: None RPM)

G21
G90
G94

G01 F76.20
G00 Z2.5400

M03
G00 X11.5870 Y29.5910
G01 F76.20
G01 Z-0.5080
G01 F76.20
G01 X11.5807 Y29.4636
G01 X11.5620 Y29.3374
G01 X11.5310 Y29.2136
G01 X11.4880 Y29.0935
G01 X11.4335 Y28.9782
G01 X11.3679 Y28.8688
G01 X11.2919 Y28.7663
G01 X11.2062 Y28.6718
G01 X11.1117 Y28.5861
G01 X11.0092 Y28.5101
G01 X10.8998 Y28.4445
G01 X10.7845 Y28.3900
G01 X10.6644 Y28.3470
G01 X10.5406 Y28.3160
G01 X10.4144 Y28.2973
G01 X10.2870 Y28.2910
G01 X10.1596 Y28.2973
G01 X10.0334 Y28.3160
G01 X9.9096 Y28.3470
G01 X9.7895 Y28.3900
G01 X9.6742 Y28.4445
G01 X9.5648 Y28.5101
G01 X9.4623 Y28.5861
G01 X9.3678 Y28.6718
G01 X9.2821 Y28.7663
G01 X9.2061 Y28.8688
G01 X9.1405 Y28.9782
G01 X9.0860 Y29.0935
G01 X9.0430 Y29.2136
G01 X9.0120 Y29.3374
G01 X8.9933 Y29.4636
G01 X8.9870 Y29.5910
G01 X8.9933 Y29.7184
G01 X9.0120 Y29.8446
G01 X9.0430 Y29.9684
G01 X9.0860 Y30.0885
G01 X9.1405 Y30.2038
G01 X9.2061 Y30.3132
G01 X9.2821 Y30.4157
G01 X9.3678 Y30.5102
G01 X9.4623 Y30.5959
G01 X9.5648 Y30.6719
G01 X9.6742 Y30.7375
G01 X9.7895 Y30.7920
G01 X9.9096 Y30.8350
G01 X10.0334 Y30.8660
G01 X10.1596 Y30.8847
G01 X10.2870 Y30.8910
G01 X10.4144 Y30.8847
G01 X10.5406 Y30.8660
G01 X10.6644 Y30.8350
G01 X10.7845 Y30.7920
G01 X10.8998 Y30.7375
G01 X11.0092 Y30.6719
G01 X11.1117 Y30.5959
G01 X11.2062 Y30.5102
G01 X11.2919 Y30.4157
G01 X11.3679 Y30.3132
G01 X11.4335 Y30.2038
G01 X11.4880 Y30.0885
G01 X11.5310 Y29.9684
G01 X11.5620 Y29.8446
G01 X11.5807 Y29.7184
G01 X11.5870 Y29.5910
G00 X11.5870 Y29.5910
G01 F76.20
G01 Z-1.0160
G01 F76.20
G01 X11.5807 Y29.4636
G01 X11.5620 Y29.3374
G01 X11.5310 Y29.2136
G01 X11.4880 Y29.0935
G01 X11.4335 Y28.9782
G01 X11.3679 Y28.8688
G01 X11.2919 Y28.7663
G01 X11.2062 Y28.6718
G01 X11.1117 Y28.5861
G01 X11.0092 Y28.5101
G01 X10.8998 Y28.4445
G01 X10.7845 Y28.3900
G01 X10.6644 Y28.3470
G01 X10.5406 Y28.3160
G01 X10.4144 Y28.2973
G01 X10.2870 Y28.2910
G01 X10.1596 Y28.2973
G01 X10.0334 Y28.3160
G01 X9.9096 Y28.3470
G01 X9.7895 Y28.3900
G01 X9.6742 Y28.4445
G01 X9.5648 Y28.5101
G01 X9.4623 Y28.5861
G01 X9.3678 Y28.6718
G01 X9.2821 Y28.7663
G01 X9.2061 Y28.8688
G01 X9.1405 Y28.9782
G01 X9.0860 Y29.0935
G01 X9.0430 Y29.2136
G01 X9.0120 Y29.3374
G01 X8.9933 Y29.4636
G01 X8.9870 Y29.5910
G01 X8.9933 Y29.7184
G01 X9.0120 Y29.8446
G01 X9.0430 Y29.9684
G01 X9.0860 Y30.0885
G01 X9.1405 Y30.2038
G01 X9.2061 Y30.3132
G01 X9.2821 Y30.4157
G01 X9.3678 Y30.5102
G01 X9.4623 Y30.5959
G01 X9.5648 Y30.6719
G01 X9.6742 Y30.7375
G01 X9.7895 Y30.7920
G01 X9.9096 Y30.8350
G01 X10.0334 Y30.8660
G01 X10.1596 Y30.8847
G01 X10.2870 Y30.8910
G01 X10.4144 Y30.8847
G01 X10.5406 Y30.8660
G01 X10.6644 Y30.8350
G01 X10.7845 Y30.7920
G01 X10.8998 Y30.7375
G01 X11.0092 Y30.6719
G01 X11.1117 Y30.5959
G01 X11.2062 Y30.5102
G01 X11.2919 Y30.4157
G01 X11.3679 Y30.3132
G01 X11.4335 Y30.2038
G01 X11.4880 Y30.0885
G01 X11.5310 Y29.9684
G01 X11.5620 Y29.8446
G01 X11.5807 Y29.7184
G01 X11.5870 Y29.5910
G00 X11.5870 Y29.5910
G01 F76.20
G01 Z-1.5240
G01 F76.20
G01 X11.5807 Y29.4636
G01 X11.5620 Y29.3374
G01 X11.5310 Y29.2136
G01 X11.4880 Y29.0935
G01 X11.4335 Y28.9782
G01 X11.3679 Y28.8688
G01 X11.2919 Y28.7663
G01 X11.2062 Y28.6718
G01 X11.1117 Y28.5861
G01 X11.0092 Y28.5101
G01 X10.8998 Y28.4445
G01 X10.7845 Y28.3900
G01 X10.6644 Y28.3470
G01 X10.5406 Y28.3160
G01 X10.4144 Y28.2973
G01 X10.2870 Y28.2910
G01 X10.1596 Y28.2973
G01 X10.0334 Y28.3160
G01 X9.9096 Y28.3470
G01 X9.7895 Y28.3900
G01 X9.6742 Y28.4445
G01 X9.5648 Y28.5101
G01 X9.4623 Y28.5861
G01 X9.3678 Y28.6718
G01 X9.2821 Y28.7663
G01 X9.2061 Y28.8688
G01 X9.1405 Y28.9782
G01 X9.0860 Y29.0935
G01 X9.0430 Y29.2136
G01 X9.0120 Y29.3374
G01 X8.9933 Y29.4636
G01 X8.9870 Y29.5910
G01 X8.9933 Y29.7184
G01 X9.0120 Y29.8446
G01 X9.0430 Y29.9684
G01 X9.0860 Y30.0885
G01 X9.1405 Y30.2038
G01 X9.2061 Y30.3132
G01 X9.2821 Y30.4157
G01 X9.3678 Y30.5102
G01 X9.4623 Y30.5959
G01 X9.5648 Y30.6719
G01 X9.6742 Y30.7375
G01 X9.7895 Y30.7920
G01 X9.9096 Y30.8350
G01 X10.0334 Y30.8660
G01 X10.1596 Y30.8847
G01 X10.2870 Y30.8910
G01 X10.4144 Y30.8847
G01 X10.5406 Y30.8660
G01 X10.6644 Y30.8350
G01 X10.7845 Y30.7920
G01 X10.8998 Y30.7375
G01 X11.0092 Y30.6719
G01 X11.1117 Y30.5959
G01 X11.2062 Y30.5102
G01 X11.2919 Y30.4157
G01 X11.3679 Y30.3132
G01 X11.4335 Y30.2038
G01 X11.4880 Y30.0885
G01 X11.5310 Y29.9684
G01 X11.5620 Y29.8446
G01 X11.5807 Y29.7184
G01 X11.5870 Y29.5910
G00 X11.5870 Y29.5910
G01 F76.20
G01 Z-1.6000
G01 F76.20
G01 X11.5807 Y29.4636
G01 X11.5620 Y29.3374
G01 X11.5310 Y29.2136
G01 X11.4880 Y29.0935
G01 X11.4335 Y28.9782
G01 X11.3679 Y28.8688
G01 X11.2919 Y28.7663
G01 X11.2062 Y28.6718
G01 X11.1117 Y28.5861
G01 X11.0092 Y28.5101
G01 X10.8998 Y28.4445
G01 X10.7845 Y28.3900
G01 X10.6644 Y28.3470
G01 X10.5406 Y28.3160
G01 X10.4144 Y28.2973
G01 X10.2870 Y28.2910
G01 X10.1596 Y28.2973
G01 X10.0334 Y28.3160
G01 X9.9096 Y28.3470
G01 X9.7895 Y28.3900
G01 X9.6742 Y28.4445
G01 X9.5648 Y28.5101
G01 X9.4623 Y28.5861
G01 X9.3678 Y28.6718
G01 X9.2821 Y28.7663
G01 X9.2061 Y28.8688
G01 X9.1405 Y28.9782
G01 X9.0860 Y29.0935
G01 X9.0430 Y29.2136
G01 X9.0120 Y29.3374
G01 X8.9933 Y29.4636
G01 X8.9870 Y29.5910
G01 X8.9933 Y29.7184
G01 X9.0120 Y29.8446
G01 X9.0430 Y29.9684
G01 X9.0860 Y30.0885
G01 X9.1405 Y30.2038
G01 X9.2061 Y30.3132
G01 X9.2821 Y30.4157
G01 X9.3678 Y30.5102
G01 X9.4623 Y30.5959
G01 X9.5648 Y30.6719
G01 X9.6742 Y30.7375
G01 X9.7895 Y30.7920
G01 X9.9096 Y30.8350
G01 X10.0334 Y30.8660
G01 X10.1596 Y30.8847
G01 X10.2870 Y30.8910
G01 X10.4144 Y30.8847
G01 X10.5406 Y30.8660
G01 X10.6644 Y30.8350
G01 X10.7845 Y30.7920
G01 X10.8998 Y30.7375
G01 X11.0092 Y30.6719
G01 X11.1117 Y30.5959
G01 X11.2062 Y30.5102
G01 X11.2919 Y30.4157
G01 X11.3679 Y30.3132
G01 X11.4335 Y30.2038
G01 X11.4880 Y30.0885
G01 X11.5310 Y29.9684
G01 X11.5620 Y29.8446
G01 X11.5807 Y29.7184
G01 X11.5870 Y29.5910
G00 Z2.5400
G00 X44.2660 Y21.4650
G01 F76.20
G01 Z-0.5080
G01 F76.20
G01 X44.2169 Y20.4652
G01 X44.0700 Y19.4751
G01 X43.8268 Y18.5041
G01 X43.4896 Y17.5616
G01 X43.0616 Y16.6568
G01 X42.5470 Y15.7982
G01 X41.9507 Y14.9942
G01 X41.2785 Y14.2525
G01 X40.5368 Y13.5803
G01 X39.7328 Y12.9840
G01 X38.8742 Y12.4694
G01 X37.9694 Y12.0414
G01 X37.0269 Y11.7042
G01 X36.0559 Y11.4610
G01 X35.0658 Y11.3141
G01 X34.0660 Y11.2650
G01 X33.0662 Y11.3141
G01 X32.0761 Y11.4610
G01 X31.1051 Y11.7042
G01 X30.1626 Y12.0414
G01 X29.2578 Y12.4694
G01 X28.3992 Y12.9840
G01 X27.5952 Y13.5803
G01 X26.8535 Y14.2525
G01 X26.1813 Y14.9942
G01 X25.5850 Y15.7982
G01 X25.0704 Y16.6568
G01 X24.6424 Y17.5616
G01 X24.3052 Y18.5041
G01 X24.0620 Y19.4751
G01 X23.9151 Y20.4652
G01 X23.8660 Y21.4650
G01 X23.9151 Y22.4648
G01 X24.0620 Y23.4549
G01 X24.3052 Y24.4259
G01 X24.6424 Y25.3684
G01 X25.0704 Y26.2732
G01 X25.5850 Y27.1318
G01 X26.1813 Y27.9358
G01 X26.8535 Y28.6775
G01 X27.5952 Y29.3497
G01 X28.3992 Y29.9460
G01 X29.2578 Y30.4606
G01 X30.1626 Y30.8886
G01 X31.1051 Y31.2258
G01 X32.0761 Y31.4690
G01 X33.0662 Y31.6159
G01 X34.0660 Y31.6650
G01 X35.0658 Y31.6159
G01 X36.0559 Y31.4690
G01 X37.0269 Y31.2258
G01 X37.9694 Y30.8886
G01 X38.8742 Y30.4606
G01 X39.7328 Y29.9460
G01 X40.5368 Y29.3497
G01 X41.2785 Y28.6775
G01 X41.9507 Y27.9358
G01 X42.5470 Y27.1318
G01 X43.0616 Y26.2732
G01 X43.4896 Y25.3684
G01 X43.8268 Y24.4259
G01 X44.0700 Y23.4549
G01 X44.2169 Y22.4648
G01 X44.2660 Y21.4650
G00 X44.2660 Y21.4650
G01 F76.20
G01 Z-1.0160
G01 F76.20
G01 X44.2169 Y20.4652
G01 X44.0700 Y19.4751
G01 X43.8268 Y18.5041
G01 X43.4896 Y17.5616
G01 X43.0616 Y16.6568
G01 X42.5470 Y15.7982
G01 X41.9507 Y14.9942
G01 X41.2785 Y14.2525
G01 X40.5368 Y13.5803
G01 X39.7328 Y12.9840
G01 X38.8742 Y12.4694
G01 X37.9694 Y12.0414
G01 X37.0269 Y11.7042
G01 X36.0559 Y11.4610
G01 X35.0658 Y11.3141
G01 X34.0660 Y11.2650
G01 X33.0662 Y11.3141
G01 X32.0761 Y11.4610
G01 X31.1051 Y11.7042
G01 X30.1626 Y12.0414
G01 X29.2578 Y12.4694
G01 X28.3992 Y12.9840
G01 X27.5952 Y13.5803
G01 X26.8535 Y14.2525
G01 X26.1813 Y14.9942
G01 X25.5850 Y15.7982
G01 X25.0704 Y16.6568
G01 X24.6424 Y17.5616
G01 X24.3052 Y18.5041
G01 X24.0620 Y19.4751
G01 X23.9151 Y20.4652
G01 X23.8660 Y21.4650
G01 X23.9151 Y22.4648
G01 X24.0620 Y23.4549
G01 X24.3052 Y24.4259
G01 X24.6424 Y25.3684
G01 X25.0704 Y26.2732
G01 X25.5850 Y27.1318
G01 X26.1813 Y27.9358
G01 X26.8535 Y28.6775
G01 X27.5952 Y29.3497
G01 X28.3992 Y29.9460
G01 X29.2578 Y30.4606
G01 X30.1626 Y30.8886
G01 X31.1051 Y31.2258
G01 X32.0761 Y31.4690
G01 X33.0662 Y31.6159
G01 X34.0660 Y31.6650
G01 X35.0658 Y31.6159
G01 X36.0559 Y31.4690
G01 X37.0269 Y31.2258
G01 X37.9694 Y30.8886
G01 X38.8742 Y30.4606
G01 X39.7328 Y29.9460
G01 X40.5368 Y29.3497
G01 X41.2785 Y28.6775
G01 X41.9507 Y27.9358
G01 X42.5470 Y27.1318
G01 X43.0616 Y26.2732
G01 X43.4896 Y25.3684
G01 X43.8268 Y24.4259
G01 X44.0700 Y23.4549
G01 X44.2169 Y22.4648
G01 X44.2660 Y21.4650
G00 X44.2660 Y21.4650
G01 F76.20
G01 Z-1.5240
G01 F76.20
G01 X44.2169 Y20.4652
G01 X44.0700 Y19.4751
G01 X43.8268 Y18.5041
G01 X43.4896 Y17.5616
G01 X43.0616 Y16.6568
G01 X42.5470 Y15.7982
G01 X41.9507 Y14.9942
G01 X41.2785 Y14.2525
G01 X40.5368 Y13.5803
G01 X39.7328 Y12.9840
G01 X38.8742 Y12.4694
G01 X37.9694 Y12.0414
G01 X37.0269 Y11.7042
G01 X36.0559 Y11.4610
G01 X35.0658 Y11.3141
G01 X34.0660 Y11.2650
G01 X33.0662 Y11.3141
G01 X32.0761 Y11.4610
G01 X31.1051 Y11.7042
G01 X30.1626 Y12.0414
G01 X29.2578 Y12.4694
G01 X28.3992 Y12.9840
G01 X27.5952 Y13.5803
G01 X26.8535 Y14.2525
G01 X26.1813 Y14.9942
G01 X25.5850 Y15.7982
G01 X25.0704 Y16.6568
G01 X24.6424 Y17.5616
G01 X24.3052 Y18.5041
G01 X24.0620 Y19.4751
G01 X23.9151 Y20.4652
G01 X23.8660 Y21.4650
G01 X23.9151 Y22.4648
G01 X24.0620 Y23.4549
G01 X24.3052 Y24.4259
G01 X24.6424 Y25.3684
G01 X25.0704 Y26.2732
G01 X25.5850 Y27.1318
G01 X26.1813 Y27.9358
G01 X26.8535 Y28.6775
G01 X27.5952 Y29.3497
G01 X28.3992 Y29.9460
G01 X29.2578 Y30.4606
G01 X30.1626 Y30.8886
G01 X31.1051 Y31.2258
G01 X32.0761 Y31.4690
G01 X33.0662 Y31.6159
G01 X34.0660 Y31.6650
G01 X35.0658 Y31.6159
G01 X36.0559 Y31.4690
G01 X37.0269 Y31.2258
G01 X37.9694 Y30.8886
G01 X38.8742 Y30.4606
G01 X39.7328 Y29.9460
G01 X40.5368 Y29.3497
G01 X41.2785 Y28.6775
G01 X41.9507 Y27.9358
G01 X42.5470 Y27.1318
G01 X43.0616 Y26.2732
G01 X43.4896 Y25.3684
G01 X43.8268 Y24.4259
G01 X44.0700 Y23.4549
G01 X44.2169 Y22.4648
G01 X44.2660 Y21.4650
G00 X44.2660 Y21.4650
G01 F76.20
G01 Z-1.6000
G01 F76.20
G01 X44.2169 Y20.4652
G01 X44.0700 Y19.4751
G01 X43.8268 Y18.5041
G01 X43.4896 Y17.5616
G01 X43.0616 Y16.6568
G01 X42.5470 Y15.7982
G01 X41.9507 Y14.9942
G01 X41.2785 Y14.2525
G01 X40.5368 Y13.5803
G01 X39.7328 Y12.9840
G01 X38.8742 Y12.4694
G01 X37.9694 Y12.0414
G01 X37.0269 Y11.7042
G01 X36.0559 Y11.4610
G01 X35.0658 Y11.3141
G01 X34.0660 Y11.2650
G01 X33.0662 Y11.3141
G01 X32.0761 Y11.4610
G01 X31.1051 Y11.7042
G01 X30.1626 Y12.0414
G01 X29.2578 Y12.4694
G01 X28.3992 Y12.9840
G01 X27.5952 Y13.5803
G01 X26.8535 Y14.2525
G01 X26.1813 Y14.9942
G01 X25.5850 Y15.7982
G01 X25.0704 Y16.6568
G01 X24.6424 Y17.5616
G01 X24.3052 Y18.5041
G01 X24.0620 Y19.4751
G01 X23.9151 Y20.4652
G01 X23.8660 Y21.4650
G01 X23.9151 Y22.4648
G01 X24.0620 Y23.4549
G01 X24.3052 Y24.4259
G01 X24.6424 Y25.3684
G01 X25.0704 Y26.2732
G01 X25.5850 Y27.1318
G01 X26.1813 Y27.9358
G01 X26.8535 Y28.6775
G01 X27.5952 Y29.3497
G01 X28.3992 Y29.9460
G01 X29.2578 Y30.4606
G01 X30.1626 Y30.8886
G01 X31.1051 Y31.2258
G01 X32.0761 Y31.4690
G01 X33.0662 Y31.6159
G01 X34.0660 Y31.6650
G01 X35.0658 Y31.6159
G01 X36.0559 Y31.4690
G01 X37.0269 Y31.2258
G01 X37.9694 Y30.8886
G01 X38.8742 Y30.4606
G01 X39.7328 Y29.9460
G01 X40.5368 Y29.3497
G01 X41.2785 Y28.6775
G01 X41.9507 Y27.9358
G01 X42.5470 Y27.1318
G01 X43.0616 Y26.2732
G01 X43.4896 Y25.3684
G01 X43.8268 Y24.4259
G01 X44.0700 Y23.4549
G01 X44.2169 Y22.4648
G01 X44.2660 Y21.4650
G00 Z2.5400
G00 X59.7200 Y10.0330
G01 F76.20
G01 Z-0.5080
G01 F76.20
G01 X59.7137 Y9.9056
G01 X59.6950 Y9.7794
G01 X59.6640 Y9.6556
G01 X59.6210 Y9.5355
G01 X59.5665 Y9.4202
G01 X59.5009 Y9.3108
G01 X59.4249 Y9.2083
G01 X59.3392 Y9.1138
G01 X59.2447 Y9.0281
G01 X59.1422 Y8.9521
G01 X59.0328 Y8.8865
G01 X58.9175 Y8.8320
G01 X58.7974 Y8.7890
G01 X58.6736 Y8.7580
G01 X58.5474 Y8.7393
G01 X58.4200 Y8.7330
G01 X58.2926 Y8.7393
G01 X58.1664 Y8.7580
G01 X58.0426 Y8.7890
G01 X57.9225 Y8.8320
G01 X57.8072 Y8.8865
G01 X57.6978 Y8.9521
G01 X57.5953 Y9.0281
G01 X57.5008 Y9.1138
G01 X57.4151 Y9.2083
G01 X57.3391 Y9.3108
G01 X57.2735 Y9.4202
G01 X57.2190 Y9.5355
G01 X57.1760 Y9.6556
G01 X57.1450 Y9.7794
G01 X57.1263 Y9.9056
G01 X57.1200 Y10.0330
G01 X57.1263 Y10.1604
G01 X57.1450 Y10.2866
G01 X57.1760 Y10.4104
G01 X57.2190 Y10.5305
G01 X57.2735 Y10.6458
G01 X57.3391 Y10.7552
G01 X57.4151 Y10.8577
G01 X57.5008 Y10.9522
G01 X57.5953 Y11.0379
G01 X57.6978 Y11.1139
G01 X57.8072 Y11.1795
G01 X57.9225 Y11.2340
G01 X58.0426 Y11.2770
G01 X58.1664 Y11.3080
G01 X58.2926 Y11.3267
G01 X58.4200 Y11.3330
G01 X58.5474 Y11.3267
G01 X58.6736 Y11.3080
G01 X58.7974 Y11.2770
G01 X58.9175 Y11.2340
G01 X59.0328 Y11.1795
G01 X59.1422 Y11.1139
G01 X59.2447 Y11.0379
G01 X59.3392 Y10.9522
G01 X59.4249 Y10.8577
G01 X59.5009 Y10.7552
G01 X59.5665 Y10.6458
G01 X59.6210 Y10.5305
G01 X59.6640 Y10.4104
G01 X59.6950 Y10.2866
G01 X59.7137 Y10.1604
G01 X59.7200 Y10.0330
G00 X59.7200 Y10.0330
G01 F76.20
G01 Z-1.0160
G01 F76.20
G01 X59.7137 Y9.9056
G01 X59.6950 Y9.7794
G01 X59.6640 Y9.6556
G01 X59.6210 Y9.5355
G01 X59.5665 Y9.4202
G01 X59.5009 Y9.3108
G01 X59.4249 Y9.2083
G01 X59.3392 Y9.1138
G01 X59.2447 Y9.0281
G01 X59.1422 Y8.9521
G01 X59.0328 Y8.8865
G01 X58.9175 Y8.8320
G01 X58.7974 Y8.7890
G01 X58.6736 Y8.7580
G01 X58.5474 Y8.7393
G01 X58.4200 Y8.7330
G01 X58.2926 Y8.7393
G01 X58.1664 Y8.7580
G01 X58.0426 Y8.7890
G01 X57.9225 Y8.8320
G01 X57.8072 Y8.8865
G01 X57.6978 Y8.9521
G01 X57.5953 Y9.0281
G01 X57.5008 Y9.1138
G01 X57.4151 Y9.2083
G01 X57.3391 Y9.3108
G01 X57.2735 Y9.4202
G01 X57.2190 Y9.5355
G01 X57.1760 Y9.6556
G01 X57.1450 Y9.7794
G01 X57.1263 Y9.9056
G01 X57.1200 Y10.0330
G01 X57.1263 Y10.1604
G01 X57.1450 Y10.2866
G01 X57.1760 Y10.4104
G01 X57.2190 Y10.5305
G01 X57.2735 Y10.6458
G01 X57.3391 Y10.7552
G01 X57.4151 Y10.8577
G01 X57.5008 Y10.9522
G01 X57.5953 Y11.0379
G01 X57.6978 Y11.1139
G01 X57.8072 Y11.1795
G01 X57.9225 Y11.2340
G01 X58.0426 Y11.2770
G01 X58.1664 Y11.3080
G01 X58.2926 Y11.3267
G01 X58.4200 Y11.3330
G01 X58.5474 Y11.3267
G01 X58.6736 Y11.3080
G01 X58.7974 Y11.2770
G01 X58.9175 Y11.2340
G01 X59.0328 Y11.1795
G01 X59.1422 Y11.1139
G01 X59.2447 Y11.0379
G01 X59.3392 Y10.9522
G01 X59.4249 Y10.8577
G01 X59.5009 Y10.7552
G01 X59.5665 Y10.6458
G01 X59.6210 Y10.5305
G01 X59.6640 Y10.4104
G01 X59.6950 Y10.2866
G01 X59.7137 Y10.1604
G01 X59.7200 Y10.0330
G00 X59.7200 Y10.0330
G01 F76.20
G01 Z-1.5240
G01 F76.20
G01 X59.7137 Y9.9056
G01 X59.6950 Y9.7794
G01 X59.6640 Y9.6556
G01 X59.6210 Y9.5355
G01 X59.5665 Y9.4202
G01 X59.5009 Y9.3108
G01 X59.4249 Y9.2083
G01 X59.3392 Y9.1138
G01 X59.2447 Y9.0281
G01 X59.1422 Y8.9521
G01 X59.0328 Y8.8865
G01 X58.9175 Y8.8320
G01 X58.7974 Y8.7890
G01 X58.6736 Y8.7580
G01 X58.5474 Y8.7393
G01 X58.4200 Y8.7330
G01 X58.2926 Y8.7393
G01 X58.1664 Y8.7580
G01 X58.0426 Y8.7890
G01 X57.9225 Y8.8320
G01 X57.8072 Y8.8865
G01 X57.6978 Y8.9521
G01 X57.5953 Y9.0281
G01 X57.5008 Y9.1138
G01 X57.4151 Y9.2083
G01 X57.3391 Y9.3108
G01 X57.2735 Y9.4202
G01 X57.2190 Y9.5355
G01 X57.1760 Y9.6556
G01 X57.1450 Y9.7794
G01 X57.1263 Y9.9056
G01 X57.1200 Y10.0330
G01 X57.1263 Y10.1604
G01 X57.1450 Y10.2866
G01 X57.1760 Y10.4104
G01 X57.2190 Y10.5305
G01 X57.2735 Y10.6458
G01 X57.3391 Y10.7552
G01 X57.4151 Y10.8577
G01 X57.5008 Y10.9522
G01 X57.5953 Y11.0379
G01 X57.6978 Y11.1139
G01 X57.8072 Y11.1795
G01 X57.9225 Y11.2340
G01 X58.0426 Y11.2770
G01 X58.1664 Y11.3080
G01 X58.2926 Y11.3267
G01 X58.4200 Y11.3330
G01 X58.5474 Y11.3267
G01 X58.6736 Y11.3080
G01 X58.7974 Y11.2770
G01 X58.9175 Y11.2340
G01 X59.0328 Y11.1795
G01 X59.1422 Y11.1139
G01 X59.2447 Y11.0379
G01 X59.3392 Y10.9522
G01 X59.4249 Y10.8577
G01 X59.5009 Y10.7552
G01 X59.5665 Y10.6458
G01 X59.6210 Y10.5305
G01 X59.6640 Y10.4104
G01 X59.6950 Y10.2866
G01 X59.7137 Y10.1604
G01 X59.7200 Y10.0330
G00 X59.7200 Y10.0330
G01 F76.20
G01 Z-1.6000
G01 F76.20
G01 X59.7137 Y9.9056
G01 X59.6950 Y9.7794
G01 X59.6640 Y9.6556
G01 X59.6210 Y9.5355
G01 X59.5665 Y9.4202
G01 X59.5009 Y9.3108
G01 X59.4249 Y9.2083
G01 X59.3392 Y9.1138
G01 X59.2447 Y9.0281
G01 X59.1422 Y8.9521
G01 X59.0328 Y8.8865
G01 X58.9175 Y8.8320
G01 X58.7974 Y8.7890
G01 X58.6736 Y8.7580
G01 X58.5474 Y8.7393
G01 X58.4200 Y8.7330
G01 X58.2926 Y8.7393
G01 X58.1664 Y8.7580
G01 X58.0426 Y8.7890
G01 X57.9225 Y8.8320
G01 X57.8072 Y8.8865
G01 X57.6978 Y8.9521
G01 X57.5953 Y9.0281
G01 X57.5008 Y9.1138
G01 X57.4151 Y9.2083
G01 X57.3391 Y9.3108
G01 X57.2735 Y9.4202
G01 X57.2190 Y9.5355
G01 X57.1760 Y9.6556
G01 X57.1450 Y9.7794
G01 X57.1263 Y9.9056
G01 X57.1200 Y10.0330
G01 X57.1263 Y10.1604
G01 X57.1450 Y10.2866
G01 X57.1760 Y10.4104
G01 X57.2190 Y10.5305
G01 X57.2735 Y10.6458
G01 X57.3391 Y10.7552
G01 X57.4151 Y10.8577
G01 X57.5008 Y10.9522
G01 X57.5953 Y11.0379
G01 X57.6978 Y11.1139
G01 X57.8072 Y11.1795
G01 X57.9225 Y11.2340
G01 X58.0426 Y11.2770
G01 X58.1664 Y11.3080
G01 X58.2926 Y11.3267
G01 X58.4200 Y11.3330
G01 X58.5474 Y11.3267
G01 X58.6736 Y11.3080
G01 X58.7974 Y11.2770
G01 X58.9175 Y11.2340
G01 X59.0328 Y11.1795
G01 X59.1422 Y11.1139
G01 X59.2447 Y11.0379
G01 X59.3392 Y10.9522
G01 X59.4249 Y10.8577
G01 X59.5009 Y10.7552
G01 X59.5665 Y10.6458
G01 X59.6210 Y10.5305
G01 X59.6640 Y10.4104
G01 X59.6950 Y10.2866
G01 X59.7137 Y10.1604
G01 X59.7200 Y10.0330
G00 Z2.5400
M05
G00 Z2.5400
G00 Z10.80
G00 X0.0 Y0.0

