(G-CODE GENERATED BY FLATCAM v8.912 - www.flatcam.org - Version Date: 2019/03/17)

(Name: profile.gbr_cutout_2_cnc)
(Type: G-code from Geometry)
(Units: MM)

(Created on Sunday, 25 July 2021 at 17:34)

(TOOL DIAMETER: 1.0 mm)
(Feedrate: 76.2 mm/min)
(Feedrate_Z: 76.2 mm/min)
(Feedrate rapids 76.2 mm/min)

(Z_Cut: -0.0508 mm)
(Z_Move: 2.54 mm)
(Z Toolchange: 25.4 mm)
(X,Y Toolchange: 0.0000, 0.0000 mm)
(Z Start: None mm)
(Z End: 50.8 mm)
(Steps per circle: 64)
(Postprocessor Geometry: default)

(X range:   -0.7262 ...   68.8571  mm)
(Y range:   -0.7262 ...   40.1673  mm)

(Spindle Speed: None RPM)

G21
G90
G94

G01 F76.20
G00 Z2.5400

M03
G00 X9.0655 Y-0.7262
G01 F76.20
G01 Z-0.0508
G01 F76.20
G01 X9.0338 Y-0.7255
G01 X8.2437 Y-0.6910
G01 X8.2066 Y-0.6883
G01 X8.1806 Y-0.6855
G01 X7.3965 Y-0.5823
G01 X7.3598 Y-0.5763
G01 X7.3341 Y-0.5712
G01 X6.5620 Y-0.4000
G01 X6.5259 Y-0.3910
G01 X6.5009 Y-0.3837
G01 X5.7466 Y-0.1459
G01 X5.7114 Y-0.1337
G01 X5.6870 Y-0.1242
G01 X4.9563 Y0.1785
G01 X4.9224 Y0.1937
G01 X4.8990 Y0.2053
G01 X4.1975 Y0.5704
G01 X4.1649 Y0.5885
G01 X4.1425 Y0.6021
G01 X3.4755 Y1.0271
G01 X3.4447 Y1.0479
G01 X3.4237 Y1.0634
G01 X2.7963 Y1.5448
G01 X2.7759 Y1.5611
G01 X2.7477 Y1.5855
G01 X2.1646 Y2.1198
G01 X2.1379 Y2.1457
G01 X2.1198 Y2.1646
G01 X1.5855 Y2.7477
G01 X1.5611 Y2.7759
G01 X1.5448 Y2.7963
G01 X1.0634 Y3.4237
G01 X1.0416 Y3.4538
G01 X1.0271 Y3.4755
G01 X0.6021 Y4.1425
G01 X0.5885 Y4.1649
G01 X0.5704 Y4.1975
G01 X0.2053 Y4.8990
G01 X0.1890 Y4.9324
G01 X0.1785 Y4.9563
G01 X-0.1242 Y5.6870
G01 X-0.1337 Y5.7114
G01 X-0.1459 Y5.7466
G01 X-0.3837 Y6.5009
G01 X-0.3910 Y6.5259
G01 X-0.4000 Y6.5620
G01 X-0.5712 Y7.3341
G01 X-0.5783 Y7.3707
G01 X-0.5823 Y7.3965
G01 X-0.6855 Y8.1806
G01 X-0.6883 Y8.2066
G01 X-0.6910 Y8.2437
G01 X-0.7255 Y9.0338
G01 X-0.7262 Y9.0655
G01 X-0.7262 Y30.3756
G01 X-0.7255 Y30.4073
G01 X-0.6910 Y31.1974
G01 X-0.6893 Y31.2234
G01 X-0.6855 Y31.2605
G01 X-0.5804 Y32.0575
G01 X-0.5712 Y32.1070
G01 X-0.4000 Y32.8791
G01 X-0.3910 Y32.9152
G01 X-0.3837 Y32.9402
G01 X-0.1459 Y33.6945
G01 X-0.1374 Y33.7193
G01 X-0.1242 Y33.7541
G01 X0.1785 Y34.4847
G01 X0.1890 Y34.5086
G01 X0.2053 Y34.5420
G01 X0.5704 Y35.2435
G01 X0.5830 Y35.2665
G01 X0.6021 Y35.2985
G01 X1.0271 Y35.9655
G01 X1.0416 Y35.9872
G01 X1.0634 Y36.0173
G01 X1.5448 Y36.6448
G01 X1.5683 Y36.6737
G01 X1.5856 Y36.6934
G01 X2.1199 Y37.2764
G01 X2.1457 Y37.3031
G01 X2.1646 Y37.3212
G01 X2.7477 Y37.8555
G01 X2.7673 Y37.8727
G01 X2.7962 Y37.8962
G01 X3.4236 Y38.3777
G01 X3.4538 Y38.3995
G01 X3.4755 Y38.4141
G01 X4.1536 Y38.8458
G01 X4.1974 Y38.8706
G01 X4.8989 Y39.2358
G01 X4.9324 Y39.2521
G01 X4.9564 Y39.2626
G01 X5.6871 Y39.5652
G01 X5.7218 Y39.5784
G01 X5.7465 Y39.5868
G01 X6.5008 Y39.8247
G01 X6.5259 Y39.8321
G01 X6.5621 Y39.8412
G01 X7.3342 Y40.0123
G01 X7.3707 Y40.0193
G01 X7.3965 Y40.0232
G01 X8.1806 Y40.1265
G01 X8.2176 Y40.1304
G01 X8.2437 Y40.1321
G01 X9.0469 Y40.1670
G01 X59.0655 Y40.1673
G01 X59.0972 Y40.1666
G01 X59.9003 Y40.1314
G01 X59.9504 Y40.1265
G01 X60.7345 Y40.0232
G01 X60.7603 Y40.0193
G01 X60.7968 Y40.0123
G01 X61.5689 Y39.8412
G01 X61.6051 Y39.8321
G01 X61.6302 Y39.8247
G01 X62.3844 Y39.5868
G01 X62.4195 Y39.5747
G01 X62.4438 Y39.5652
G01 X63.1745 Y39.2626
G01 X63.2086 Y39.2474
G01 X63.2320 Y39.2358
G01 X63.9335 Y38.8706
G01 X63.9660 Y38.8525
G01 X63.9884 Y38.8390
G01 X64.6554 Y38.4141
G01 X64.6862 Y38.3931
G01 X64.7073 Y38.3777
G01 X65.3347 Y37.8962
G01 X65.3551 Y37.8798
G01 X65.3832 Y37.8555
G01 X65.9663 Y37.3212
G01 X65.9930 Y37.2953
G01 X66.0110 Y37.2764
G01 X66.5453 Y36.6934
G01 X66.5626 Y36.6738
G01 X66.5861 Y36.6449
G01 X67.0676 Y36.0174
G01 X67.0894 Y35.9872
G01 X67.1040 Y35.9655
G01 X67.5357 Y35.2874
G01 X67.5605 Y35.2436
G01 X67.9257 Y34.5421
G01 X67.9420 Y34.5086
G01 X67.9525 Y34.4847
G01 X68.2551 Y33.7541
G01 X68.2684 Y33.7193
G01 X68.2768 Y33.6945
G01 X68.5146 Y32.9402
G01 X68.5219 Y32.9152
G01 X68.5309 Y32.8791
G01 X68.7021 Y32.1070
G01 X68.7092 Y32.0704
G01 X68.7132 Y32.0446
G01 X68.8164 Y31.2605
G01 X68.8192 Y31.2345
G01 X68.8219 Y31.1974
G01 X68.8564 Y30.4073
G01 X68.8571 Y30.3756
G01 X68.8571 Y9.0655
G01 X68.8564 Y9.0338
G01 X68.8219 Y8.2437
G01 X68.8179 Y8.1936
G01 X68.7132 Y7.3965
G01 X68.7092 Y7.3707
G01 X68.7021 Y7.3341
G01 X68.5309 Y6.5620
G01 X68.5219 Y6.5259
G01 X68.5146 Y6.5009
G01 X68.2768 Y5.7466
G01 X68.2684 Y5.7218
G01 X68.2551 Y5.6871
G01 X67.9525 Y4.9564
G01 X67.9420 Y4.9324
G01 X67.9257 Y4.8989
G01 X67.5605 Y4.1974
G01 X67.5479 Y4.1745
G01 X67.5289 Y4.1425
G01 X67.1040 Y3.4755
G01 X67.0894 Y3.4538
G01 X67.0676 Y3.4236
G01 X66.5861 Y2.7962
G01 X66.5697 Y2.7758
G01 X66.5454 Y2.7477
G01 X66.0111 Y2.1646
G01 X65.9930 Y2.1457
G01 X65.9663 Y2.1198
G01 X65.3832 Y1.5855
G01 X65.3635 Y1.5683
G01 X65.3346 Y1.5448
G01 X64.7072 Y1.0634
G01 X64.6862 Y1.0479
G01 X64.6554 Y1.0271
G01 X63.9773 Y0.5952
G01 X63.9334 Y0.5704
G01 X63.2319 Y0.2053
G01 X63.2085 Y0.1937
G01 X63.1746 Y0.1785
G01 X62.4439 Y-0.1242
G01 X62.4091 Y-0.1374
G01 X62.3844 Y-0.1459
G01 X61.6302 Y-0.3837
G01 X61.6051 Y-0.3910
G01 X61.5690 Y-0.4000
G01 X60.7969 Y-0.5712
G01 X60.7603 Y-0.5783
G01 X60.7345 Y-0.5823
G01 X59.9504 Y-0.6855
G01 X59.9133 Y-0.6893
G01 X59.8873 Y-0.6910
G01 X59.0841 Y-0.7259
G01 X9.0655 Y-0.7262
G00 Z2.5400
M05
G00 Z2.5400
G00 Z50.80
G00 X0.0 Y0.0

