(G-CODE GENERATED BY FLATCAM v8.912 - www.flatcam.org - Version Date: 2019/03/17)

(Name: profile.gbr_int_iso_cnc)
(Type: G-code from Geometry)
(Units: MM)

(Created on Friday, 23 July 2021 at 18:19)

(TOOL DIAMETER: 1.0 mm)
(Feedrate: 76.2 mm/min)
(Feedrate_Z: 76.2 mm/min)
(Feedrate rapids 76.2 mm/min)

(Z_Cut: -1.6 mm)
(DepthPerCut: 0.408 mm <=>4 passes)
(Z_Move: 2.54 mm)
(Z Toolchange: 25.4 mm)
(X,Y Toolchange: 0.0000, 0.0000 mm)
(Z Start: None mm)
(Z End: 10.0 mm)
(Steps per circle: 64)
(Postprocessor Geometry: default)

(X range:    0.6271 ...   67.5038  mm)
(Y range:    0.6271 ...   38.8140  mm)

(Spindle Speed: None RPM)

G21
G90
G94

G01 F76.20
G00 Z2.5400

M03
G00 X0.6271 Y9.0792
G01 F76.20
G01 Z-0.4080
G01 F76.20
G01 X0.6598 Y8.3301
G01 X0.7558 Y7.6003
G01 X0.9152 Y6.8817
G01 X1.1365 Y6.1796
G01 X1.4183 Y5.4994
G01 X1.7581 Y4.8465
G01 X2.1536 Y4.2257
G01 X2.6017 Y3.6417
G01 X3.0990 Y3.0990
G01 X3.6417 Y2.6017
G01 X4.2257 Y2.1536
G01 X4.8465 Y1.7581
G01 X5.4994 Y1.4183
G01 X6.1796 Y1.1365
G01 X6.8817 Y0.9152
G01 X7.6003 Y0.7558
G01 X8.3301 Y0.6598
G01 X9.0792 Y0.6271
G01 X59.0518 Y0.6271
G01 X59.8009 Y0.6598
G01 X60.5307 Y0.7558
G01 X61.2493 Y0.9152
G01 X61.9513 Y1.1365
G01 X62.6315 Y1.4183
G01 X63.2844 Y1.7581
G01 X63.9052 Y2.1536
G01 X64.4892 Y2.6017
G01 X65.0319 Y3.0990
G01 X65.5292 Y3.6418
G01 X65.9774 Y4.2257
G01 X66.3728 Y4.8465
G01 X66.7127 Y5.4994
G01 X66.9944 Y6.1795
G01 X67.2157 Y6.8817
G01 X67.3751 Y7.6003
G01 X67.4711 Y8.3301
G01 X67.5038 Y9.0792
G01 X67.5038 Y30.3619
G01 X67.4711 Y31.1110
G01 X67.3751 Y31.8408
G01 X67.2157 Y32.5594
G01 X66.9944 Y33.2615
G01 X66.7127 Y33.9415
G01 X66.3728 Y34.5945
G01 X65.9773 Y35.2153
G01 X65.5292 Y35.7993
G01 X65.0319 Y36.3420
G01 X64.4891 Y36.8393
G01 X63.9052 Y37.2875
G01 X63.2844 Y37.6829
G01 X62.6315 Y38.0228
G01 X61.9513 Y38.3045
G01 X61.2493 Y38.5259
G01 X60.5307 Y38.6852
G01 X59.8009 Y38.7813
G01 X59.0518 Y38.8140
G01 X9.0814 Y38.8140
G01 X8.3301 Y38.7813
G01 X7.6003 Y38.6852
G01 X6.8817 Y38.5259
G01 X6.1796 Y38.3045
G01 X5.4994 Y38.0228
G01 X4.8465 Y37.6829
G01 X4.2257 Y37.2875
G01 X3.6418 Y36.8393
G01 X3.0990 Y36.3420
G01 X2.6017 Y35.7994
G01 X2.1537 Y35.2153
G01 X1.7581 Y34.5945
G01 X1.4183 Y33.9415
G01 X1.1365 Y33.2615
G01 X0.9152 Y32.5594
G01 X0.7558 Y31.8408
G01 X0.6598 Y31.1110
G01 X0.6271 Y30.3619
G01 X0.6271 Y9.0792
G00 X0.6271 Y9.0792
G01 F76.20
G01 Z-0.8160
G01 F76.20
G01 X0.6598 Y8.3301
G01 X0.7558 Y7.6003
G01 X0.9152 Y6.8817
G01 X1.1365 Y6.1796
G01 X1.4183 Y5.4994
G01 X1.7581 Y4.8465
G01 X2.1536 Y4.2257
G01 X2.6017 Y3.6417
G01 X3.0990 Y3.0990
G01 X3.6417 Y2.6017
G01 X4.2257 Y2.1536
G01 X4.8465 Y1.7581
G01 X5.4994 Y1.4183
G01 X6.1796 Y1.1365
G01 X6.8817 Y0.9152
G01 X7.6003 Y0.7558
G01 X8.3301 Y0.6598
G01 X9.0792 Y0.6271
G01 X59.0518 Y0.6271
G01 X59.8009 Y0.6598
G01 X60.5307 Y0.7558
G01 X61.2493 Y0.9152
G01 X61.9513 Y1.1365
G01 X62.6315 Y1.4183
G01 X63.2844 Y1.7581
G01 X63.9052 Y2.1536
G01 X64.4892 Y2.6017
G01 X65.0319 Y3.0990
G01 X65.5292 Y3.6418
G01 X65.9774 Y4.2257
G01 X66.3728 Y4.8465
G01 X66.7127 Y5.4994
G01 X66.9944 Y6.1795
G01 X67.2157 Y6.8817
G01 X67.3751 Y7.6003
G01 X67.4711 Y8.3301
G01 X67.5038 Y9.0792
G01 X67.5038 Y30.3619
G01 X67.4711 Y31.1110
G01 X67.3751 Y31.8408
G01 X67.2157 Y32.5594
G01 X66.9944 Y33.2615
G01 X66.7127 Y33.9415
G01 X66.3728 Y34.5945
G01 X65.9773 Y35.2153
G01 X65.5292 Y35.7993
G01 X65.0319 Y36.3420
G01 X64.4891 Y36.8393
G01 X63.9052 Y37.2875
G01 X63.2844 Y37.6829
G01 X62.6315 Y38.0228
G01 X61.9513 Y38.3045
G01 X61.2493 Y38.5259
G01 X60.5307 Y38.6852
G01 X59.8009 Y38.7813
G01 X59.0518 Y38.8140
G01 X9.0814 Y38.8140
G01 X8.3301 Y38.7813
G01 X7.6003 Y38.6852
G01 X6.8817 Y38.5259
G01 X6.1796 Y38.3045
G01 X5.4994 Y38.0228
G01 X4.8465 Y37.6829
G01 X4.2257 Y37.2875
G01 X3.6418 Y36.8393
G01 X3.0990 Y36.3420
G01 X2.6017 Y35.7994
G01 X2.1537 Y35.2153
G01 X1.7581 Y34.5945
G01 X1.4183 Y33.9415
G01 X1.1365 Y33.2615
G01 X0.9152 Y32.5594
G01 X0.7558 Y31.8408
G01 X0.6598 Y31.1110
G01 X0.6271 Y30.3619
G01 X0.6271 Y9.0792
G00 X0.6271 Y9.0792
G01 F76.20
G01 Z-1.2240
G01 F76.20
G01 X0.6598 Y8.3301
G01 X0.7558 Y7.6003
G01 X0.9152 Y6.8817
G01 X1.1365 Y6.1796
G01 X1.4183 Y5.4994
G01 X1.7581 Y4.8465
G01 X2.1536 Y4.2257
G01 X2.6017 Y3.6417
G01 X3.0990 Y3.0990
G01 X3.6417 Y2.6017
G01 X4.2257 Y2.1536
G01 X4.8465 Y1.7581
G01 X5.4994 Y1.4183
G01 X6.1796 Y1.1365
G01 X6.8817 Y0.9152
G01 X7.6003 Y0.7558
G01 X8.3301 Y0.6598
G01 X9.0792 Y0.6271
G01 X59.0518 Y0.6271
G01 X59.8009 Y0.6598
G01 X60.5307 Y0.7558
G01 X61.2493 Y0.9152
G01 X61.9513 Y1.1365
G01 X62.6315 Y1.4183
G01 X63.2844 Y1.7581
G01 X63.9052 Y2.1536
G01 X64.4892 Y2.6017
G01 X65.0319 Y3.0990
G01 X65.5292 Y3.6418
G01 X65.9774 Y4.2257
G01 X66.3728 Y4.8465
G01 X66.7127 Y5.4994
G01 X66.9944 Y6.1795
G01 X67.2157 Y6.8817
G01 X67.3751 Y7.6003
G01 X67.4711 Y8.3301
G01 X67.5038 Y9.0792
G01 X67.5038 Y30.3619
G01 X67.4711 Y31.1110
G01 X67.3751 Y31.8408
G01 X67.2157 Y32.5594
G01 X66.9944 Y33.2615
G01 X66.7127 Y33.9415
G01 X66.3728 Y34.5945
G01 X65.9773 Y35.2153
G01 X65.5292 Y35.7993
G01 X65.0319 Y36.3420
G01 X64.4891 Y36.8393
G01 X63.9052 Y37.2875
G01 X63.2844 Y37.6829
G01 X62.6315 Y38.0228
G01 X61.9513 Y38.3045
G01 X61.2493 Y38.5259
G01 X60.5307 Y38.6852
G01 X59.8009 Y38.7813
G01 X59.0518 Y38.8140
G01 X9.0814 Y38.8140
G01 X8.3301 Y38.7813
G01 X7.6003 Y38.6852
G01 X6.8817 Y38.5259
G01 X6.1796 Y38.3045
G01 X5.4994 Y38.0228
G01 X4.8465 Y37.6829
G01 X4.2257 Y37.2875
G01 X3.6418 Y36.8393
G01 X3.0990 Y36.3420
G01 X2.6017 Y35.7994
G01 X2.1537 Y35.2153
G01 X1.7581 Y34.5945
G01 X1.4183 Y33.9415
G01 X1.1365 Y33.2615
G01 X0.9152 Y32.5594
G01 X0.7558 Y31.8408
G01 X0.6598 Y31.1110
G01 X0.6271 Y30.3619
G01 X0.6271 Y9.0792
G00 X0.6271 Y9.0792
G01 F76.20
G01 Z-1.6000
G01 F76.20
G01 X0.6598 Y8.3301
G01 X0.7558 Y7.6003
G01 X0.9152 Y6.8817
G01 X1.1365 Y6.1796
G01 X1.4183 Y5.4994
G01 X1.7581 Y4.8465
G01 X2.1536 Y4.2257
G01 X2.6017 Y3.6417
G01 X3.0990 Y3.0990
G01 X3.6417 Y2.6017
G01 X4.2257 Y2.1536
G01 X4.8465 Y1.7581
G01 X5.4994 Y1.4183
G01 X6.1796 Y1.1365
G01 X6.8817 Y0.9152
G01 X7.6003 Y0.7558
G01 X8.3301 Y0.6598
G01 X9.0792 Y0.6271
G01 X59.0518 Y0.6271
G01 X59.8009 Y0.6598
G01 X60.5307 Y0.7558
G01 X61.2493 Y0.9152
G01 X61.9513 Y1.1365
G01 X62.6315 Y1.4183
G01 X63.2844 Y1.7581
G01 X63.9052 Y2.1536
G01 X64.4892 Y2.6017
G01 X65.0319 Y3.0990
G01 X65.5292 Y3.6418
G01 X65.9774 Y4.2257
G01 X66.3728 Y4.8465
G01 X66.7127 Y5.4994
G01 X66.9944 Y6.1795
G01 X67.2157 Y6.8817
G01 X67.3751 Y7.6003
G01 X67.4711 Y8.3301
G01 X67.5038 Y9.0792
G01 X67.5038 Y30.3619
G01 X67.4711 Y31.1110
G01 X67.3751 Y31.8408
G01 X67.2157 Y32.5594
G01 X66.9944 Y33.2615
G01 X66.7127 Y33.9415
G01 X66.3728 Y34.5945
G01 X65.9773 Y35.2153
G01 X65.5292 Y35.7993
G01 X65.0319 Y36.3420
G01 X64.4891 Y36.8393
G01 X63.9052 Y37.2875
G01 X63.2844 Y37.6829
G01 X62.6315 Y38.0228
G01 X61.9513 Y38.3045
G01 X61.2493 Y38.5259
G01 X60.5307 Y38.6852
G01 X59.8009 Y38.7813
G01 X59.0518 Y38.8140
G01 X9.0814 Y38.8140
G01 X8.3301 Y38.7813
G01 X7.6003 Y38.6852
G01 X6.8817 Y38.5259
G01 X6.1796 Y38.3045
G01 X5.4994 Y38.0228
G01 X4.8465 Y37.6829
G01 X4.2257 Y37.2875
G01 X3.6418 Y36.8393
G01 X3.0990 Y36.3420
G01 X2.6017 Y35.7994
G01 X2.1537 Y35.2153
G01 X1.7581 Y34.5945
G01 X1.4183 Y33.9415
G01 X1.1365 Y33.2615
G01 X0.9152 Y32.5594
G01 X0.7558 Y31.8408
G01 X0.6598 Y31.1110
G01 X0.6271 Y30.3619
G01 X0.6271 Y9.0792
G00 Z2.5400
G00 X11.2725 Y29.4021
G01 F76.20
G01 Z-0.4080
G01 F76.20
G01 X11.2725 Y29.4791
G01 X11.2679 Y29.5558
G01 X11.2586 Y29.6321
G01 X11.2447 Y29.7081
G01 X11.2264 Y29.7826
G01 X11.2035 Y29.8560
G01 X11.1763 Y29.9277
G01 X11.1446 Y29.9981
G01 X11.1087 Y30.0664
G01 X11.0690 Y30.1322
G01 X11.0255 Y30.1953
G01 X10.9780 Y30.2558
G01 X10.9269 Y30.3135
G01 X10.8725 Y30.3679
G01 X10.8148 Y30.4190
G01 X10.7543 Y30.4665
G01 X10.6912 Y30.5100
G01 X10.6254 Y30.5497
G01 X10.5571 Y30.5856
G01 X10.4867 Y30.6173
G01 X10.4150 Y30.6445
G01 X10.3416 Y30.6674
G01 X10.2671 Y30.6857
G01 X10.1911 Y30.6996
G01 X10.1148 Y30.7089
G01 X10.0381 Y30.7135
G01 X9.9611 Y30.7135
G01 X9.8844 Y30.7089
G01 X9.8081 Y30.6996
G01 X9.7321 Y30.6857
G01 X9.6576 Y30.6674
G01 X9.5842 Y30.6445
G01 X9.5125 Y30.6173
G01 X9.4421 Y30.5856
G01 X9.3738 Y30.5497
G01 X9.3080 Y30.5100
G01 X9.2449 Y30.4665
G01 X9.1844 Y30.4190
G01 X9.1267 Y30.3679
G01 X9.0723 Y30.3135
G01 X9.0212 Y30.2558
G01 X8.9737 Y30.1953
G01 X8.9302 Y30.1322
G01 X8.8905 Y30.0664
G01 X8.8546 Y29.9981
G01 X8.8229 Y29.9277
G01 X8.7958 Y29.8562
G01 X8.7729 Y29.7826
G01 X8.7545 Y29.7078
G01 X8.7406 Y29.6321
G01 X8.7313 Y29.5558
G01 X8.7267 Y29.4791
G01 X8.7267 Y29.4021
G01 X8.7313 Y29.3254
G01 X8.7406 Y29.2491
G01 X8.7545 Y29.1734
G01 X8.7729 Y29.0986
G01 X8.7958 Y29.0250
G01 X8.8229 Y28.9535
G01 X8.8546 Y28.8831
G01 X8.8905 Y28.8148
G01 X8.9302 Y28.7490
G01 X8.9737 Y28.6859
G01 X9.0212 Y28.6254
G01 X9.0723 Y28.5677
G01 X9.1267 Y28.5133
G01 X9.1844 Y28.4622
G01 X9.2449 Y28.4147
G01 X9.3080 Y28.3712
G01 X9.3738 Y28.3315
G01 X9.4421 Y28.2956
G01 X9.5125 Y28.2639
G01 X9.5840 Y28.2368
G01 X9.6576 Y28.2139
G01 X9.7324 Y28.1955
G01 X9.8081 Y28.1816
G01 X9.8844 Y28.1723
G01 X9.9611 Y28.1677
G01 X10.0381 Y28.1677
G01 X10.1148 Y28.1723
G01 X10.1911 Y28.1816
G01 X10.2668 Y28.1955
G01 X10.3416 Y28.2139
G01 X10.4152 Y28.2368
G01 X10.4867 Y28.2639
G01 X10.5571 Y28.2956
G01 X10.6254 Y28.3315
G01 X10.6912 Y28.3712
G01 X10.7543 Y28.4147
G01 X10.8148 Y28.4622
G01 X10.8725 Y28.5133
G01 X10.9269 Y28.5677
G01 X10.9780 Y28.6254
G01 X11.0255 Y28.6859
G01 X11.0690 Y28.7490
G01 X11.1087 Y28.8148
G01 X11.1446 Y28.8831
G01 X11.1763 Y28.9535
G01 X11.2035 Y29.0252
G01 X11.2264 Y29.0986
G01 X11.2447 Y29.1731
G01 X11.2586 Y29.2491
G01 X11.2679 Y29.3254
G01 X11.2725 Y29.4021
G00 X11.2725 Y29.4021
G01 F76.20
G01 Z-0.8160
G01 F76.20
G01 X11.2725 Y29.4791
G01 X11.2679 Y29.5558
G01 X11.2586 Y29.6321
G01 X11.2447 Y29.7081
G01 X11.2264 Y29.7826
G01 X11.2035 Y29.8560
G01 X11.1763 Y29.9277
G01 X11.1446 Y29.9981
G01 X11.1087 Y30.0664
G01 X11.0690 Y30.1322
G01 X11.0255 Y30.1953
G01 X10.9780 Y30.2558
G01 X10.9269 Y30.3135
G01 X10.8725 Y30.3679
G01 X10.8148 Y30.4190
G01 X10.7543 Y30.4665
G01 X10.6912 Y30.5100
G01 X10.6254 Y30.5497
G01 X10.5571 Y30.5856
G01 X10.4867 Y30.6173
G01 X10.4150 Y30.6445
G01 X10.3416 Y30.6674
G01 X10.2671 Y30.6857
G01 X10.1911 Y30.6996
G01 X10.1148 Y30.7089
G01 X10.0381 Y30.7135
G01 X9.9611 Y30.7135
G01 X9.8844 Y30.7089
G01 X9.8081 Y30.6996
G01 X9.7321 Y30.6857
G01 X9.6576 Y30.6674
G01 X9.5842 Y30.6445
G01 X9.5125 Y30.6173
G01 X9.4421 Y30.5856
G01 X9.3738 Y30.5497
G01 X9.3080 Y30.5100
G01 X9.2449 Y30.4665
G01 X9.1844 Y30.4190
G01 X9.1267 Y30.3679
G01 X9.0723 Y30.3135
G01 X9.0212 Y30.2558
G01 X8.9737 Y30.1953
G01 X8.9302 Y30.1322
G01 X8.8905 Y30.0664
G01 X8.8546 Y29.9981
G01 X8.8229 Y29.9277
G01 X8.7958 Y29.8562
G01 X8.7729 Y29.7826
G01 X8.7545 Y29.7078
G01 X8.7406 Y29.6321
G01 X8.7313 Y29.5558
G01 X8.7267 Y29.4791
G01 X8.7267 Y29.4021
G01 X8.7313 Y29.3254
G01 X8.7406 Y29.2491
G01 X8.7545 Y29.1734
G01 X8.7729 Y29.0986
G01 X8.7958 Y29.0250
G01 X8.8229 Y28.9535
G01 X8.8546 Y28.8831
G01 X8.8905 Y28.8148
G01 X8.9302 Y28.7490
G01 X8.9737 Y28.6859
G01 X9.0212 Y28.6254
G01 X9.0723 Y28.5677
G01 X9.1267 Y28.5133
G01 X9.1844 Y28.4622
G01 X9.2449 Y28.4147
G01 X9.3080 Y28.3712
G01 X9.3738 Y28.3315
G01 X9.4421 Y28.2956
G01 X9.5125 Y28.2639
G01 X9.5840 Y28.2368
G01 X9.6576 Y28.2139
G01 X9.7324 Y28.1955
G01 X9.8081 Y28.1816
G01 X9.8844 Y28.1723
G01 X9.9611 Y28.1677
G01 X10.0381 Y28.1677
G01 X10.1148 Y28.1723
G01 X10.1911 Y28.1816
G01 X10.2668 Y28.1955
G01 X10.3416 Y28.2139
G01 X10.4152 Y28.2368
G01 X10.4867 Y28.2639
G01 X10.5571 Y28.2956
G01 X10.6254 Y28.3315
G01 X10.6912 Y28.3712
G01 X10.7543 Y28.4147
G01 X10.8148 Y28.4622
G01 X10.8725 Y28.5133
G01 X10.9269 Y28.5677
G01 X10.9780 Y28.6254
G01 X11.0255 Y28.6859
G01 X11.0690 Y28.7490
G01 X11.1087 Y28.8148
G01 X11.1446 Y28.8831
G01 X11.1763 Y28.9535
G01 X11.2035 Y29.0252
G01 X11.2264 Y29.0986
G01 X11.2447 Y29.1731
G01 X11.2586 Y29.2491
G01 X11.2679 Y29.3254
G01 X11.2725 Y29.4021
G00 X11.2725 Y29.4021
G01 F76.20
G01 Z-1.2240
G01 F76.20
G01 X11.2725 Y29.4791
G01 X11.2679 Y29.5558
G01 X11.2586 Y29.6321
G01 X11.2447 Y29.7081
G01 X11.2264 Y29.7826
G01 X11.2035 Y29.8560
G01 X11.1763 Y29.9277
G01 X11.1446 Y29.9981
G01 X11.1087 Y30.0664
G01 X11.0690 Y30.1322
G01 X11.0255 Y30.1953
G01 X10.9780 Y30.2558
G01 X10.9269 Y30.3135
G01 X10.8725 Y30.3679
G01 X10.8148 Y30.4190
G01 X10.7543 Y30.4665
G01 X10.6912 Y30.5100
G01 X10.6254 Y30.5497
G01 X10.5571 Y30.5856
G01 X10.4867 Y30.6173
G01 X10.4150 Y30.6445
G01 X10.3416 Y30.6674
G01 X10.2671 Y30.6857
G01 X10.1911 Y30.6996
G01 X10.1148 Y30.7089
G01 X10.0381 Y30.7135
G01 X9.9611 Y30.7135
G01 X9.8844 Y30.7089
G01 X9.8081 Y30.6996
G01 X9.7321 Y30.6857
G01 X9.6576 Y30.6674
G01 X9.5842 Y30.6445
G01 X9.5125 Y30.6173
G01 X9.4421 Y30.5856
G01 X9.3738 Y30.5497
G01 X9.3080 Y30.5100
G01 X9.2449 Y30.4665
G01 X9.1844 Y30.4190
G01 X9.1267 Y30.3679
G01 X9.0723 Y30.3135
G01 X9.0212 Y30.2558
G01 X8.9737 Y30.1953
G01 X8.9302 Y30.1322
G01 X8.8905 Y30.0664
G01 X8.8546 Y29.9981
G01 X8.8229 Y29.9277
G01 X8.7958 Y29.8562
G01 X8.7729 Y29.7826
G01 X8.7545 Y29.7078
G01 X8.7406 Y29.6321
G01 X8.7313 Y29.5558
G01 X8.7267 Y29.4791
G01 X8.7267 Y29.4021
G01 X8.7313 Y29.3254
G01 X8.7406 Y29.2491
G01 X8.7545 Y29.1734
G01 X8.7729 Y29.0986
G01 X8.7958 Y29.0250
G01 X8.8229 Y28.9535
G01 X8.8546 Y28.8831
G01 X8.8905 Y28.8148
G01 X8.9302 Y28.7490
G01 X8.9737 Y28.6859
G01 X9.0212 Y28.6254
G01 X9.0723 Y28.5677
G01 X9.1267 Y28.5133
G01 X9.1844 Y28.4622
G01 X9.2449 Y28.4147
G01 X9.3080 Y28.3712
G01 X9.3738 Y28.3315
G01 X9.4421 Y28.2956
G01 X9.5125 Y28.2639
G01 X9.5840 Y28.2368
G01 X9.6576 Y28.2139
G01 X9.7324 Y28.1955
G01 X9.8081 Y28.1816
G01 X9.8844 Y28.1723
G01 X9.9611 Y28.1677
G01 X10.0381 Y28.1677
G01 X10.1148 Y28.1723
G01 X10.1911 Y28.1816
G01 X10.2668 Y28.1955
G01 X10.3416 Y28.2139
G01 X10.4152 Y28.2368
G01 X10.4867 Y28.2639
G01 X10.5571 Y28.2956
G01 X10.6254 Y28.3315
G01 X10.6912 Y28.3712
G01 X10.7543 Y28.4147
G01 X10.8148 Y28.4622
G01 X10.8725 Y28.5133
G01 X10.9269 Y28.5677
G01 X10.9780 Y28.6254
G01 X11.0255 Y28.6859
G01 X11.0690 Y28.7490
G01 X11.1087 Y28.8148
G01 X11.1446 Y28.8831
G01 X11.1763 Y28.9535
G01 X11.2035 Y29.0252
G01 X11.2264 Y29.0986
G01 X11.2447 Y29.1731
G01 X11.2586 Y29.2491
G01 X11.2679 Y29.3254
G01 X11.2725 Y29.4021
G00 X11.2725 Y29.4021
G01 F76.20
G01 Z-1.6000
G01 F76.20
G01 X11.2725 Y29.4791
G01 X11.2679 Y29.5558
G01 X11.2586 Y29.6321
G01 X11.2447 Y29.7081
G01 X11.2264 Y29.7826
G01 X11.2035 Y29.8560
G01 X11.1763 Y29.9277
G01 X11.1446 Y29.9981
G01 X11.1087 Y30.0664
G01 X11.0690 Y30.1322
G01 X11.0255 Y30.1953
G01 X10.9780 Y30.2558
G01 X10.9269 Y30.3135
G01 X10.8725 Y30.3679
G01 X10.8148 Y30.4190
G01 X10.7543 Y30.4665
G01 X10.6912 Y30.5100
G01 X10.6254 Y30.5497
G01 X10.5571 Y30.5856
G01 X10.4867 Y30.6173
G01 X10.4150 Y30.6445
G01 X10.3416 Y30.6674
G01 X10.2671 Y30.6857
G01 X10.1911 Y30.6996
G01 X10.1148 Y30.7089
G01 X10.0381 Y30.7135
G01 X9.9611 Y30.7135
G01 X9.8844 Y30.7089
G01 X9.8081 Y30.6996
G01 X9.7321 Y30.6857
G01 X9.6576 Y30.6674
G01 X9.5842 Y30.6445
G01 X9.5125 Y30.6173
G01 X9.4421 Y30.5856
G01 X9.3738 Y30.5497
G01 X9.3080 Y30.5100
G01 X9.2449 Y30.4665
G01 X9.1844 Y30.4190
G01 X9.1267 Y30.3679
G01 X9.0723 Y30.3135
G01 X9.0212 Y30.2558
G01 X8.9737 Y30.1953
G01 X8.9302 Y30.1322
G01 X8.8905 Y30.0664
G01 X8.8546 Y29.9981
G01 X8.8229 Y29.9277
G01 X8.7958 Y29.8562
G01 X8.7729 Y29.7826
G01 X8.7545 Y29.7078
G01 X8.7406 Y29.6321
G01 X8.7313 Y29.5558
G01 X8.7267 Y29.4791
G01 X8.7267 Y29.4021
G01 X8.7313 Y29.3254
G01 X8.7406 Y29.2491
G01 X8.7545 Y29.1734
G01 X8.7729 Y29.0986
G01 X8.7958 Y29.0250
G01 X8.8229 Y28.9535
G01 X8.8546 Y28.8831
G01 X8.8905 Y28.8148
G01 X8.9302 Y28.7490
G01 X8.9737 Y28.6859
G01 X9.0212 Y28.6254
G01 X9.0723 Y28.5677
G01 X9.1267 Y28.5133
G01 X9.1844 Y28.4622
G01 X9.2449 Y28.4147
G01 X9.3080 Y28.3712
G01 X9.3738 Y28.3315
G01 X9.4421 Y28.2956
G01 X9.5125 Y28.2639
G01 X9.5840 Y28.2368
G01 X9.6576 Y28.2139
G01 X9.7324 Y28.1955
G01 X9.8081 Y28.1816
G01 X9.8844 Y28.1723
G01 X9.9611 Y28.1677
G01 X10.0381 Y28.1677
G01 X10.1148 Y28.1723
G01 X10.1911 Y28.1816
G01 X10.2668 Y28.1955
G01 X10.3416 Y28.2139
G01 X10.4152 Y28.2368
G01 X10.4867 Y28.2639
G01 X10.5571 Y28.2956
G01 X10.6254 Y28.3315
G01 X10.6912 Y28.3712
G01 X10.7543 Y28.4147
G01 X10.8148 Y28.4622
G01 X10.8725 Y28.5133
G01 X10.9269 Y28.5677
G01 X10.9780 Y28.6254
G01 X11.0255 Y28.6859
G01 X11.0690 Y28.7490
G01 X11.1087 Y28.8148
G01 X11.1446 Y28.8831
G01 X11.1763 Y28.9535
G01 X11.2035 Y29.0252
G01 X11.2264 Y29.0986
G01 X11.2447 Y29.1731
G01 X11.2586 Y29.2491
G01 X11.2679 Y29.3254
G01 X11.2725 Y29.4021
G00 Z2.5400
G00 X44.1385 Y21.3286
G01 F76.20
G01 Z-0.4080
G01 F76.20
G01 X44.1385 Y21.6016
G01 X44.1312 Y21.8743
G01 X44.1164 Y22.1466
G01 X44.0942 Y22.4185
G01 X44.0647 Y22.6898
G01 X44.0279 Y22.9602
G01 X43.9838 Y23.2294
G01 X43.9324 Y23.4973
G01 X43.8737 Y23.7637
G01 X43.8079 Y24.0284
G01 X43.7349 Y24.2914
G01 X43.6549 Y24.5521
G01 X43.5677 Y24.8106
G01 X43.4736 Y25.0668
G01 X43.3726 Y25.3202
G01 X43.2648 Y25.5708
G01 X43.1502 Y25.8184
G01 X43.0291 Y26.0628
G01 X42.9013 Y26.3039
G01 X42.7670 Y26.5414
G01 X42.6264 Y26.7751
G01 X42.4794 Y27.0050
G01 X42.3264 Y27.2308
G01 X42.1672 Y27.4524
G01 X42.0021 Y27.6695
G01 X41.8311 Y27.8822
G01 X41.6544 Y28.0902
G01 X41.4723 Y28.2932
G01 X41.2847 Y28.4913
G01 X41.0918 Y28.6842
G01 X40.8937 Y28.8718
G01 X40.6907 Y29.0539
G01 X40.4827 Y29.2306
G01 X40.2700 Y29.4016
G01 X40.0529 Y29.5667
G01 X39.8313 Y29.7259
G01 X39.6055 Y29.8789
G01 X39.3756 Y30.0259
G01 X39.1419 Y30.1665
G01 X38.9044 Y30.3008
G01 X38.6633 Y30.4286
G01 X38.4189 Y30.5497
G01 X38.1713 Y30.6643
G01 X37.9207 Y30.7721
G01 X37.6673 Y30.8731
G01 X37.4111 Y30.9672
G01 X37.1526 Y31.0544
G01 X36.8919 Y31.1344
G01 X36.6289 Y31.2074
G01 X36.3642 Y31.2732
G01 X36.0978 Y31.3319
G01 X35.8299 Y31.3833
G01 X35.5607 Y31.4274
G01 X35.2903 Y31.4642
G01 X35.0190 Y31.4937
G01 X34.7471 Y31.5159
G01 X34.4748 Y31.5307
G01 X34.2021 Y31.5380
G01 X33.9291 Y31.5380
G01 X33.6564 Y31.5307
G01 X33.3841 Y31.5159
G01 X33.1122 Y31.4937
G01 X32.8409 Y31.4642
G01 X32.5705 Y31.4274
G01 X32.3013 Y31.3833
G01 X32.0334 Y31.3319
G01 X31.7670 Y31.2732
G01 X31.5023 Y31.2074
G01 X31.2393 Y31.1344
G01 X30.9786 Y31.0544
G01 X30.7201 Y30.9672
G01 X30.4639 Y30.8731
G01 X30.2105 Y30.7721
G01 X29.9599 Y30.6643
G01 X29.7123 Y30.5497
G01 X29.4679 Y30.4286
G01 X29.2268 Y30.3008
G01 X28.9893 Y30.1665
G01 X28.7556 Y30.0259
G01 X28.5257 Y29.8789
G01 X28.2999 Y29.7259
G01 X28.0783 Y29.5667
G01 X27.8612 Y29.4016
G01 X27.6485 Y29.2306
G01 X27.4405 Y29.0539
G01 X27.2375 Y28.8718
G01 X27.0394 Y28.6842
G01 X26.8465 Y28.4913
G01 X26.6589 Y28.2932
G01 X26.4768 Y28.0902
G01 X26.3001 Y27.8822
G01 X26.1291 Y27.6695
G01 X25.9640 Y27.4524
G01 X25.8048 Y27.2308
G01 X25.6518 Y27.0050
G01 X25.5048 Y26.7751
G01 X25.3642 Y26.5414
G01 X25.2299 Y26.3039
G01 X25.1021 Y26.0628
G01 X24.9810 Y25.8184
G01 X24.8664 Y25.5708
G01 X24.7586 Y25.3202
G01 X24.6576 Y25.0668
G01 X24.5635 Y24.8106
G01 X24.4763 Y24.5521
G01 X24.3964 Y24.2915
G01 X24.3234 Y24.0284
G01 X24.2575 Y23.7636
G01 X24.1988 Y23.4973
G01 X24.1474 Y23.2294
G01 X24.1033 Y22.9602
G01 X24.0665 Y22.6898
G01 X24.0370 Y22.4185
G01 X24.0148 Y22.1466
G01 X24.0000 Y21.8743
G01 X23.9927 Y21.6016
G01 X23.9927 Y21.3286
G01 X24.0000 Y21.0559
G01 X24.0148 Y20.7836
G01 X24.0370 Y20.5117
G01 X24.0665 Y20.2404
G01 X24.1033 Y19.9700
G01 X24.1474 Y19.7008
G01 X24.1988 Y19.4329
G01 X24.2575 Y19.1666
G01 X24.3234 Y18.9018
G01 X24.3964 Y18.6387
G01 X24.4763 Y18.3781
G01 X24.5635 Y18.1196
G01 X24.6576 Y17.8634
G01 X24.7586 Y17.6100
G01 X24.8664 Y17.3594
G01 X24.9810 Y17.1118
G01 X25.1021 Y16.8674
G01 X25.2299 Y16.6263
G01 X25.3642 Y16.3888
G01 X25.5048 Y16.1551
G01 X25.6518 Y15.9252
G01 X25.8048 Y15.6994
G01 X25.9640 Y15.4778
G01 X26.1291 Y15.2607
G01 X26.3001 Y15.0480
G01 X26.4768 Y14.8400
G01 X26.6589 Y14.6370
G01 X26.8465 Y14.4389
G01 X27.0394 Y14.2460
G01 X27.2375 Y14.0584
G01 X27.4405 Y13.8763
G01 X27.6485 Y13.6996
G01 X27.8612 Y13.5286
G01 X28.0783 Y13.3635
G01 X28.2999 Y13.2043
G01 X28.5257 Y13.0513
G01 X28.7556 Y12.9043
G01 X28.9893 Y12.7637
G01 X29.2268 Y12.6294
G01 X29.4679 Y12.5016
G01 X29.7123 Y12.3805
G01 X29.9599 Y12.2659
G01 X30.2105 Y12.1581
G01 X30.4639 Y12.0571
G01 X30.7201 Y11.9630
G01 X30.9786 Y11.8758
G01 X31.2392 Y11.7959
G01 X31.5023 Y11.7229
G01 X31.7671 Y11.6570
G01 X32.0334 Y11.5983
G01 X32.3013 Y11.5469
G01 X32.5705 Y11.5028
G01 X32.8409 Y11.4660
G01 X33.1122 Y11.4365
G01 X33.3841 Y11.4143
G01 X33.6564 Y11.3995
G01 X33.9291 Y11.3922
G01 X34.2021 Y11.3922
G01 X34.4748 Y11.3995
G01 X34.7471 Y11.4143
G01 X35.0190 Y11.4365
G01 X35.2903 Y11.4660
G01 X35.5607 Y11.5028
G01 X35.8299 Y11.5469
G01 X36.0978 Y11.5983
G01 X36.3641 Y11.6570
G01 X36.6289 Y11.7229
G01 X36.8920 Y11.7959
G01 X37.1526 Y11.8758
G01 X37.4111 Y11.9630
G01 X37.6673 Y12.0571
G01 X37.9207 Y12.1581
G01 X38.1713 Y12.2659
G01 X38.4189 Y12.3805
G01 X38.6633 Y12.5016
G01 X38.9044 Y12.6294
G01 X39.1419 Y12.7637
G01 X39.3756 Y12.9043
G01 X39.6055 Y13.0513
G01 X39.8313 Y13.2043
G01 X40.0529 Y13.3635
G01 X40.2700 Y13.5286
G01 X40.4827 Y13.6996
G01 X40.6907 Y13.8763
G01 X40.8937 Y14.0584
G01 X41.0918 Y14.2460
G01 X41.2847 Y14.4389
G01 X41.4723 Y14.6370
G01 X41.6544 Y14.8400
G01 X41.8311 Y15.0480
G01 X42.0021 Y15.2607
G01 X42.1672 Y15.4778
G01 X42.3264 Y15.6994
G01 X42.4794 Y15.9252
G01 X42.6264 Y16.1551
G01 X42.7670 Y16.3888
G01 X42.9013 Y16.6263
G01 X43.0291 Y16.8674
G01 X43.1502 Y17.1118
G01 X43.2648 Y17.3594
G01 X43.3726 Y17.6100
G01 X43.4736 Y17.8634
G01 X43.5677 Y18.1196
G01 X43.6549 Y18.3781
G01 X43.7349 Y18.6388
G01 X43.8079 Y18.9018
G01 X43.8737 Y19.1665
G01 X43.9324 Y19.4329
G01 X43.9838 Y19.7008
G01 X44.0279 Y19.9700
G01 X44.0647 Y20.2404
G01 X44.0942 Y20.5117
G01 X44.1164 Y20.7836
G01 X44.1312 Y21.0559
G01 X44.1385 Y21.3286
G00 X44.1385 Y21.3286
G01 F76.20
G01 Z-0.8160
G01 F76.20
G01 X44.1385 Y21.6016
G01 X44.1312 Y21.8743
G01 X44.1164 Y22.1466
G01 X44.0942 Y22.4185
G01 X44.0647 Y22.6898
G01 X44.0279 Y22.9602
G01 X43.9838 Y23.2294
G01 X43.9324 Y23.4973
G01 X43.8737 Y23.7637
G01 X43.8079 Y24.0284
G01 X43.7349 Y24.2914
G01 X43.6549 Y24.5521
G01 X43.5677 Y24.8106
G01 X43.4736 Y25.0668
G01 X43.3726 Y25.3202
G01 X43.2648 Y25.5708
G01 X43.1502 Y25.8184
G01 X43.0291 Y26.0628
G01 X42.9013 Y26.3039
G01 X42.7670 Y26.5414
G01 X42.6264 Y26.7751
G01 X42.4794 Y27.0050
G01 X42.3264 Y27.2308
G01 X42.1672 Y27.4524
G01 X42.0021 Y27.6695
G01 X41.8311 Y27.8822
G01 X41.6544 Y28.0902
G01 X41.4723 Y28.2932
G01 X41.2847 Y28.4913
G01 X41.0918 Y28.6842
G01 X40.8937 Y28.8718
G01 X40.6907 Y29.0539
G01 X40.4827 Y29.2306
G01 X40.2700 Y29.4016
G01 X40.0529 Y29.5667
G01 X39.8313 Y29.7259
G01 X39.6055 Y29.8789
G01 X39.3756 Y30.0259
G01 X39.1419 Y30.1665
G01 X38.9044 Y30.3008
G01 X38.6633 Y30.4286
G01 X38.4189 Y30.5497
G01 X38.1713 Y30.6643
G01 X37.9207 Y30.7721
G01 X37.6673 Y30.8731
G01 X37.4111 Y30.9672
G01 X37.1526 Y31.0544
G01 X36.8919 Y31.1344
G01 X36.6289 Y31.2074
G01 X36.3642 Y31.2732
G01 X36.0978 Y31.3319
G01 X35.8299 Y31.3833
G01 X35.5607 Y31.4274
G01 X35.2903 Y31.4642
G01 X35.0190 Y31.4937
G01 X34.7471 Y31.5159
G01 X34.4748 Y31.5307
G01 X34.2021 Y31.5380
G01 X33.9291 Y31.5380
G01 X33.6564 Y31.5307
G01 X33.3841 Y31.5159
G01 X33.1122 Y31.4937
G01 X32.8409 Y31.4642
G01 X32.5705 Y31.4274
G01 X32.3013 Y31.3833
G01 X32.0334 Y31.3319
G01 X31.7670 Y31.2732
G01 X31.5023 Y31.2074
G01 X31.2393 Y31.1344
G01 X30.9786 Y31.0544
G01 X30.7201 Y30.9672
G01 X30.4639 Y30.8731
G01 X30.2105 Y30.7721
G01 X29.9599 Y30.6643
G01 X29.7123 Y30.5497
G01 X29.4679 Y30.4286
G01 X29.2268 Y30.3008
G01 X28.9893 Y30.1665
G01 X28.7556 Y30.0259
G01 X28.5257 Y29.8789
G01 X28.2999 Y29.7259
G01 X28.0783 Y29.5667
G01 X27.8612 Y29.4016
G01 X27.6485 Y29.2306
G01 X27.4405 Y29.0539
G01 X27.2375 Y28.8718
G01 X27.0394 Y28.6842
G01 X26.8465 Y28.4913
G01 X26.6589 Y28.2932
G01 X26.4768 Y28.0902
G01 X26.3001 Y27.8822
G01 X26.1291 Y27.6695
G01 X25.9640 Y27.4524
G01 X25.8048 Y27.2308
G01 X25.6518 Y27.0050
G01 X25.5048 Y26.7751
G01 X25.3642 Y26.5414
G01 X25.2299 Y26.3039
G01 X25.1021 Y26.0628
G01 X24.9810 Y25.8184
G01 X24.8664 Y25.5708
G01 X24.7586 Y25.3202
G01 X24.6576 Y25.0668
G01 X24.5635 Y24.8106
G01 X24.4763 Y24.5521
G01 X24.3964 Y24.2915
G01 X24.3234 Y24.0284
G01 X24.2575 Y23.7636
G01 X24.1988 Y23.4973
G01 X24.1474 Y23.2294
G01 X24.1033 Y22.9602
G01 X24.0665 Y22.6898
G01 X24.0370 Y22.4185
G01 X24.0148 Y22.1466
G01 X24.0000 Y21.8743
G01 X23.9927 Y21.6016
G01 X23.9927 Y21.3286
G01 X24.0000 Y21.0559
G01 X24.0148 Y20.7836
G01 X24.0370 Y20.5117
G01 X24.0665 Y20.2404
G01 X24.1033 Y19.9700
G01 X24.1474 Y19.7008
G01 X24.1988 Y19.4329
G01 X24.2575 Y19.1666
G01 X24.3234 Y18.9018
G01 X24.3964 Y18.6387
G01 X24.4763 Y18.3781
G01 X24.5635 Y18.1196
G01 X24.6576 Y17.8634
G01 X24.7586 Y17.6100
G01 X24.8664 Y17.3594
G01 X24.9810 Y17.1118
G01 X25.1021 Y16.8674
G01 X25.2299 Y16.6263
G01 X25.3642 Y16.3888
G01 X25.5048 Y16.1551
G01 X25.6518 Y15.9252
G01 X25.8048 Y15.6994
G01 X25.9640 Y15.4778
G01 X26.1291 Y15.2607
G01 X26.3001 Y15.0480
G01 X26.4768 Y14.8400
G01 X26.6589 Y14.6370
G01 X26.8465 Y14.4389
G01 X27.0394 Y14.2460
G01 X27.2375 Y14.0584
G01 X27.4405 Y13.8763
G01 X27.6485 Y13.6996
G01 X27.8612 Y13.5286
G01 X28.0783 Y13.3635
G01 X28.2999 Y13.2043
G01 X28.5257 Y13.0513
G01 X28.7556 Y12.9043
G01 X28.9893 Y12.7637
G01 X29.2268 Y12.6294
G01 X29.4679 Y12.5016
G01 X29.7123 Y12.3805
G01 X29.9599 Y12.2659
G01 X30.2105 Y12.1581
G01 X30.4639 Y12.0571
G01 X30.7201 Y11.9630
G01 X30.9786 Y11.8758
G01 X31.2392 Y11.7959
G01 X31.5023 Y11.7229
G01 X31.7671 Y11.6570
G01 X32.0334 Y11.5983
G01 X32.3013 Y11.5469
G01 X32.5705 Y11.5028
G01 X32.8409 Y11.4660
G01 X33.1122 Y11.4365
G01 X33.3841 Y11.4143
G01 X33.6564 Y11.3995
G01 X33.9291 Y11.3922
G01 X34.2021 Y11.3922
G01 X34.4748 Y11.3995
G01 X34.7471 Y11.4143
G01 X35.0190 Y11.4365
G01 X35.2903 Y11.4660
G01 X35.5607 Y11.5028
G01 X35.8299 Y11.5469
G01 X36.0978 Y11.5983
G01 X36.3641 Y11.6570
G01 X36.6289 Y11.7229
G01 X36.8920 Y11.7959
G01 X37.1526 Y11.8758
G01 X37.4111 Y11.9630
G01 X37.6673 Y12.0571
G01 X37.9207 Y12.1581
G01 X38.1713 Y12.2659
G01 X38.4189 Y12.3805
G01 X38.6633 Y12.5016
G01 X38.9044 Y12.6294
G01 X39.1419 Y12.7637
G01 X39.3756 Y12.9043
G01 X39.6055 Y13.0513
G01 X39.8313 Y13.2043
G01 X40.0529 Y13.3635
G01 X40.2700 Y13.5286
G01 X40.4827 Y13.6996
G01 X40.6907 Y13.8763
G01 X40.8937 Y14.0584
G01 X41.0918 Y14.2460
G01 X41.2847 Y14.4389
G01 X41.4723 Y14.6370
G01 X41.6544 Y14.8400
G01 X41.8311 Y15.0480
G01 X42.0021 Y15.2607
G01 X42.1672 Y15.4778
G01 X42.3264 Y15.6994
G01 X42.4794 Y15.9252
G01 X42.6264 Y16.1551
G01 X42.7670 Y16.3888
G01 X42.9013 Y16.6263
G01 X43.0291 Y16.8674
G01 X43.1502 Y17.1118
G01 X43.2648 Y17.3594
G01 X43.3726 Y17.6100
G01 X43.4736 Y17.8634
G01 X43.5677 Y18.1196
G01 X43.6549 Y18.3781
G01 X43.7349 Y18.6388
G01 X43.8079 Y18.9018
G01 X43.8737 Y19.1665
G01 X43.9324 Y19.4329
G01 X43.9838 Y19.7008
G01 X44.0279 Y19.9700
G01 X44.0647 Y20.2404
G01 X44.0942 Y20.5117
G01 X44.1164 Y20.7836
G01 X44.1312 Y21.0559
G01 X44.1385 Y21.3286
G00 X44.1385 Y21.3286
G01 F76.20
G01 Z-1.2240
G01 F76.20
G01 X44.1385 Y21.6016
G01 X44.1312 Y21.8743
G01 X44.1164 Y22.1466
G01 X44.0942 Y22.4185
G01 X44.0647 Y22.6898
G01 X44.0279 Y22.9602
G01 X43.9838 Y23.2294
G01 X43.9324 Y23.4973
G01 X43.8737 Y23.7637
G01 X43.8079 Y24.0284
G01 X43.7349 Y24.2914
G01 X43.6549 Y24.5521
G01 X43.5677 Y24.8106
G01 X43.4736 Y25.0668
G01 X43.3726 Y25.3202
G01 X43.2648 Y25.5708
G01 X43.1502 Y25.8184
G01 X43.0291 Y26.0628
G01 X42.9013 Y26.3039
G01 X42.7670 Y26.5414
G01 X42.6264 Y26.7751
G01 X42.4794 Y27.0050
G01 X42.3264 Y27.2308
G01 X42.1672 Y27.4524
G01 X42.0021 Y27.6695
G01 X41.8311 Y27.8822
G01 X41.6544 Y28.0902
G01 X41.4723 Y28.2932
G01 X41.2847 Y28.4913
G01 X41.0918 Y28.6842
G01 X40.8937 Y28.8718
G01 X40.6907 Y29.0539
G01 X40.4827 Y29.2306
G01 X40.2700 Y29.4016
G01 X40.0529 Y29.5667
G01 X39.8313 Y29.7259
G01 X39.6055 Y29.8789
G01 X39.3756 Y30.0259
G01 X39.1419 Y30.1665
G01 X38.9044 Y30.3008
G01 X38.6633 Y30.4286
G01 X38.4189 Y30.5497
G01 X38.1713 Y30.6643
G01 X37.9207 Y30.7721
G01 X37.6673 Y30.8731
G01 X37.4111 Y30.9672
G01 X37.1526 Y31.0544
G01 X36.8919 Y31.1344
G01 X36.6289 Y31.2074
G01 X36.3642 Y31.2732
G01 X36.0978 Y31.3319
G01 X35.8299 Y31.3833
G01 X35.5607 Y31.4274
G01 X35.2903 Y31.4642
G01 X35.0190 Y31.4937
G01 X34.7471 Y31.5159
G01 X34.4748 Y31.5307
G01 X34.2021 Y31.5380
G01 X33.9291 Y31.5380
G01 X33.6564 Y31.5307
G01 X33.3841 Y31.5159
G01 X33.1122 Y31.4937
G01 X32.8409 Y31.4642
G01 X32.5705 Y31.4274
G01 X32.3013 Y31.3833
G01 X32.0334 Y31.3319
G01 X31.7670 Y31.2732
G01 X31.5023 Y31.2074
G01 X31.2393 Y31.1344
G01 X30.9786 Y31.0544
G01 X30.7201 Y30.9672
G01 X30.4639 Y30.8731
G01 X30.2105 Y30.7721
G01 X29.9599 Y30.6643
G01 X29.7123 Y30.5497
G01 X29.4679 Y30.4286
G01 X29.2268 Y30.3008
G01 X28.9893 Y30.1665
G01 X28.7556 Y30.0259
G01 X28.5257 Y29.8789
G01 X28.2999 Y29.7259
G01 X28.0783 Y29.5667
G01 X27.8612 Y29.4016
G01 X27.6485 Y29.2306
G01 X27.4405 Y29.0539
G01 X27.2375 Y28.8718
G01 X27.0394 Y28.6842
G01 X26.8465 Y28.4913
G01 X26.6589 Y28.2932
G01 X26.4768 Y28.0902
G01 X26.3001 Y27.8822
G01 X26.1291 Y27.6695
G01 X25.9640 Y27.4524
G01 X25.8048 Y27.2308
G01 X25.6518 Y27.0050
G01 X25.5048 Y26.7751
G01 X25.3642 Y26.5414
G01 X25.2299 Y26.3039
G01 X25.1021 Y26.0628
G01 X24.9810 Y25.8184
G01 X24.8664 Y25.5708
G01 X24.7586 Y25.3202
G01 X24.6576 Y25.0668
G01 X24.5635 Y24.8106
G01 X24.4763 Y24.5521
G01 X24.3964 Y24.2915
G01 X24.3234 Y24.0284
G01 X24.2575 Y23.7636
G01 X24.1988 Y23.4973
G01 X24.1474 Y23.2294
G01 X24.1033 Y22.9602
G01 X24.0665 Y22.6898
G01 X24.0370 Y22.4185
G01 X24.0148 Y22.1466
G01 X24.0000 Y21.8743
G01 X23.9927 Y21.6016
G01 X23.9927 Y21.3286
G01 X24.0000 Y21.0559
G01 X24.0148 Y20.7836
G01 X24.0370 Y20.5117
G01 X24.0665 Y20.2404
G01 X24.1033 Y19.9700
G01 X24.1474 Y19.7008
G01 X24.1988 Y19.4329
G01 X24.2575 Y19.1666
G01 X24.3234 Y18.9018
G01 X24.3964 Y18.6387
G01 X24.4763 Y18.3781
G01 X24.5635 Y18.1196
G01 X24.6576 Y17.8634
G01 X24.7586 Y17.6100
G01 X24.8664 Y17.3594
G01 X24.9810 Y17.1118
G01 X25.1021 Y16.8674
G01 X25.2299 Y16.6263
G01 X25.3642 Y16.3888
G01 X25.5048 Y16.1551
G01 X25.6518 Y15.9252
G01 X25.8048 Y15.6994
G01 X25.9640 Y15.4778
G01 X26.1291 Y15.2607
G01 X26.3001 Y15.0480
G01 X26.4768 Y14.8400
G01 X26.6589 Y14.6370
G01 X26.8465 Y14.4389
G01 X27.0394 Y14.2460
G01 X27.2375 Y14.0584
G01 X27.4405 Y13.8763
G01 X27.6485 Y13.6996
G01 X27.8612 Y13.5286
G01 X28.0783 Y13.3635
G01 X28.2999 Y13.2043
G01 X28.5257 Y13.0513
G01 X28.7556 Y12.9043
G01 X28.9893 Y12.7637
G01 X29.2268 Y12.6294
G01 X29.4679 Y12.5016
G01 X29.7123 Y12.3805
G01 X29.9599 Y12.2659
G01 X30.2105 Y12.1581
G01 X30.4639 Y12.0571
G01 X30.7201 Y11.9630
G01 X30.9786 Y11.8758
G01 X31.2392 Y11.7959
G01 X31.5023 Y11.7229
G01 X31.7671 Y11.6570
G01 X32.0334 Y11.5983
G01 X32.3013 Y11.5469
G01 X32.5705 Y11.5028
G01 X32.8409 Y11.4660
G01 X33.1122 Y11.4365
G01 X33.3841 Y11.4143
G01 X33.6564 Y11.3995
G01 X33.9291 Y11.3922
G01 X34.2021 Y11.3922
G01 X34.4748 Y11.3995
G01 X34.7471 Y11.4143
G01 X35.0190 Y11.4365
G01 X35.2903 Y11.4660
G01 X35.5607 Y11.5028
G01 X35.8299 Y11.5469
G01 X36.0978 Y11.5983
G01 X36.3641 Y11.6570
G01 X36.6289 Y11.7229
G01 X36.8920 Y11.7959
G01 X37.1526 Y11.8758
G01 X37.4111 Y11.9630
G01 X37.6673 Y12.0571
G01 X37.9207 Y12.1581
G01 X38.1713 Y12.2659
G01 X38.4189 Y12.3805
G01 X38.6633 Y12.5016
G01 X38.9044 Y12.6294
G01 X39.1419 Y12.7637
G01 X39.3756 Y12.9043
G01 X39.6055 Y13.0513
G01 X39.8313 Y13.2043
G01 X40.0529 Y13.3635
G01 X40.2700 Y13.5286
G01 X40.4827 Y13.6996
G01 X40.6907 Y13.8763
G01 X40.8937 Y14.0584
G01 X41.0918 Y14.2460
G01 X41.2847 Y14.4389
G01 X41.4723 Y14.6370
G01 X41.6544 Y14.8400
G01 X41.8311 Y15.0480
G01 X42.0021 Y15.2607
G01 X42.1672 Y15.4778
G01 X42.3264 Y15.6994
G01 X42.4794 Y15.9252
G01 X42.6264 Y16.1551
G01 X42.7670 Y16.3888
G01 X42.9013 Y16.6263
G01 X43.0291 Y16.8674
G01 X43.1502 Y17.1118
G01 X43.2648 Y17.3594
G01 X43.3726 Y17.6100
G01 X43.4736 Y17.8634
G01 X43.5677 Y18.1196
G01 X43.6549 Y18.3781
G01 X43.7349 Y18.6388
G01 X43.8079 Y18.9018
G01 X43.8737 Y19.1665
G01 X43.9324 Y19.4329
G01 X43.9838 Y19.7008
G01 X44.0279 Y19.9700
G01 X44.0647 Y20.2404
G01 X44.0942 Y20.5117
G01 X44.1164 Y20.7836
G01 X44.1312 Y21.0559
G01 X44.1385 Y21.3286
G00 X44.1385 Y21.3286
G01 F76.20
G01 Z-1.6000
G01 F76.20
G01 X44.1385 Y21.6016
G01 X44.1312 Y21.8743
G01 X44.1164 Y22.1466
G01 X44.0942 Y22.4185
G01 X44.0647 Y22.6898
G01 X44.0279 Y22.9602
G01 X43.9838 Y23.2294
G01 X43.9324 Y23.4973
G01 X43.8737 Y23.7637
G01 X43.8079 Y24.0284
G01 X43.7349 Y24.2914
G01 X43.6549 Y24.5521
G01 X43.5677 Y24.8106
G01 X43.4736 Y25.0668
G01 X43.3726 Y25.3202
G01 X43.2648 Y25.5708
G01 X43.1502 Y25.8184
G01 X43.0291 Y26.0628
G01 X42.9013 Y26.3039
G01 X42.7670 Y26.5414
G01 X42.6264 Y26.7751
G01 X42.4794 Y27.0050
G01 X42.3264 Y27.2308
G01 X42.1672 Y27.4524
G01 X42.0021 Y27.6695
G01 X41.8311 Y27.8822
G01 X41.6544 Y28.0902
G01 X41.4723 Y28.2932
G01 X41.2847 Y28.4913
G01 X41.0918 Y28.6842
G01 X40.8937 Y28.8718
G01 X40.6907 Y29.0539
G01 X40.4827 Y29.2306
G01 X40.2700 Y29.4016
G01 X40.0529 Y29.5667
G01 X39.8313 Y29.7259
G01 X39.6055 Y29.8789
G01 X39.3756 Y30.0259
G01 X39.1419 Y30.1665
G01 X38.9044 Y30.3008
G01 X38.6633 Y30.4286
G01 X38.4189 Y30.5497
G01 X38.1713 Y30.6643
G01 X37.9207 Y30.7721
G01 X37.6673 Y30.8731
G01 X37.4111 Y30.9672
G01 X37.1526 Y31.0544
G01 X36.8919 Y31.1344
G01 X36.6289 Y31.2074
G01 X36.3642 Y31.2732
G01 X36.0978 Y31.3319
G01 X35.8299 Y31.3833
G01 X35.5607 Y31.4274
G01 X35.2903 Y31.4642
G01 X35.0190 Y31.4937
G01 X34.7471 Y31.5159
G01 X34.4748 Y31.5307
G01 X34.2021 Y31.5380
G01 X33.9291 Y31.5380
G01 X33.6564 Y31.5307
G01 X33.3841 Y31.5159
G01 X33.1122 Y31.4937
G01 X32.8409 Y31.4642
G01 X32.5705 Y31.4274
G01 X32.3013 Y31.3833
G01 X32.0334 Y31.3319
G01 X31.7670 Y31.2732
G01 X31.5023 Y31.2074
G01 X31.2393 Y31.1344
G01 X30.9786 Y31.0544
G01 X30.7201 Y30.9672
G01 X30.4639 Y30.8731
G01 X30.2105 Y30.7721
G01 X29.9599 Y30.6643
G01 X29.7123 Y30.5497
G01 X29.4679 Y30.4286
G01 X29.2268 Y30.3008
G01 X28.9893 Y30.1665
G01 X28.7556 Y30.0259
G01 X28.5257 Y29.8789
G01 X28.2999 Y29.7259
G01 X28.0783 Y29.5667
G01 X27.8612 Y29.4016
G01 X27.6485 Y29.2306
G01 X27.4405 Y29.0539
G01 X27.2375 Y28.8718
G01 X27.0394 Y28.6842
G01 X26.8465 Y28.4913
G01 X26.6589 Y28.2932
G01 X26.4768 Y28.0902
G01 X26.3001 Y27.8822
G01 X26.1291 Y27.6695
G01 X25.9640 Y27.4524
G01 X25.8048 Y27.2308
G01 X25.6518 Y27.0050
G01 X25.5048 Y26.7751
G01 X25.3642 Y26.5414
G01 X25.2299 Y26.3039
G01 X25.1021 Y26.0628
G01 X24.9810 Y25.8184
G01 X24.8664 Y25.5708
G01 X24.7586 Y25.3202
G01 X24.6576 Y25.0668
G01 X24.5635 Y24.8106
G01 X24.4763 Y24.5521
G01 X24.3964 Y24.2915
G01 X24.3234 Y24.0284
G01 X24.2575 Y23.7636
G01 X24.1988 Y23.4973
G01 X24.1474 Y23.2294
G01 X24.1033 Y22.9602
G01 X24.0665 Y22.6898
G01 X24.0370 Y22.4185
G01 X24.0148 Y22.1466
G01 X24.0000 Y21.8743
G01 X23.9927 Y21.6016
G01 X23.9927 Y21.3286
G01 X24.0000 Y21.0559
G01 X24.0148 Y20.7836
G01 X24.0370 Y20.5117
G01 X24.0665 Y20.2404
G01 X24.1033 Y19.9700
G01 X24.1474 Y19.7008
G01 X24.1988 Y19.4329
G01 X24.2575 Y19.1666
G01 X24.3234 Y18.9018
G01 X24.3964 Y18.6387
G01 X24.4763 Y18.3781
G01 X24.5635 Y18.1196
G01 X24.6576 Y17.8634
G01 X24.7586 Y17.6100
G01 X24.8664 Y17.3594
G01 X24.9810 Y17.1118
G01 X25.1021 Y16.8674
G01 X25.2299 Y16.6263
G01 X25.3642 Y16.3888
G01 X25.5048 Y16.1551
G01 X25.6518 Y15.9252
G01 X25.8048 Y15.6994
G01 X25.9640 Y15.4778
G01 X26.1291 Y15.2607
G01 X26.3001 Y15.0480
G01 X26.4768 Y14.8400
G01 X26.6589 Y14.6370
G01 X26.8465 Y14.4389
G01 X27.0394 Y14.2460
G01 X27.2375 Y14.0584
G01 X27.4405 Y13.8763
G01 X27.6485 Y13.6996
G01 X27.8612 Y13.5286
G01 X28.0783 Y13.3635
G01 X28.2999 Y13.2043
G01 X28.5257 Y13.0513
G01 X28.7556 Y12.9043
G01 X28.9893 Y12.7637
G01 X29.2268 Y12.6294
G01 X29.4679 Y12.5016
G01 X29.7123 Y12.3805
G01 X29.9599 Y12.2659
G01 X30.2105 Y12.1581
G01 X30.4639 Y12.0571
G01 X30.7201 Y11.9630
G01 X30.9786 Y11.8758
G01 X31.2392 Y11.7959
G01 X31.5023 Y11.7229
G01 X31.7671 Y11.6570
G01 X32.0334 Y11.5983
G01 X32.3013 Y11.5469
G01 X32.5705 Y11.5028
G01 X32.8409 Y11.4660
G01 X33.1122 Y11.4365
G01 X33.3841 Y11.4143
G01 X33.6564 Y11.3995
G01 X33.9291 Y11.3922
G01 X34.2021 Y11.3922
G01 X34.4748 Y11.3995
G01 X34.7471 Y11.4143
G01 X35.0190 Y11.4365
G01 X35.2903 Y11.4660
G01 X35.5607 Y11.5028
G01 X35.8299 Y11.5469
G01 X36.0978 Y11.5983
G01 X36.3641 Y11.6570
G01 X36.6289 Y11.7229
G01 X36.8920 Y11.7959
G01 X37.1526 Y11.8758
G01 X37.4111 Y11.9630
G01 X37.6673 Y12.0571
G01 X37.9207 Y12.1581
G01 X38.1713 Y12.2659
G01 X38.4189 Y12.3805
G01 X38.6633 Y12.5016
G01 X38.9044 Y12.6294
G01 X39.1419 Y12.7637
G01 X39.3756 Y12.9043
G01 X39.6055 Y13.0513
G01 X39.8313 Y13.2043
G01 X40.0529 Y13.3635
G01 X40.2700 Y13.5286
G01 X40.4827 Y13.6996
G01 X40.6907 Y13.8763
G01 X40.8937 Y14.0584
G01 X41.0918 Y14.2460
G01 X41.2847 Y14.4389
G01 X41.4723 Y14.6370
G01 X41.6544 Y14.8400
G01 X41.8311 Y15.0480
G01 X42.0021 Y15.2607
G01 X42.1672 Y15.4778
G01 X42.3264 Y15.6994
G01 X42.4794 Y15.9252
G01 X42.6264 Y16.1551
G01 X42.7670 Y16.3888
G01 X42.9013 Y16.6263
G01 X43.0291 Y16.8674
G01 X43.1502 Y17.1118
G01 X43.2648 Y17.3594
G01 X43.3726 Y17.6100
G01 X43.4736 Y17.8634
G01 X43.5677 Y18.1196
G01 X43.6549 Y18.3781
G01 X43.7349 Y18.6388
G01 X43.8079 Y18.9018
G01 X43.8737 Y19.1665
G01 X43.9324 Y19.4329
G01 X43.9838 Y19.7008
G01 X44.0279 Y19.9700
G01 X44.0647 Y20.2404
G01 X44.0942 Y20.5117
G01 X44.1164 Y20.7836
G01 X44.1312 Y21.0559
G01 X44.1385 Y21.3286
G00 Z2.5400
G00 X59.4036 Y9.9614
G01 F76.20
G01 Z-0.4080
G01 F76.20
G01 X59.4036 Y10.0384
G01 X59.3990 Y10.1151
G01 X59.3897 Y10.1914
G01 X59.3758 Y10.2674
G01 X59.3575 Y10.3419
G01 X59.3346 Y10.4153
G01 X59.3074 Y10.4870
G01 X59.2757 Y10.5574
G01 X59.2398 Y10.6257
G01 X59.2001 Y10.6915
G01 X59.1566 Y10.7546
G01 X59.1091 Y10.8151
G01 X59.0580 Y10.8728
G01 X59.0036 Y10.9272
G01 X58.9459 Y10.9783
G01 X58.8854 Y11.0258
G01 X58.8223 Y11.0693
G01 X58.7565 Y11.1090
G01 X58.6882 Y11.1449
G01 X58.6178 Y11.1766
G01 X58.5461 Y11.2038
G01 X58.4727 Y11.2267
G01 X58.3982 Y11.2450
G01 X58.3222 Y11.2589
G01 X58.2459 Y11.2682
G01 X58.1692 Y11.2728
G01 X58.0922 Y11.2728
G01 X58.0155 Y11.2682
G01 X57.9392 Y11.2589
G01 X57.8632 Y11.2450
G01 X57.7887 Y11.2267
G01 X57.7153 Y11.2038
G01 X57.6436 Y11.1766
G01 X57.5732 Y11.1449
G01 X57.5049 Y11.1090
G01 X57.4391 Y11.0693
G01 X57.3760 Y11.0258
G01 X57.3155 Y10.9783
G01 X57.2578 Y10.9272
G01 X57.2034 Y10.8728
G01 X57.1523 Y10.8151
G01 X57.1048 Y10.7546
G01 X57.0613 Y10.6915
G01 X57.0216 Y10.6257
G01 X56.9857 Y10.5574
G01 X56.9540 Y10.4870
G01 X56.9269 Y10.4155
G01 X56.9040 Y10.3419
G01 X56.8856 Y10.2671
G01 X56.8717 Y10.1914
G01 X56.8624 Y10.1151
G01 X56.8578 Y10.0384
G01 X56.8578 Y9.9614
G01 X56.8624 Y9.8847
G01 X56.8717 Y9.8084
G01 X56.8856 Y9.7327
G01 X56.9040 Y9.6579
G01 X56.9269 Y9.5843
G01 X56.9540 Y9.5128
G01 X56.9857 Y9.4424
G01 X57.0216 Y9.3741
G01 X57.0613 Y9.3083
G01 X57.1048 Y9.2452
G01 X57.1523 Y9.1847
G01 X57.2034 Y9.1270
G01 X57.2578 Y9.0726
G01 X57.3155 Y9.0215
G01 X57.3760 Y8.9740
G01 X57.4391 Y8.9305
G01 X57.5049 Y8.8908
G01 X57.5732 Y8.8549
G01 X57.6436 Y8.8232
G01 X57.7151 Y8.7961
G01 X57.7887 Y8.7732
G01 X57.8635 Y8.7548
G01 X57.9392 Y8.7409
G01 X58.0155 Y8.7316
G01 X58.0922 Y8.7270
G01 X58.1692 Y8.7270
G01 X58.2459 Y8.7316
G01 X58.3222 Y8.7409
G01 X58.3979 Y8.7548
G01 X58.4727 Y8.7732
G01 X58.5463 Y8.7961
G01 X58.6178 Y8.8232
G01 X58.6882 Y8.8549
G01 X58.7565 Y8.8908
G01 X58.8223 Y8.9305
G01 X58.8854 Y8.9740
G01 X58.9459 Y9.0215
G01 X59.0036 Y9.0726
G01 X59.0580 Y9.1270
G01 X59.1091 Y9.1847
G01 X59.1566 Y9.2452
G01 X59.2001 Y9.3083
G01 X59.2398 Y9.3741
G01 X59.2757 Y9.4424
G01 X59.3074 Y9.5128
G01 X59.3346 Y9.5845
G01 X59.3575 Y9.6579
G01 X59.3758 Y9.7324
G01 X59.3897 Y9.8084
G01 X59.3990 Y9.8847
G01 X59.4036 Y9.9614
G00 X59.4036 Y9.9614
G01 F76.20
G01 Z-0.8160
G01 F76.20
G01 X59.4036 Y10.0384
G01 X59.3990 Y10.1151
G01 X59.3897 Y10.1914
G01 X59.3758 Y10.2674
G01 X59.3575 Y10.3419
G01 X59.3346 Y10.4153
G01 X59.3074 Y10.4870
G01 X59.2757 Y10.5574
G01 X59.2398 Y10.6257
G01 X59.2001 Y10.6915
G01 X59.1566 Y10.7546
G01 X59.1091 Y10.8151
G01 X59.0580 Y10.8728
G01 X59.0036 Y10.9272
G01 X58.9459 Y10.9783
G01 X58.8854 Y11.0258
G01 X58.8223 Y11.0693
G01 X58.7565 Y11.1090
G01 X58.6882 Y11.1449
G01 X58.6178 Y11.1766
G01 X58.5461 Y11.2038
G01 X58.4727 Y11.2267
G01 X58.3982 Y11.2450
G01 X58.3222 Y11.2589
G01 X58.2459 Y11.2682
G01 X58.1692 Y11.2728
G01 X58.0922 Y11.2728
G01 X58.0155 Y11.2682
G01 X57.9392 Y11.2589
G01 X57.8632 Y11.2450
G01 X57.7887 Y11.2267
G01 X57.7153 Y11.2038
G01 X57.6436 Y11.1766
G01 X57.5732 Y11.1449
G01 X57.5049 Y11.1090
G01 X57.4391 Y11.0693
G01 X57.3760 Y11.0258
G01 X57.3155 Y10.9783
G01 X57.2578 Y10.9272
G01 X57.2034 Y10.8728
G01 X57.1523 Y10.8151
G01 X57.1048 Y10.7546
G01 X57.0613 Y10.6915
G01 X57.0216 Y10.6257
G01 X56.9857 Y10.5574
G01 X56.9540 Y10.4870
G01 X56.9269 Y10.4155
G01 X56.9040 Y10.3419
G01 X56.8856 Y10.2671
G01 X56.8717 Y10.1914
G01 X56.8624 Y10.1151
G01 X56.8578 Y10.0384
G01 X56.8578 Y9.9614
G01 X56.8624 Y9.8847
G01 X56.8717 Y9.8084
G01 X56.8856 Y9.7327
G01 X56.9040 Y9.6579
G01 X56.9269 Y9.5843
G01 X56.9540 Y9.5128
G01 X56.9857 Y9.4424
G01 X57.0216 Y9.3741
G01 X57.0613 Y9.3083
G01 X57.1048 Y9.2452
G01 X57.1523 Y9.1847
G01 X57.2034 Y9.1270
G01 X57.2578 Y9.0726
G01 X57.3155 Y9.0215
G01 X57.3760 Y8.9740
G01 X57.4391 Y8.9305
G01 X57.5049 Y8.8908
G01 X57.5732 Y8.8549
G01 X57.6436 Y8.8232
G01 X57.7151 Y8.7961
G01 X57.7887 Y8.7732
G01 X57.8635 Y8.7548
G01 X57.9392 Y8.7409
G01 X58.0155 Y8.7316
G01 X58.0922 Y8.7270
G01 X58.1692 Y8.7270
G01 X58.2459 Y8.7316
G01 X58.3222 Y8.7409
G01 X58.3979 Y8.7548
G01 X58.4727 Y8.7732
G01 X58.5463 Y8.7961
G01 X58.6178 Y8.8232
G01 X58.6882 Y8.8549
G01 X58.7565 Y8.8908
G01 X58.8223 Y8.9305
G01 X58.8854 Y8.9740
G01 X58.9459 Y9.0215
G01 X59.0036 Y9.0726
G01 X59.0580 Y9.1270
G01 X59.1091 Y9.1847
G01 X59.1566 Y9.2452
G01 X59.2001 Y9.3083
G01 X59.2398 Y9.3741
G01 X59.2757 Y9.4424
G01 X59.3074 Y9.5128
G01 X59.3346 Y9.5845
G01 X59.3575 Y9.6579
G01 X59.3758 Y9.7324
G01 X59.3897 Y9.8084
G01 X59.3990 Y9.8847
G01 X59.4036 Y9.9614
G00 X59.4036 Y9.9614
G01 F76.20
G01 Z-1.2240
G01 F76.20
G01 X59.4036 Y10.0384
G01 X59.3990 Y10.1151
G01 X59.3897 Y10.1914
G01 X59.3758 Y10.2674
G01 X59.3575 Y10.3419
G01 X59.3346 Y10.4153
G01 X59.3074 Y10.4870
G01 X59.2757 Y10.5574
G01 X59.2398 Y10.6257
G01 X59.2001 Y10.6915
G01 X59.1566 Y10.7546
G01 X59.1091 Y10.8151
G01 X59.0580 Y10.8728
G01 X59.0036 Y10.9272
G01 X58.9459 Y10.9783
G01 X58.8854 Y11.0258
G01 X58.8223 Y11.0693
G01 X58.7565 Y11.1090
G01 X58.6882 Y11.1449
G01 X58.6178 Y11.1766
G01 X58.5461 Y11.2038
G01 X58.4727 Y11.2267
G01 X58.3982 Y11.2450
G01 X58.3222 Y11.2589
G01 X58.2459 Y11.2682
G01 X58.1692 Y11.2728
G01 X58.0922 Y11.2728
G01 X58.0155 Y11.2682
G01 X57.9392 Y11.2589
G01 X57.8632 Y11.2450
G01 X57.7887 Y11.2267
G01 X57.7153 Y11.2038
G01 X57.6436 Y11.1766
G01 X57.5732 Y11.1449
G01 X57.5049 Y11.1090
G01 X57.4391 Y11.0693
G01 X57.3760 Y11.0258
G01 X57.3155 Y10.9783
G01 X57.2578 Y10.9272
G01 X57.2034 Y10.8728
G01 X57.1523 Y10.8151
G01 X57.1048 Y10.7546
G01 X57.0613 Y10.6915
G01 X57.0216 Y10.6257
G01 X56.9857 Y10.5574
G01 X56.9540 Y10.4870
G01 X56.9269 Y10.4155
G01 X56.9040 Y10.3419
G01 X56.8856 Y10.2671
G01 X56.8717 Y10.1914
G01 X56.8624 Y10.1151
G01 X56.8578 Y10.0384
G01 X56.8578 Y9.9614
G01 X56.8624 Y9.8847
G01 X56.8717 Y9.8084
G01 X56.8856 Y9.7327
G01 X56.9040 Y9.6579
G01 X56.9269 Y9.5843
G01 X56.9540 Y9.5128
G01 X56.9857 Y9.4424
G01 X57.0216 Y9.3741
G01 X57.0613 Y9.3083
G01 X57.1048 Y9.2452
G01 X57.1523 Y9.1847
G01 X57.2034 Y9.1270
G01 X57.2578 Y9.0726
G01 X57.3155 Y9.0215
G01 X57.3760 Y8.9740
G01 X57.4391 Y8.9305
G01 X57.5049 Y8.8908
G01 X57.5732 Y8.8549
G01 X57.6436 Y8.8232
G01 X57.7151 Y8.7961
G01 X57.7887 Y8.7732
G01 X57.8635 Y8.7548
G01 X57.9392 Y8.7409
G01 X58.0155 Y8.7316
G01 X58.0922 Y8.7270
G01 X58.1692 Y8.7270
G01 X58.2459 Y8.7316
G01 X58.3222 Y8.7409
G01 X58.3979 Y8.7548
G01 X58.4727 Y8.7732
G01 X58.5463 Y8.7961
G01 X58.6178 Y8.8232
G01 X58.6882 Y8.8549
G01 X58.7565 Y8.8908
G01 X58.8223 Y8.9305
G01 X58.8854 Y8.9740
G01 X58.9459 Y9.0215
G01 X59.0036 Y9.0726
G01 X59.0580 Y9.1270
G01 X59.1091 Y9.1847
G01 X59.1566 Y9.2452
G01 X59.2001 Y9.3083
G01 X59.2398 Y9.3741
G01 X59.2757 Y9.4424
G01 X59.3074 Y9.5128
G01 X59.3346 Y9.5845
G01 X59.3575 Y9.6579
G01 X59.3758 Y9.7324
G01 X59.3897 Y9.8084
G01 X59.3990 Y9.8847
G01 X59.4036 Y9.9614
G00 X59.4036 Y9.9614
G01 F76.20
G01 Z-1.6000
G01 F76.20
G01 X59.4036 Y10.0384
G01 X59.3990 Y10.1151
G01 X59.3897 Y10.1914
G01 X59.3758 Y10.2674
G01 X59.3575 Y10.3419
G01 X59.3346 Y10.4153
G01 X59.3074 Y10.4870
G01 X59.2757 Y10.5574
G01 X59.2398 Y10.6257
G01 X59.2001 Y10.6915
G01 X59.1566 Y10.7546
G01 X59.1091 Y10.8151
G01 X59.0580 Y10.8728
G01 X59.0036 Y10.9272
G01 X58.9459 Y10.9783
G01 X58.8854 Y11.0258
G01 X58.8223 Y11.0693
G01 X58.7565 Y11.1090
G01 X58.6882 Y11.1449
G01 X58.6178 Y11.1766
G01 X58.5461 Y11.2038
G01 X58.4727 Y11.2267
G01 X58.3982 Y11.2450
G01 X58.3222 Y11.2589
G01 X58.2459 Y11.2682
G01 X58.1692 Y11.2728
G01 X58.0922 Y11.2728
G01 X58.0155 Y11.2682
G01 X57.9392 Y11.2589
G01 X57.8632 Y11.2450
G01 X57.7887 Y11.2267
G01 X57.7153 Y11.2038
G01 X57.6436 Y11.1766
G01 X57.5732 Y11.1449
G01 X57.5049 Y11.1090
G01 X57.4391 Y11.0693
G01 X57.3760 Y11.0258
G01 X57.3155 Y10.9783
G01 X57.2578 Y10.9272
G01 X57.2034 Y10.8728
G01 X57.1523 Y10.8151
G01 X57.1048 Y10.7546
G01 X57.0613 Y10.6915
G01 X57.0216 Y10.6257
G01 X56.9857 Y10.5574
G01 X56.9540 Y10.4870
G01 X56.9269 Y10.4155
G01 X56.9040 Y10.3419
G01 X56.8856 Y10.2671
G01 X56.8717 Y10.1914
G01 X56.8624 Y10.1151
G01 X56.8578 Y10.0384
G01 X56.8578 Y9.9614
G01 X56.8624 Y9.8847
G01 X56.8717 Y9.8084
G01 X56.8856 Y9.7327
G01 X56.9040 Y9.6579
G01 X56.9269 Y9.5843
G01 X56.9540 Y9.5128
G01 X56.9857 Y9.4424
G01 X57.0216 Y9.3741
G01 X57.0613 Y9.3083
G01 X57.1048 Y9.2452
G01 X57.1523 Y9.1847
G01 X57.2034 Y9.1270
G01 X57.2578 Y9.0726
G01 X57.3155 Y9.0215
G01 X57.3760 Y8.9740
G01 X57.4391 Y8.9305
G01 X57.5049 Y8.8908
G01 X57.5732 Y8.8549
G01 X57.6436 Y8.8232
G01 X57.7151 Y8.7961
G01 X57.7887 Y8.7732
G01 X57.8635 Y8.7548
G01 X57.9392 Y8.7409
G01 X58.0155 Y8.7316
G01 X58.0922 Y8.7270
G01 X58.1692 Y8.7270
G01 X58.2459 Y8.7316
G01 X58.3222 Y8.7409
G01 X58.3979 Y8.7548
G01 X58.4727 Y8.7732
G01 X58.5463 Y8.7961
G01 X58.6178 Y8.8232
G01 X58.6882 Y8.8549
G01 X58.7565 Y8.8908
G01 X58.8223 Y8.9305
G01 X58.8854 Y8.9740
G01 X58.9459 Y9.0215
G01 X59.0036 Y9.0726
G01 X59.0580 Y9.1270
G01 X59.1091 Y9.1847
G01 X59.1566 Y9.2452
G01 X59.2001 Y9.3083
G01 X59.2398 Y9.3741
G01 X59.2757 Y9.4424
G01 X59.3074 Y9.5128
G01 X59.3346 Y9.5845
G01 X59.3575 Y9.6579
G01 X59.3758 Y9.7324
G01 X59.3897 Y9.8084
G01 X59.3990 Y9.8847
G01 X59.4036 Y9.9614
G00 Z2.5400
M05
G00 Z2.5400
G00 Z10.00
G00 X0.0 Y0.0

