(G-CODE GENERATED BY FLATCAM v8.912 - www.flatcam.org - Version Date: 2019/03/17)

(Name: copper_top.gbr_iso_cnc_1)
(Type: G-code from Geometry)
(Units: MM)

(Created on Monday, 26 July 2021 at 19:35)

(TOOL DIAMETER: 0.11 mm)
(Feedrate: 76.2 mm/min)
(Feedrate_Z: 76.2 mm/min)
(Feedrate rapids 76.2 mm/min)

(Z_Cut: -0.0508 mm)
(Z_Move: 2.54 mm)
(Z Toolchange: 25.4 mm)
(X,Y Toolchange: 0.0000, 0.0000 mm)
(Z Start: None mm)
(Z End: 10.0 mm)
(Steps per circle: 64)
(Postprocessor Geometry: default)

(X range:   -0.2129 ...    6.7573  mm)
(Y range:    0.7247 ...   18.8713  mm)

(Spindle Speed: None RPM)

G21
G90
G94

G01 F76.20
G00 Z2.5400

M03
G00 X3.7800 Y0.9369
G01 F76.20
G01 Z-0.0508
G01 F76.20
G01 X5.3040 Y0.9369
G01 X5.3308 Y0.9377
G01 X5.4162 Y0.9424
G01 X5.4430 Y0.9447
G01 X5.4695 Y0.9485
G01 X5.5538 Y0.9628
G01 X5.5802 Y0.9680
G01 X5.6062 Y0.9747
G01 X5.6883 Y0.9984
G01 X5.7139 Y1.0065
G01 X5.7390 Y1.0161
G01 X5.8180 Y1.0488
G01 X5.8425 Y1.0598
G01 X5.8664 Y1.0721
G01 X5.9412 Y1.1135
G01 X5.9643 Y1.1271
G01 X5.9866 Y1.1420
G01 X6.0564 Y1.1915
G01 X6.0778 Y1.2077
G01 X6.0983 Y1.2250
G01 X6.1621 Y1.2820
G01 X6.1816 Y1.3004
G01 X6.2000 Y1.3199
G01 X6.2570 Y1.3837
G01 X6.2743 Y1.4042
G01 X6.2905 Y1.4256
G01 X6.3400 Y1.4954
G01 X6.3549 Y1.5177
G01 X6.3685 Y1.5408
G01 X6.4099 Y1.6156
G01 X6.4222 Y1.6395
G01 X6.4332 Y1.6640
G01 X6.4659 Y1.7430
G01 X6.4755 Y1.7681
G01 X6.4836 Y1.7937
G01 X6.5073 Y1.8758
G01 X6.5140 Y1.9018
G01 X6.5192 Y1.9282
G01 X6.5335 Y2.0125
G01 X6.5373 Y2.0390
G01 X6.5396 Y2.0658
G01 X6.5443 Y2.1512
G01 X6.5451 Y2.1780
G01 X6.5443 Y2.2048
G01 X6.5396 Y2.2902
G01 X6.5373 Y2.3170
G01 X6.5335 Y2.3435
G01 X6.5192 Y2.4278
G01 X6.5140 Y2.4542
G01 X6.5073 Y2.4802
G01 X6.4836 Y2.5623
G01 X6.4755 Y2.5879
G01 X6.4659 Y2.6130
G01 X6.4332 Y2.6920
G01 X6.4222 Y2.7165
G01 X6.4099 Y2.7404
G01 X6.3685 Y2.8152
G01 X6.3549 Y2.8383
G01 X6.3400 Y2.8606
G01 X6.2905 Y2.9304
G01 X6.2743 Y2.9518
G01 X6.2570 Y2.9723
G01 X6.2000 Y3.0361
G01 X6.1816 Y3.0556
G01 X6.1621 Y3.0740
G01 X6.0983 Y3.1310
G01 X6.0778 Y3.1483
G01 X6.0564 Y3.1645
G01 X5.9866 Y3.2140
G01 X5.9643 Y3.2289
G01 X5.9412 Y3.2425
G01 X5.8664 Y3.2839
G01 X5.8425 Y3.2962
G01 X5.8180 Y3.3072
G01 X5.7390 Y3.3399
G01 X5.7139 Y3.3495
G01 X5.6883 Y3.3576
G01 X5.6062 Y3.3813
G01 X5.5802 Y3.3880
G01 X5.5538 Y3.3932
G01 X5.4695 Y3.4075
G01 X5.4430 Y3.4113
G01 X5.4162 Y3.4136
G01 X5.3308 Y3.4183
G01 X5.3040 Y3.4191
G01 X3.7800 Y3.4191
G01 X3.7532 Y3.4183
G01 X3.6678 Y3.4136
G01 X3.6410 Y3.4113
G01 X3.6145 Y3.4075
G01 X3.5302 Y3.3932
G01 X3.5038 Y3.3880
G01 X3.4778 Y3.3813
G01 X3.3957 Y3.3576
G01 X3.3701 Y3.3495
G01 X3.3450 Y3.3399
G01 X3.2660 Y3.3072
G01 X3.2415 Y3.2962
G01 X3.2176 Y3.2839
G01 X3.1428 Y3.2425
G01 X3.1197 Y3.2289
G01 X3.0974 Y3.2140
G01 X3.0276 Y3.1645
G01 X3.0062 Y3.1483
G01 X2.9857 Y3.1310
G01 X2.9219 Y3.0740
G01 X2.9024 Y3.0556
G01 X2.8840 Y3.0361
G01 X2.8270 Y2.9723
G01 X2.8097 Y2.9518
G01 X2.7935 Y2.9304
G01 X2.7440 Y2.8606
G01 X2.7291 Y2.8383
G01 X2.7155 Y2.8152
G01 X2.6741 Y2.7404
G01 X2.6618 Y2.7165
G01 X2.6508 Y2.6920
G01 X2.6181 Y2.6130
G01 X2.6085 Y2.5879
G01 X2.6004 Y2.5623
G01 X2.5767 Y2.4802
G01 X2.5700 Y2.4542
G01 X2.5648 Y2.4278
G01 X2.5505 Y2.3435
G01 X2.5467 Y2.3170
G01 X2.5444 Y2.2902
G01 X2.5397 Y2.2048
G01 X2.5389 Y2.1780
G01 X2.5397 Y2.1512
G01 X2.5444 Y2.0658
G01 X2.5467 Y2.0390
G01 X2.5505 Y2.0125
G01 X2.5648 Y1.9282
G01 X2.5700 Y1.9018
G01 X2.5767 Y1.8758
G01 X2.6004 Y1.7937
G01 X2.6085 Y1.7681
G01 X2.6181 Y1.7430
G01 X2.6508 Y1.6640
G01 X2.6618 Y1.6395
G01 X2.6741 Y1.6156
G01 X2.7155 Y1.5408
G01 X2.7291 Y1.5177
G01 X2.7440 Y1.4954
G01 X2.7935 Y1.4256
G01 X2.8097 Y1.4042
G01 X2.8270 Y1.3837
G01 X2.8840 Y1.3199
G01 X2.9024 Y1.3004
G01 X2.9219 Y1.2820
G01 X2.9857 Y1.2250
G01 X3.0062 Y1.2077
G01 X3.0276 Y1.1915
G01 X3.0974 Y1.1420
G01 X3.1197 Y1.1271
G01 X3.1428 Y1.1135
G01 X3.2176 Y1.0721
G01 X3.2415 Y1.0598
G01 X3.2660 Y1.0488
G01 X3.3450 Y1.0161
G01 X3.3701 Y1.0065
G01 X3.3957 Y0.9984
G01 X3.4778 Y0.9747
G01 X3.5038 Y0.9680
G01 X3.5302 Y0.9628
G01 X3.6145 Y0.9485
G01 X3.6410 Y0.9447
G01 X3.6678 Y0.9424
G01 X3.7532 Y0.9377
G01 X3.7800 Y0.9369
G00 Z2.5400
G00 X3.7800 Y1.0076
G01 F76.20
G01 Z-0.0508
G01 F76.20
G01 X5.3040 Y1.0076
G01 X5.3269 Y1.0083
G01 X5.4122 Y1.0131
G01 X5.4350 Y1.0150
G01 X5.4577 Y1.0182
G01 X5.5420 Y1.0325
G01 X5.5644 Y1.0370
G01 X5.5866 Y1.0427
G01 X5.6687 Y1.0663
G01 X5.6906 Y1.0733
G01 X5.7119 Y1.0815
G01 X5.7909 Y1.1142
G01 X5.8118 Y1.1235
G01 X5.8321 Y1.1340
G01 X5.9070 Y1.1754
G01 X5.9267 Y1.1870
G01 X5.9457 Y1.1997
G01 X6.0154 Y1.2492
G01 X6.0337 Y1.2630
G01 X6.0512 Y1.2777
G01 X6.1150 Y1.3347
G01 X6.1316 Y1.3504
G01 X6.1473 Y1.3670
G01 X6.2043 Y1.4308
G01 X6.2190 Y1.4483
G01 X6.2328 Y1.4666
G01 X6.2823 Y1.5363
G01 X6.2950 Y1.5553
G01 X6.3066 Y1.5750
G01 X6.3480 Y1.6499
G01 X6.3585 Y1.6702
G01 X6.3678 Y1.6911
G01 X6.4005 Y1.7701
G01 X6.4087 Y1.7914
G01 X6.4157 Y1.8133
G01 X6.4393 Y1.8954
G01 X6.4450 Y1.9176
G01 X6.4495 Y1.9400
G01 X6.4638 Y2.0243
G01 X6.4670 Y2.0470
G01 X6.4689 Y2.0698
G01 X6.4737 Y2.1551
G01 X6.4744 Y2.1780
G01 X6.4737 Y2.2009
G01 X6.4689 Y2.2862
G01 X6.4670 Y2.3090
G01 X6.4638 Y2.3317
G01 X6.4495 Y2.4160
G01 X6.4450 Y2.4384
G01 X6.4393 Y2.4606
G01 X6.4157 Y2.5427
G01 X6.4087 Y2.5646
G01 X6.4005 Y2.5859
G01 X6.3678 Y2.6649
G01 X6.3585 Y2.6858
G01 X6.3480 Y2.7061
G01 X6.3066 Y2.7810
G01 X6.2950 Y2.8007
G01 X6.2823 Y2.8197
G01 X6.2328 Y2.8894
G01 X6.2190 Y2.9077
G01 X6.2043 Y2.9252
G01 X6.1473 Y2.9890
G01 X6.1316 Y3.0056
G01 X6.1150 Y3.0213
G01 X6.0512 Y3.0783
G01 X6.0337 Y3.0930
G01 X6.0154 Y3.1068
G01 X5.9457 Y3.1563
G01 X5.9267 Y3.1690
G01 X5.9070 Y3.1806
G01 X5.8321 Y3.2220
G01 X5.8118 Y3.2325
G01 X5.7909 Y3.2418
G01 X5.7119 Y3.2745
G01 X5.6906 Y3.2827
G01 X5.6687 Y3.2897
G01 X5.5866 Y3.3133
G01 X5.5644 Y3.3190
G01 X5.5420 Y3.3235
G01 X5.4577 Y3.3378
G01 X5.4350 Y3.3410
G01 X5.4122 Y3.3429
G01 X5.3269 Y3.3477
G01 X5.3040 Y3.3484
G01 X3.7800 Y3.3484
G01 X3.7571 Y3.3477
G01 X3.6718 Y3.3429
G01 X3.6490 Y3.3410
G01 X3.6263 Y3.3378
G01 X3.5420 Y3.3235
G01 X3.5196 Y3.3190
G01 X3.4974 Y3.3133
G01 X3.4153 Y3.2897
G01 X3.3934 Y3.2827
G01 X3.3721 Y3.2745
G01 X3.2931 Y3.2418
G01 X3.2722 Y3.2325
G01 X3.2519 Y3.2220
G01 X3.1770 Y3.1806
G01 X3.1573 Y3.1690
G01 X3.1383 Y3.1563
G01 X3.0686 Y3.1068
G01 X3.0503 Y3.0930
G01 X3.0328 Y3.0783
G01 X2.9690 Y3.0213
G01 X2.9524 Y3.0056
G01 X2.9367 Y2.9890
G01 X2.8797 Y2.9252
G01 X2.8650 Y2.9077
G01 X2.8512 Y2.8894
G01 X2.8017 Y2.8197
G01 X2.7890 Y2.8007
G01 X2.7774 Y2.7810
G01 X2.7360 Y2.7061
G01 X2.7255 Y2.6858
G01 X2.7162 Y2.6649
G01 X2.6835 Y2.5859
G01 X2.6753 Y2.5646
G01 X2.6683 Y2.5427
G01 X2.6447 Y2.4606
G01 X2.6390 Y2.4384
G01 X2.6345 Y2.4160
G01 X2.6202 Y2.3317
G01 X2.6170 Y2.3090
G01 X2.6151 Y2.2862
G01 X2.6103 Y2.2009
G01 X2.6096 Y2.1780
G01 X2.6103 Y2.1551
G01 X2.6151 Y2.0698
G01 X2.6170 Y2.0470
G01 X2.6202 Y2.0243
G01 X2.6345 Y1.9400
G01 X2.6390 Y1.9176
G01 X2.6447 Y1.8954
G01 X2.6683 Y1.8133
G01 X2.6753 Y1.7914
G01 X2.6835 Y1.7701
G01 X2.7162 Y1.6911
G01 X2.7255 Y1.6702
G01 X2.7360 Y1.6499
G01 X2.7774 Y1.5750
G01 X2.7890 Y1.5553
G01 X2.8017 Y1.5363
G01 X2.8512 Y1.4666
G01 X2.8650 Y1.4483
G01 X2.8797 Y1.4308
G01 X2.9367 Y1.3670
G01 X2.9524 Y1.3504
G01 X2.9690 Y1.3347
G01 X3.0328 Y1.2777
G01 X3.0503 Y1.2630
G01 X3.0686 Y1.2492
G01 X3.1383 Y1.1997
G01 X3.1573 Y1.1870
G01 X3.1770 Y1.1754
G01 X3.2519 Y1.1340
G01 X3.2722 Y1.1235
G01 X3.2931 Y1.1142
G01 X3.3721 Y1.0815
G01 X3.3934 Y1.0733
G01 X3.4153 Y1.0663
G01 X3.4974 Y1.0427
G01 X3.5196 Y1.0370
G01 X3.5420 Y1.0325
G01 X3.6263 Y1.0182
G01 X3.6490 Y1.0150
G01 X3.6718 Y1.0131
G01 X3.7571 Y1.0083
G01 X3.7800 Y1.0076
G00 Z2.5400
G00 X3.7800 Y1.0783
G01 F76.20
G01 Z-0.0508
G01 F76.20
G01 X5.3040 Y1.0783
G01 X5.4083 Y1.0837
G01 X5.4271 Y1.0853
G01 X5.5301 Y1.1022
G01 X5.5487 Y1.1059
G01 X5.6492 Y1.1343
G01 X5.6672 Y1.1400
G01 X5.6849 Y1.1468
G01 X5.7811 Y1.1872
G01 X5.8728 Y1.2373
G01 X5.8891 Y1.2469
G01 X5.9048 Y1.2574
G01 X5.9745 Y1.3069
G01 X5.9896 Y1.3182
G01 X6.0041 Y1.3305
G01 X6.0816 Y1.4004
G01 X6.1515 Y1.4779
G01 X6.1637 Y1.4924
G01 X6.1751 Y1.5075
G01 X6.2246 Y1.5772
G01 X6.2351 Y1.5929
G01 X6.2447 Y1.6092
G01 X6.2948 Y1.7009
G01 X6.3352 Y1.7971
G01 X6.3420 Y1.8148
G01 X6.3714 Y1.9150
G01 X6.3761 Y1.9333
G01 X6.3941 Y2.0361
G01 X6.3967 Y2.0549
G01 X6.4031 Y2.1591
G01 X6.4037 Y2.1780
G01 X6.3983 Y2.2823
G01 X6.3967 Y2.3011
G01 X6.3941 Y2.3199
G01 X6.3798 Y2.4041
G01 X6.3761 Y2.4227
G01 X6.3714 Y2.4410
G01 X6.3420 Y2.5412
G01 X6.3352 Y2.5589
G01 X6.2948 Y2.6551
G01 X6.2861 Y2.6719
G01 X6.2351 Y2.7631
G01 X6.1751 Y2.8485
G01 X6.1637 Y2.8636
G01 X6.1515 Y2.8781
G01 X6.0816 Y2.9556
G01 X6.0041 Y3.0255
G01 X5.9896 Y3.0378
G01 X5.9048 Y3.0986
G01 X5.8891 Y3.1091
G01 X5.7979 Y3.1601
G01 X5.7811 Y3.1688
G01 X5.7639 Y3.1765
G01 X5.6849 Y3.2092
G01 X5.6672 Y3.2160
G01 X5.6492 Y3.2217
G01 X5.5487 Y3.2501
G01 X5.4459 Y3.2681
G01 X5.4271 Y3.2707
G01 X5.4083 Y3.2723
G01 X5.3040 Y3.2777
G01 X3.7800 Y3.2777
G01 X3.6757 Y3.2723
G01 X3.6569 Y3.2707
G01 X3.5539 Y3.2538
G01 X3.5353 Y3.2501
G01 X3.4348 Y3.2217
G01 X3.4168 Y3.2160
G01 X3.3991 Y3.2092
G01 X3.3029 Y3.1688
G01 X3.2112 Y3.1187
G01 X3.1949 Y3.1091
G01 X3.1792 Y3.0986
G01 X3.1095 Y3.0491
G01 X3.0944 Y3.0377
G01 X3.0799 Y3.0255
G01 X3.0024 Y2.9556
G01 X2.9325 Y2.8781
G01 X2.9203 Y2.8636
G01 X2.9089 Y2.8485
G01 X2.8489 Y2.7631
G01 X2.7979 Y2.6719
G01 X2.7892 Y2.6551
G01 X2.7815 Y2.6379
G01 X2.7488 Y2.5589
G01 X2.7420 Y2.5412
G01 X2.7363 Y2.5232
G01 X2.7079 Y2.4227
G01 X2.6899 Y2.3199
G01 X2.6873 Y2.3011
G01 X2.6857 Y2.2823
G01 X2.6803 Y2.1780
G01 X2.6857 Y2.0737
G01 X2.6873 Y2.0549
G01 X2.7042 Y1.9519
G01 X2.7079 Y1.9333
G01 X2.7126 Y1.9150
G01 X2.7420 Y1.8148
G01 X2.7815 Y1.7181
G01 X2.7892 Y1.7009
G01 X2.8393 Y1.6092
G01 X2.8489 Y1.5929
G01 X2.8594 Y1.5772
G01 X2.9203 Y1.4924
G01 X2.9894 Y1.4142
G01 X3.0024 Y1.4004
G01 X3.0162 Y1.3874
G01 X3.0944 Y1.3183
G01 X3.1792 Y1.2574
G01 X3.1949 Y1.2469
G01 X3.2112 Y1.2373
G01 X3.3029 Y1.1872
G01 X3.3991 Y1.1468
G01 X3.4168 Y1.1400
G01 X3.4348 Y1.1343
G01 X3.5353 Y1.1059
G01 X3.6381 Y1.0879
G01 X3.6569 Y1.0853
G01 X3.6757 Y1.0837
G01 X3.7800 Y1.0783
G00 Z2.5400
G00 X3.7800 Y1.1491
G01 F76.20
G01 Z-0.0508
G01 F76.20
G01 X5.3040 Y1.1491
G01 X5.4043 Y1.1543
G01 X5.4340 Y1.1576
G01 X5.5330 Y1.1749
G01 X5.6438 Y1.2068
G01 X5.7504 Y1.2510
G01 X5.8514 Y1.3068
G01 X5.9455 Y1.3735
G01 X6.0316 Y1.4504
G01 X6.1085 Y1.5365
G01 X6.1669 Y1.6181
G01 X6.1828 Y1.6434
G01 X6.2242 Y1.7183
G01 X6.2372 Y1.7452
G01 X6.2752 Y1.8382
G01 X6.3071 Y1.9490
G01 X6.3265 Y2.0628
G01 X6.3329 Y2.1780
G01 X6.3265 Y2.2932
G01 X6.3101 Y2.3923
G01 X6.3034 Y2.4214
G01 X6.2797 Y2.5036
G01 X6.2699 Y2.5318
G01 X6.2310 Y2.6244
G01 X6.1752 Y2.7254
G01 X6.1085 Y2.8195
G01 X6.0316 Y2.9056
G01 X5.9455 Y2.9825
G01 X5.8514 Y3.0492
G01 X5.7504 Y3.1050
G01 X5.6438 Y3.1492
G01 X5.5330 Y3.1811
G01 X5.4192 Y3.2005
G01 X5.3040 Y3.2069
G01 X3.7800 Y3.2069
G01 X3.6797 Y3.2017
G01 X3.6500 Y3.1984
G01 X3.5510 Y3.1811
G01 X3.4402 Y3.1492
G01 X3.3336 Y3.1050
G01 X3.2326 Y3.0492
G01 X3.1504 Y2.9914
G01 X3.1270 Y2.9728
G01 X3.0524 Y2.9056
G01 X2.9755 Y2.8195
G01 X2.9171 Y2.7379
G01 X2.9012 Y2.7126
G01 X2.8530 Y2.6244
G01 X2.8141 Y2.5318
G01 X2.8043 Y2.5036
G01 X2.7806 Y2.4214
G01 X2.7739 Y2.3923
G01 X2.7575 Y2.2932
G01 X2.7515 Y2.1929
G01 X2.7515 Y2.1631
G01 X2.7575 Y2.0628
G01 X2.7739 Y1.9637
G01 X2.7806 Y1.9346
G01 X2.8088 Y1.8382
G01 X2.8468 Y1.7452
G01 X2.8598 Y1.7183
G01 X2.9088 Y1.6306
G01 X2.9755 Y1.5365
G01 X3.0422 Y1.4613
G01 X3.0633 Y1.4402
G01 X3.1385 Y1.3735
G01 X3.2326 Y1.3068
G01 X3.3203 Y1.2578
G01 X3.3472 Y1.2448
G01 X3.4402 Y1.2068
G01 X3.5510 Y1.1749
G01 X3.6500 Y1.1576
G01 X3.6797 Y1.1543
G01 X3.7800 Y1.1491
G00 Z2.5400
G00 X3.7800 Y1.2198
G01 F76.20
G01 Z-0.0508
G01 F76.20
G01 X5.3040 Y1.2198
G01 X5.4003 Y1.2249
G01 X5.4222 Y1.2273
G01 X5.5172 Y1.2438
G01 X5.6205 Y1.2736
G01 X5.7198 Y1.3147
G01 X5.8138 Y1.3667
G01 X5.9014 Y1.4288
G01 X5.9816 Y1.5004
G01 X6.0532 Y1.5806
G01 X6.1092 Y1.6591
G01 X6.1209 Y1.6777
G01 X6.1623 Y1.7525
G01 X6.1718 Y1.7723
G01 X6.2084 Y1.8615
G01 X6.2382 Y1.9648
G01 X6.2562 Y2.0707
G01 X6.2622 Y2.1780
G01 X6.2562 Y2.2853
G01 X6.2403 Y2.3805
G01 X6.2355 Y2.4019
G01 X6.2118 Y2.4840
G01 X6.2045 Y2.5047
G01 X6.1673 Y2.5938
G01 X6.1153 Y2.6878
G01 X6.0532 Y2.7754
G01 X5.9816 Y2.8556
G01 X5.9014 Y2.9272
G01 X5.8138 Y2.9893
G01 X5.7198 Y3.0413
G01 X5.6205 Y3.0824
G01 X5.5172 Y3.1122
G01 X5.4113 Y3.1302
G01 X5.3040 Y3.1362
G01 X3.7800 Y3.1362
G01 X3.6837 Y3.1311
G01 X3.6618 Y3.1287
G01 X3.5668 Y3.1122
G01 X3.4635 Y3.0824
G01 X3.3642 Y3.0413
G01 X3.2702 Y2.9893
G01 X3.1913 Y2.9338
G01 X3.1742 Y2.9201
G01 X3.1024 Y2.8556
G01 X3.0308 Y2.7754
G01 X2.9748 Y2.6969
G01 X2.9631 Y2.6783
G01 X2.9167 Y2.5938
G01 X2.8795 Y2.5047
G01 X2.8722 Y2.4840
G01 X2.8458 Y2.3912
G01 X2.8293 Y2.2962
G01 X2.8269 Y2.2743
G01 X2.8218 Y2.1780
G01 X2.8269 Y2.0817
G01 X2.8293 Y2.0598
G01 X2.8437 Y1.9755
G01 X2.8485 Y1.9541
G01 X2.8756 Y1.8615
G01 X2.9122 Y1.7723
G01 X2.9217 Y1.7525
G01 X2.9687 Y1.6682
G01 X3.0308 Y1.5806
G01 X3.0949 Y1.5084
G01 X3.1104 Y1.4929
G01 X3.1826 Y1.4288
G01 X3.2702 Y1.3667
G01 X3.3545 Y1.3197
G01 X3.3743 Y1.3102
G01 X3.4635 Y1.2736
G01 X3.5668 Y1.2438
G01 X3.6618 Y1.2273
G01 X3.6837 Y1.2249
G01 X3.7800 Y1.2198
G00 Z2.5400
G00 X3.7800 Y1.2905
G01 F76.20
G01 Z-0.0508
G01 F76.20
G01 X5.3040 Y1.2905
G01 X5.3964 Y1.2955
G01 X5.4103 Y1.2971
G01 X5.5015 Y1.3128
G01 X5.5971 Y1.3403
G01 X5.6891 Y1.3784
G01 X5.7762 Y1.4265
G01 X5.8573 Y1.4841
G01 X5.9316 Y1.5504
G01 X5.9979 Y1.6247
G01 X6.0516 Y1.7000
G01 X6.0590 Y1.7119
G01 X6.1004 Y1.7867
G01 X6.1065 Y1.7993
G01 X6.1417 Y1.8849
G01 X6.1692 Y1.9805
G01 X6.1859 Y2.0786
G01 X6.1915 Y2.1780
G01 X6.1859 Y2.2774
G01 X6.1706 Y2.3686
G01 X6.1675 Y2.3823
G01 X6.1438 Y2.4644
G01 X6.1392 Y2.4777
G01 X6.1036 Y2.5631
G01 X6.0555 Y2.6502
G01 X5.9979 Y2.7313
G01 X5.9316 Y2.8056
G01 X5.8573 Y2.8719
G01 X5.7762 Y2.9295
G01 X5.6891 Y2.9776
G01 X5.5971 Y3.0157
G01 X5.5015 Y3.0432
G01 X5.4034 Y3.0599
G01 X5.3040 Y3.0655
G01 X3.7800 Y3.0655
G01 X3.6876 Y3.0605
G01 X3.6737 Y3.0589
G01 X3.5825 Y3.0432
G01 X3.4869 Y3.0157
G01 X3.3949 Y2.9776
G01 X3.3078 Y2.9295
G01 X3.2323 Y2.8761
G01 X3.2213 Y2.8673
G01 X3.1524 Y2.8056
G01 X3.0861 Y2.7313
G01 X3.0324 Y2.6560
G01 X3.0250 Y2.6441
G01 X2.9804 Y2.5631
G01 X2.9448 Y2.4777
G01 X2.9402 Y2.4644
G01 X2.9148 Y2.3755
G01 X2.8991 Y2.2843
G01 X2.8975 Y2.2704
G01 X2.8925 Y2.1780
G01 X2.8975 Y2.0856
G01 X2.8991 Y2.0717
G01 X2.9134 Y1.9874
G01 X2.9165 Y1.9737
G01 X2.9423 Y1.8849
G01 X2.9775 Y1.7993
G01 X2.9836 Y1.7867
G01 X3.0285 Y1.7058
G01 X3.0861 Y1.6247
G01 X3.1476 Y1.5555
G01 X3.1575 Y1.5456
G01 X3.2267 Y1.4841
G01 X3.3078 Y1.4265
G01 X3.3887 Y1.3816
G01 X3.4013 Y1.3755
G01 X3.4869 Y1.3403
G01 X3.5825 Y1.3128
G01 X3.6737 Y1.2971
G01 X3.6876 Y1.2955
G01 X3.7800 Y1.2905
G00 Z2.5400
G00 X3.7800 Y1.3612
G01 F76.20
G01 Z-0.0508
G01 F76.20
G01 X5.3071 Y1.3613
G01 X5.3955 Y1.3664
G01 X5.4858 Y1.3817
G01 X5.5738 Y1.4071
G01 X5.6611 Y1.4435
G01 X5.7386 Y1.4864
G01 X5.8133 Y1.5394
G01 X5.8816 Y1.6004
G01 X5.9406 Y1.6664
G01 X5.9971 Y1.7461
G01 X6.0399 Y1.8236
G01 X6.0749 Y1.9082
G01 X6.1003 Y1.9962
G01 X6.1156 Y2.0865
G01 X6.1208 Y2.1780
G01 X6.1159 Y2.2664
G01 X6.0995 Y2.3627
G01 X6.0749 Y2.4478
G01 X6.0385 Y2.5351
G01 X5.9956 Y2.6126
G01 X5.9426 Y2.6873
G01 X5.8816 Y2.7556
G01 X5.8108 Y2.8184
G01 X5.7386 Y2.8696
G01 X5.6556 Y2.9151
G01 X5.5709 Y2.9499
G01 X5.4858 Y2.9743
G01 X5.3985 Y2.9892
G01 X5.3040 Y2.9948
G01 X3.7785 Y2.9948
G01 X3.6885 Y2.9896
G01 X3.5982 Y2.9743
G01 X3.5102 Y2.9489
G01 X3.4229 Y2.9125
G01 X3.3454 Y2.8696
G01 X3.2732 Y2.8184
G01 X3.2024 Y2.7556
G01 X3.1396 Y2.6848
G01 X3.0884 Y2.6126
G01 X3.0441 Y2.5324
G01 X3.0081 Y2.4449
G01 X2.9837 Y2.3598
G01 X2.9684 Y2.2695
G01 X2.9633 Y2.1749
G01 X2.9684 Y2.0865
G01 X2.9837 Y1.9962
G01 X3.0091 Y1.9082
G01 X3.0429 Y1.8264
G01 X3.0884 Y1.7434
G01 X3.1414 Y1.6687
G01 X3.2004 Y1.6027
G01 X3.2707 Y1.5394
G01 X3.3454 Y1.4864
G01 X3.4229 Y1.4435
G01 X3.5102 Y1.4071
G01 X3.5982 Y1.3817
G01 X3.6855 Y1.3668
G01 X3.7800 Y1.3612
G00 Z2.5400
G00 X2.7860 Y5.3356
G01 F76.20
G01 Z-0.0508
G01 F76.20
G01 X2.8017 Y5.3597
G01 X2.8189 Y5.3839
G01 X2.7860 Y5.3839
G01 X2.7860 Y5.3356
G00 Z2.5400
G00 X0.4753 Y5.0917
G01 F76.20
G01 Z-0.0508
G01 F76.20
G01 X2.3780 Y5.0916
G01 X2.3868 Y5.0923
G01 X2.3928 Y5.0937
G01 X2.4042 Y5.0983
G01 X2.4094 Y5.1016
G01 X2.4186 Y5.1098
G01 X2.4257 Y5.1198
G01 X2.4283 Y5.1254
G01 X2.4317 Y5.1372
G01 X2.4323 Y5.1433
G01 X2.4324 Y5.7375
G01 X4.2119 Y5.7375
G01 X4.2162 Y5.5348
G01 X3.7800 Y5.5348
G01 X3.6916 Y5.5299
G01 X3.5982 Y5.5143
G01 X3.5102 Y5.4889
G01 X3.4229 Y5.4525
G01 X3.3454 Y5.4096
G01 X3.2707 Y5.3566
G01 X3.2004 Y5.2933
G01 X3.1414 Y5.2273
G01 X3.0884 Y5.1526
G01 X3.0429 Y5.0696
G01 X3.0091 Y4.9878
G01 X2.9837 Y4.8998
G01 X2.9684 Y4.8095
G01 X2.9633 Y4.7211
G01 X2.9684 Y4.6265
G01 X2.9837 Y4.5362
G01 X3.0081 Y4.4511
G01 X3.0441 Y4.3636
G01 X3.0884 Y4.2834
G01 X3.1396 Y4.2112
G01 X3.2024 Y4.1404
G01 X3.2707 Y4.0794
G01 X3.3454 Y4.0264
G01 X3.4256 Y3.9821
G01 X3.5074 Y3.9481
G01 X3.6012 Y3.9211
G01 X3.6885 Y3.9064
G01 X3.7800 Y3.9012
G01 X5.3040 Y3.9012
G01 X5.3955 Y3.9064
G01 X5.4858 Y3.9217
G01 X5.5709 Y3.9461
G01 X5.6584 Y3.9821
G01 X5.7411 Y4.0281
G01 X5.8133 Y4.0794
G01 X5.8793 Y4.1384
G01 X5.9444 Y4.2112
G01 X5.9956 Y4.2834
G01 X6.0385 Y4.3609
G01 X6.0749 Y4.4482
G01 X6.1009 Y4.5392
G01 X6.1156 Y4.6265
G01 X6.1207 Y4.7149
G01 X6.1156 Y4.8095
G01 X6.1003 Y4.8998
G01 X6.0759 Y4.9849
G01 X6.0385 Y5.0751
G01 X5.9956 Y5.1526
G01 X5.9426 Y5.2273
G01 X5.8816 Y5.2956
G01 X5.8156 Y5.3546
G01 X5.7359 Y5.4111
G01 X5.6584 Y5.4539
G01 X5.5738 Y5.4889
G01 X5.4858 Y5.5143
G01 X5.3924 Y5.5299
G01 X5.3040 Y5.5348
G01 X4.8334 Y5.5348
G01 X4.8225 Y6.0525
G01 X4.8194 Y6.0895
G01 X4.8135 Y6.1201
G01 X4.8035 Y6.1527
G01 X4.7899 Y6.1840
G01 X4.7746 Y6.2111
G01 X4.7509 Y6.2435
G01 X4.7298 Y6.2664
G01 X4.7042 Y6.2889
G01 X4.6762 Y6.3085
G01 X4.6489 Y6.3234
G01 X4.6146 Y6.3377
G01 X4.5788 Y6.3476
G01 X4.5481 Y6.3526
G01 X4.5155 Y6.3545
G01 X2.4324 Y6.3545
G01 X2.4324 Y6.9460
G01 X2.4303 Y6.9608
G01 X2.4257 Y6.9722
G01 X2.4186 Y6.9822
G01 X2.4094 Y6.9904
G01 X2.4042 Y6.9937
G01 X2.3928 Y6.9983
G01 X2.3807 Y7.0003
G01 X2.0865 Y7.0004
G01 X2.0865 Y7.8416
G01 X2.3807 Y7.8417
G01 X2.3928 Y7.8437
G01 X2.4042 Y7.8483
G01 X2.4142 Y7.8554
G01 X2.4224 Y7.8646
G01 X2.4257 Y7.8698
G01 X2.4303 Y7.8812
G01 X2.4324 Y7.8960
G01 X2.4324 Y8.4375
G01 X4.1045 Y8.4375
G01 X4.1406 Y8.4398
G01 X4.1717 Y8.4452
G01 X4.2020 Y8.4539
G01 X4.2369 Y8.4680
G01 X4.2645 Y8.4832
G01 X4.2769 Y8.4916
G01 X4.7780 Y8.4916
G01 X4.7928 Y8.4937
G01 X4.7986 Y8.4957
G01 X4.8094 Y8.5016
G01 X4.8186 Y8.5098
G01 X4.8224 Y8.5146
G01 X4.8257 Y8.5198
G01 X4.8303 Y8.5312
G01 X4.8323 Y8.5433
G01 X4.8323 Y8.9487
G01 X4.8317 Y8.9548
G01 X4.8283 Y8.9666
G01 X4.8257 Y8.9722
G01 X4.8186 Y8.9822
G01 X4.8094 Y8.9904
G01 X4.7986 Y8.9963
G01 X4.7868 Y8.9997
G01 X4.7807 Y9.0003
G01 X4.2769 Y9.0004
G01 X4.2645 Y9.0088
G01 X4.2369 Y9.0240
G01 X4.2020 Y9.0381
G01 X4.1717 Y9.0468
G01 X4.1406 Y9.0522
G01 X4.1045 Y9.0545
G01 X2.4324 Y9.0545
G01 X2.4323 Y9.7987
G01 X2.4317 Y9.8048
G01 X2.4283 Y9.8166
G01 X2.4224 Y9.8274
G01 X2.4142 Y9.8366
G01 X2.4042 Y9.8437
G01 X2.3986 Y9.8463
G01 X2.3868 Y9.8497
G01 X2.3780 Y9.8504
G01 X0.4780 Y9.8504
G01 X0.4692 Y9.8497
G01 X0.4574 Y9.8463
G01 X0.4466 Y9.8404
G01 X0.4418 Y9.8366
G01 X0.4336 Y9.8274
G01 X0.4277 Y9.8166
G01 X0.4243 Y9.8048
G01 X0.4236 Y9.7960
G01 X0.4236 Y7.8960
G01 X0.4257 Y7.8812
G01 X0.4303 Y7.8698
G01 X0.4374 Y7.8598
G01 X0.4418 Y7.8554
G01 X0.4518 Y7.8483
G01 X0.4632 Y7.8437
G01 X0.4753 Y7.8417
G01 X1.4695 Y7.8416
G01 X1.4695 Y7.0004
G01 X0.4753 Y7.0003
G01 X0.4692 Y6.9997
G01 X0.4574 Y6.9963
G01 X0.4466 Y6.9904
G01 X0.4418 Y6.9866
G01 X0.4336 Y6.9774
G01 X0.4277 Y6.9666
G01 X0.4243 Y6.9548
G01 X0.4236 Y6.9460
G01 X0.4237 Y5.1433
G01 X0.4243 Y5.1372
G01 X0.4277 Y5.1254
G01 X0.4336 Y5.1146
G01 X0.4418 Y5.1054
G01 X0.4466 Y5.1016
G01 X0.4574 Y5.0957
G01 X0.4692 Y5.0923
G01 X0.4753 Y5.0917
G00 Z2.5400
G00 X0.4719 Y5.0210
G01 F76.20
G01 Z-0.0508
G01 F76.20
G01 X2.3780 Y5.0209
G01 X2.3982 Y5.0225
G01 X2.4121 Y5.0256
G01 X2.4254 Y5.0302
G01 X2.4382 Y5.0363
G01 X2.4502 Y5.0438
G01 X2.4613 Y5.0527
G01 X2.4713 Y5.0627
G01 X2.4802 Y5.0738
G01 X2.4877 Y5.0858
G01 X2.4938 Y5.0986
G01 X2.4984 Y5.1119
G01 X2.5015 Y5.1258
G01 X2.5031 Y5.1460
G01 X2.5031 Y5.6668
G01 X4.1427 Y5.6668
G01 X4.1440 Y5.6055
G01 X3.7800 Y5.6055
G01 X3.6806 Y5.5999
G01 X3.5825 Y5.5832
G01 X3.4936 Y5.5578
G01 X3.4803 Y5.5532
G01 X3.3949 Y5.5176
G01 X3.3078 Y5.4695
G01 X3.2323 Y5.4161
G01 X3.2213 Y5.4073
G01 X3.1524 Y5.3456
G01 X3.0907 Y5.2767
G01 X3.0819 Y5.2657
G01 X3.0285 Y5.1902
G01 X2.9804 Y5.1031
G01 X2.9448 Y5.0177
G01 X2.9402 Y5.0044
G01 X2.9148 Y4.9155
G01 X2.8981 Y4.8174
G01 X2.8925 Y4.7180
G01 X2.8975 Y4.6256
G01 X2.8991 Y4.6117
G01 X2.9134 Y4.5274
G01 X2.9165 Y4.5137
G01 X2.9423 Y4.4249
G01 X2.9804 Y4.3329
G01 X3.0285 Y4.2458
G01 X3.0819 Y4.1703
G01 X3.0907 Y4.1593
G01 X3.1476 Y4.0955
G01 X3.1575 Y4.0856
G01 X3.2267 Y4.0241
G01 X3.3020 Y3.9704
G01 X3.3139 Y3.9630
G01 X3.3949 Y3.9184
G01 X3.4869 Y3.8803
G01 X3.5825 Y3.8528
G01 X3.6737 Y3.8371
G01 X3.6876 Y3.8355
G01 X3.7800 Y3.8305
G01 X5.3040 Y3.8305
G01 X5.4034 Y3.8361
G01 X5.5015 Y3.8528
G01 X5.5904 Y3.8782
G01 X5.6037 Y3.8828
G01 X5.6891 Y3.9184
G01 X5.7701 Y3.9630
G01 X5.7820 Y3.9704
G01 X5.8517 Y4.0199
G01 X5.8627 Y4.0287
G01 X5.9316 Y4.0904
G01 X5.9979 Y4.1647
G01 X6.0555 Y4.2458
G01 X6.1036 Y4.3329
G01 X6.1417 Y4.4249
G01 X6.1675 Y4.5137
G01 X6.1706 Y4.5274
G01 X6.1859 Y4.6186
G01 X6.1913 Y4.7110
G01 X6.1913 Y4.7250
G01 X6.1865 Y4.8104
G01 X6.1849 Y4.8243
G01 X6.1692 Y4.9155
G01 X6.1417 Y5.0111
G01 X6.1036 Y5.1031
G01 X6.0590 Y5.1841
G01 X6.0516 Y5.1960
G01 X5.9979 Y5.2713
G01 X5.9364 Y5.3405
G01 X5.9265 Y5.3504
G01 X5.8573 Y5.4119
G01 X5.7820 Y5.4656
G01 X5.7701 Y5.4730
G01 X5.6891 Y5.5176
G01 X5.5971 Y5.5557
G01 X5.5015 Y5.5832
G01 X5.4103 Y5.5989
G01 X5.3964 Y5.6005
G01 X5.3040 Y5.6055
G01 X4.9026 Y5.6055
G01 X4.8930 Y6.0575
G01 X4.8900 Y6.0958
G01 X4.8822 Y6.1371
G01 X4.8698 Y6.1772
G01 X4.8561 Y6.2094
G01 X4.8499 Y6.2218
G01 X4.8360 Y6.2462
G01 X4.8284 Y6.2578
G01 X4.8076 Y6.2860
G01 X4.7793 Y6.3170
G01 X4.7478 Y6.3446
G01 X4.7191 Y6.3648
G01 X4.7074 Y6.3721
G01 X4.6765 Y6.3887
G01 X4.6441 Y6.4021
G01 X4.6310 Y6.4066
G01 X4.5973 Y6.4160
G01 X4.5628 Y6.4220
G01 X4.5490 Y6.4235
G01 X4.5175 Y6.4252
G01 X2.5031 Y6.4252
G01 X2.5030 Y6.9521
G01 X2.5015 Y6.9662
G01 X2.4984 Y6.9801
G01 X2.4938 Y6.9934
G01 X2.4877 Y7.0062
G01 X2.4802 Y7.0182
G01 X2.4713 Y7.0293
G01 X2.4613 Y7.0393
G01 X2.4502 Y7.0482
G01 X2.4382 Y7.0557
G01 X2.4254 Y7.0618
G01 X2.4121 Y7.0664
G01 X2.3982 Y7.0695
G01 X2.3780 Y7.0711
G01 X2.1572 Y7.0711
G01 X2.1572 Y7.7709
G01 X2.3780 Y7.7709
G01 X2.3982 Y7.7725
G01 X2.4121 Y7.7756
G01 X2.4254 Y7.7802
G01 X2.4382 Y7.7863
G01 X2.4502 Y7.7938
G01 X2.4613 Y7.8027
G01 X2.4713 Y7.8127
G01 X2.4802 Y7.8238
G01 X2.4877 Y7.8358
G01 X2.4938 Y7.8486
G01 X2.4984 Y7.8619
G01 X2.5015 Y7.8758
G01 X2.5030 Y7.8899
G01 X2.5031 Y8.3668
G01 X4.1100 Y8.3669
G01 X4.1455 Y8.3691
G01 X4.1805 Y8.3749
G01 X4.1942 Y8.3780
G01 X4.2216 Y8.3859
G01 X4.2348 Y8.3905
G01 X4.2675 Y8.4043
G01 X4.2979 Y8.4209
G01 X4.7780 Y8.4209
G01 X4.7982 Y8.4225
G01 X4.8121 Y8.4256
G01 X4.8254 Y8.4302
G01 X4.8382 Y8.4363
G01 X4.8502 Y8.4438
G01 X4.8613 Y8.4527
G01 X4.8713 Y8.4627
G01 X4.8802 Y8.4738
G01 X4.8877 Y8.4858
G01 X4.8938 Y8.4986
G01 X4.8984 Y8.5119
G01 X4.9015 Y8.5258
G01 X4.9031 Y8.5460
G01 X4.9031 Y8.9460
G01 X4.9015 Y8.9662
G01 X4.8984 Y8.9801
G01 X4.8938 Y8.9934
G01 X4.8877 Y9.0062
G01 X4.8802 Y9.0182
G01 X4.8713 Y9.0293
G01 X4.8613 Y9.0393
G01 X4.8502 Y9.0482
G01 X4.8382 Y9.0557
G01 X4.8254 Y9.0618
G01 X4.8121 Y9.0664
G01 X4.7982 Y9.0695
G01 X4.7829 Y9.0710
G01 X4.7982 Y9.0725
G01 X4.8121 Y9.0756
G01 X4.8254 Y9.0802
G01 X4.8382 Y9.0863
G01 X4.8502 Y9.0938
G01 X4.8613 Y9.1027
G01 X4.8713 Y9.1127
G01 X4.8802 Y9.1238
G01 X4.8877 Y9.1358
G01 X4.8938 Y9.1486
G01 X4.8984 Y9.1619
G01 X4.9015 Y9.1758
G01 X4.9031 Y9.1960
G01 X4.9030 Y9.6021
G01 X4.9015 Y9.6162
G01 X4.8984 Y9.6301
G01 X4.8938 Y9.6434
G01 X4.8877 Y9.6562
G01 X4.8802 Y9.6682
G01 X4.8713 Y9.6793
G01 X4.8613 Y9.6893
G01 X4.8502 Y9.6982
G01 X4.8382 Y9.7057
G01 X4.8254 Y9.7118
G01 X4.8121 Y9.7164
G01 X4.7982 Y9.7195
G01 X4.7829 Y9.7210
G01 X4.7982 Y9.7225
G01 X4.8121 Y9.7256
G01 X4.8254 Y9.7302
G01 X4.8382 Y9.7363
G01 X4.8502 Y9.7438
G01 X4.8613 Y9.7527
G01 X4.8713 Y9.7627
G01 X4.8802 Y9.7738
G01 X4.8877 Y9.7858
G01 X4.8938 Y9.7986
G01 X4.8984 Y9.8119
G01 X4.9015 Y9.8258
G01 X4.9031 Y9.8460
G01 X4.9030 Y10.2521
G01 X4.9015 Y10.2662
G01 X4.8984 Y10.2801
G01 X4.8938 Y10.2934
G01 X4.8877 Y10.3062
G01 X4.8802 Y10.3182
G01 X4.8713 Y10.3293
G01 X4.8613 Y10.3393
G01 X4.8502 Y10.3482
G01 X4.8382 Y10.3557
G01 X4.8254 Y10.3618
G01 X4.8121 Y10.3664
G01 X4.7982 Y10.3695
G01 X4.7829 Y10.3710
G01 X4.7982 Y10.3725
G01 X4.8121 Y10.3756
G01 X4.8254 Y10.3802
G01 X4.8382 Y10.3863
G01 X4.8502 Y10.3938
G01 X4.8613 Y10.4027
G01 X4.8713 Y10.4127
G01 X4.8802 Y10.4238
G01 X4.8877 Y10.4358
G01 X4.8938 Y10.4486
G01 X4.8984 Y10.4619
G01 X4.9015 Y10.4758
G01 X4.9031 Y10.4960
G01 X4.9030 Y10.9021
G01 X4.9015 Y10.9162
G01 X4.8984 Y10.9301
G01 X4.8938 Y10.9434
G01 X4.8877 Y10.9562
G01 X4.8802 Y10.9682
G01 X4.8713 Y10.9793
G01 X4.8613 Y10.9893
G01 X4.8502 Y10.9982
G01 X4.8382 Y11.0057
G01 X4.8254 Y11.0118
G01 X4.8121 Y11.0164
G01 X4.7982 Y11.0195
G01 X4.7829 Y11.0210
G01 X4.7982 Y11.0225
G01 X4.8121 Y11.0256
G01 X4.8254 Y11.0302
G01 X4.8382 Y11.0363
G01 X4.8502 Y11.0438
G01 X4.8613 Y11.0527
G01 X4.8713 Y11.0627
G01 X4.8820 Y11.0768
G01 X4.9105 Y11.0721
G01 X4.9530 Y11.0698
G01 X4.9955 Y11.0721
G01 X5.0305 Y11.0779
G01 X5.0442 Y11.0810
G01 X5.0716 Y11.0889
G01 X5.0848 Y11.0935
G01 X5.1175 Y11.1073
G01 X5.1548 Y11.1279
G01 X5.1895 Y11.1525
G01 X5.2212 Y11.1808
G01 X5.2495 Y11.2125
G01 X5.2702 Y11.2414
G01 X5.2777 Y11.2533
G01 X5.2915 Y11.2782
G01 X5.2976 Y11.2909
G01 X5.3110 Y11.3237
G01 X5.3210 Y11.3578
G01 X5.3241 Y11.3715
G01 X5.3299 Y11.4065
G01 X5.3322 Y11.4490
G01 X5.3322 Y13.9919
G01 X5.4034 Y13.9961
G01 X5.5015 Y14.0128
G01 X5.5971 Y14.0403
G01 X5.6827 Y14.0755
G01 X5.6953 Y14.0816
G01 X5.7701 Y14.1230
G01 X5.7820 Y14.1304
G01 X5.8573 Y14.1841
G01 X5.9265 Y14.2456
G01 X5.9364 Y14.2555
G01 X5.9933 Y14.3193
G01 X6.0021 Y14.3303
G01 X6.0555 Y14.4058
G01 X6.1036 Y14.4929
G01 X6.1392 Y14.5783
G01 X6.1438 Y14.5916
G01 X6.1692 Y14.6805
G01 X6.1859 Y14.7786
G01 X6.1913 Y14.8710
G01 X6.1913 Y14.8850
G01 X6.1859 Y14.9774
G01 X6.1706 Y15.0686
G01 X6.1675 Y15.0823
G01 X6.1417 Y15.1711
G01 X6.1065 Y15.2567
G01 X6.1004 Y15.2693
G01 X6.0555 Y15.3502
G01 X6.0021 Y15.4257
G01 X5.9933 Y15.4367
G01 X5.9316 Y15.5056
G01 X5.8627 Y15.5673
G01 X5.8517 Y15.5761
G01 X5.7762 Y15.6295
G01 X5.6891 Y15.6776
G01 X5.5971 Y15.7157
G01 X5.5015 Y15.7432
G01 X5.4034 Y15.7599
G01 X5.3075 Y15.7655
G01 X3.7800 Y15.7655
G01 X3.6876 Y15.7605
G01 X3.6737 Y15.7589
G01 X3.5825 Y15.7432
G01 X3.4936 Y15.7178
G01 X3.4803 Y15.7132
G01 X3.3949 Y15.6776
G01 X3.3139 Y15.6330
G01 X3.3020 Y15.6256
G01 X3.2323 Y15.5761
G01 X3.2213 Y15.5673
G01 X3.1524 Y15.5056
G01 X3.0861 Y15.4313
G01 X3.0285 Y15.3502
G01 X2.9804 Y15.2631
G01 X2.9423 Y15.1711
G01 X2.9165 Y15.0823
G01 X2.9134 Y15.0686
G01 X2.8981 Y14.9774
G01 X2.8925 Y14.8780
G01 X2.8975 Y14.7856
G01 X2.8991 Y14.7717
G01 X2.9148 Y14.6805
G01 X2.9402 Y14.5916
G01 X2.9448 Y14.5783
G01 X2.9804 Y14.4929
G01 X3.0285 Y14.4058
G01 X3.0861 Y14.3247
G01 X3.1476 Y14.2555
G01 X3.1575 Y14.2456
G01 X3.2267 Y14.1841
G01 X3.3078 Y14.1265
G01 X3.3887 Y14.0816
G01 X3.4013 Y14.0755
G01 X3.4803 Y14.0428
G01 X3.4936 Y14.0382
G01 X3.5825 Y14.0128
G01 X3.6737 Y13.9971
G01 X3.6876 Y13.9955
G01 X3.7800 Y13.9905
G01 X4.5738 Y13.9905
G01 X4.5738 Y11.7266
G01 X4.4415 Y11.7265
G01 X4.4139 Y11.7249
G01 X4.3901 Y11.7210
G01 X4.3764 Y11.7179
G01 X4.3533 Y11.7110
G01 X4.3246 Y11.6991
G01 X4.2973 Y11.6840
G01 X4.2788 Y11.6711
G01 X3.4219 Y11.6710
G01 X3.4078 Y11.6695
G01 X3.3939 Y11.6664
G01 X3.3806 Y11.6618
G01 X3.3678 Y11.6557
G01 X3.3558 Y11.6482
G01 X3.3447 Y11.6393
G01 X3.3347 Y11.6293
G01 X3.3258 Y11.6182
G01 X3.3183 Y11.6062
G01 X3.3122 Y11.5934
G01 X3.3076 Y11.5801
G01 X3.3045 Y11.5662
G01 X3.3030 Y11.5521
G01 X3.3029 Y11.1460
G01 X3.3045 Y11.1258
G01 X3.3076 Y11.1119
G01 X3.3122 Y11.0986
G01 X3.3183 Y11.0858
G01 X3.3258 Y11.0738
G01 X3.3347 Y11.0627
G01 X3.3447 Y11.0527
G01 X3.3558 Y11.0438
G01 X3.3678 Y11.0363
G01 X3.3806 Y11.0302
G01 X3.3939 Y11.0256
G01 X3.4078 Y11.0225
G01 X3.4231 Y11.0210
G01 X3.4078 Y11.0195
G01 X3.3939 Y11.0164
G01 X3.3806 Y11.0118
G01 X3.3678 Y11.0057
G01 X3.3558 Y10.9982
G01 X3.3447 Y10.9893
G01 X3.3347 Y10.9793
G01 X3.3258 Y10.9682
G01 X3.3183 Y10.9562
G01 X3.3122 Y10.9434
G01 X3.3076 Y10.9301
G01 X3.3045 Y10.9162
G01 X3.3030 Y10.9021
G01 X3.3029 Y10.4960
G01 X3.3045 Y10.4758
G01 X3.3076 Y10.4619
G01 X3.3122 Y10.4486
G01 X3.3183 Y10.4358
G01 X3.3258 Y10.4238
G01 X3.3347 Y10.4127
G01 X3.3447 Y10.4027
G01 X3.3558 Y10.3938
G01 X3.3678 Y10.3863
G01 X3.3806 Y10.3802
G01 X3.3939 Y10.3756
G01 X3.4078 Y10.3725
G01 X3.4231 Y10.3710
G01 X3.4078 Y10.3695
G01 X3.3939 Y10.3664
G01 X3.3806 Y10.3618
G01 X3.3678 Y10.3557
G01 X3.3558 Y10.3482
G01 X3.3447 Y10.3393
G01 X3.3347 Y10.3293
G01 X3.3258 Y10.3182
G01 X3.3183 Y10.3062
G01 X3.3122 Y10.2934
G01 X3.3076 Y10.2801
G01 X3.3045 Y10.2662
G01 X3.3030 Y10.2521
G01 X3.3029 Y9.8460
G01 X3.3045 Y9.8258
G01 X3.3076 Y9.8119
G01 X3.3122 Y9.7986
G01 X3.3183 Y9.7858
G01 X3.3258 Y9.7738
G01 X3.3347 Y9.7627
G01 X3.3447 Y9.7527
G01 X3.3558 Y9.7438
G01 X3.3678 Y9.7363
G01 X3.3806 Y9.7302
G01 X3.3939 Y9.7256
G01 X3.4078 Y9.7225
G01 X3.4231 Y9.7210
G01 X3.4078 Y9.7195
G01 X3.3939 Y9.7164
G01 X3.3806 Y9.7118
G01 X3.3678 Y9.7057
G01 X3.3558 Y9.6982
G01 X3.3447 Y9.6893
G01 X3.3347 Y9.6793
G01 X3.3258 Y9.6682
G01 X3.3183 Y9.6562
G01 X3.3122 Y9.6434
G01 X3.3076 Y9.6301
G01 X3.3045 Y9.6162
G01 X3.3029 Y9.5960
G01 X3.3030 Y9.1899
G01 X3.3045 Y9.1758
G01 X3.3076 Y9.1619
G01 X3.3122 Y9.1486
G01 X3.3183 Y9.1358
G01 X3.3249 Y9.1252
G01 X2.5031 Y9.1252
G01 X2.5031 Y9.7960
G01 X2.5015 Y9.8162
G01 X2.4984 Y9.8301
G01 X2.4938 Y9.8434
G01 X2.4877 Y9.8562
G01 X2.4802 Y9.8682
G01 X2.4713 Y9.8793
G01 X2.4613 Y9.8893
G01 X2.4502 Y9.8982
G01 X2.4382 Y9.9057
G01 X2.4254 Y9.9118
G01 X2.4121 Y9.9164
G01 X2.3982 Y9.9195
G01 X2.3780 Y9.9211
G01 X0.4719 Y9.9210
G01 X0.4578 Y9.9195
G01 X0.4439 Y9.9164
G01 X0.4306 Y9.9118
G01 X0.4178 Y9.9057
G01 X0.4058 Y9.8982
G01 X0.3947 Y9.8893
G01 X0.3847 Y9.8793
G01 X0.3758 Y9.8682
G01 X0.3683 Y9.8562
G01 X0.3622 Y9.8434
G01 X0.3576 Y9.8301
G01 X0.3545 Y9.8162
G01 X0.3529 Y9.7960
G01 X0.3529 Y7.8960
G01 X0.3545 Y7.8758
G01 X0.3576 Y7.8619
G01 X0.3622 Y7.8486
G01 X0.3683 Y7.8358
G01 X0.3758 Y7.8238
G01 X0.3847 Y7.8127
G01 X0.3947 Y7.8027
G01 X0.4058 Y7.7938
G01 X0.4178 Y7.7863
G01 X0.4306 Y7.7802
G01 X0.4439 Y7.7756
G01 X0.4578 Y7.7725
G01 X0.4719 Y7.7710
G01 X1.3988 Y7.7709
G01 X1.3988 Y7.0711
G01 X0.4719 Y7.0710
G01 X0.4578 Y7.0695
G01 X0.4439 Y7.0664
G01 X0.4306 Y7.0618
G01 X0.4178 Y7.0557
G01 X0.4058 Y7.0482
G01 X0.3947 Y7.0393
G01 X0.3847 Y7.0293
G01 X0.3758 Y7.0182
G01 X0.3683 Y7.0062
G01 X0.3622 Y6.9934
G01 X0.3576 Y6.9801
G01 X0.3545 Y6.9662
G01 X0.3529 Y6.9460
G01 X0.3530 Y5.1399
G01 X0.3545 Y5.1258
G01 X0.3576 Y5.1119
G01 X0.3622 Y5.0986
G01 X0.3683 Y5.0858
G01 X0.3758 Y5.0738
G01 X0.3847 Y5.0627
G01 X0.3947 Y5.0527
G01 X0.4058 Y5.0438
G01 X0.4178 Y5.0363
G01 X0.4306 Y5.0302
G01 X0.4439 Y5.0256
G01 X0.4578 Y5.0225
G01 X0.4719 Y5.0210
G00 Z2.5400
G00 X0.4684 Y4.9504
G01 F76.20
G01 Z-0.0508
G01 F76.20
G01 X2.3780 Y4.9502
G01 X2.3876 Y4.9504
G01 X2.4097 Y4.9527
G01 X2.4313 Y4.9576
G01 X2.4523 Y4.9648
G01 X2.4723 Y4.9743
G01 X2.4911 Y4.9861
G01 X2.5084 Y4.9999
G01 X2.5241 Y5.0156
G01 X2.5379 Y5.0329
G01 X2.5497 Y5.0517
G01 X2.5592 Y5.0717
G01 X2.5664 Y5.0927
G01 X2.5713 Y5.1143
G01 X2.5736 Y5.1364
G01 X2.5738 Y5.1460
G01 X2.5738 Y5.5960
G01 X3.3989 Y5.5960
G01 X3.3743 Y5.5858
G01 X3.3545 Y5.5763
G01 X3.2702 Y5.5293
G01 X3.1913 Y5.4738
G01 X3.1742 Y5.4601
G01 X3.1024 Y5.3956
G01 X3.0379 Y5.3238
G01 X3.0242 Y5.3067
G01 X2.9687 Y5.2278
G01 X2.9167 Y5.1338
G01 X2.8795 Y5.0447
G01 X2.8722 Y5.0240
G01 X2.8458 Y4.9312
G01 X2.8293 Y4.8362
G01 X2.8269 Y4.8143
G01 X2.8218 Y4.7180
G01 X2.8269 Y4.6217
G01 X2.8293 Y4.5998
G01 X2.8458 Y4.5048
G01 X2.8722 Y4.4120
G01 X2.8795 Y4.3913
G01 X2.9167 Y4.3022
G01 X2.9687 Y4.2082
G01 X3.0308 Y4.1206
G01 X3.0949 Y4.0484
G01 X3.1104 Y4.0329
G01 X3.1826 Y3.9688
G01 X3.2611 Y3.9128
G01 X3.2797 Y3.9011
G01 X3.3642 Y3.8547
G01 X3.4635 Y3.8136
G01 X3.5668 Y3.7838
G01 X3.6727 Y3.7658
G01 X3.7690 Y3.7601
G01 X5.3040 Y3.7598
G01 X5.4003 Y3.7649
G01 X5.4222 Y3.7673
G01 X5.5172 Y3.7838
G01 X5.6100 Y3.8102
G01 X5.6307 Y3.8175
G01 X5.7097 Y3.8502
G01 X5.7295 Y3.8597
G01 X5.8138 Y3.9067
G01 X5.8927 Y3.9622
G01 X5.9098 Y3.9759
G01 X5.9816 Y4.0404
G01 X6.0532 Y4.1206
G01 X6.1153 Y4.2082
G01 X6.1673 Y4.3022
G01 X6.2084 Y4.4015
G01 X6.2355 Y4.4941
G01 X6.2403 Y4.5155
G01 X6.2547 Y4.5998
G01 X6.2571 Y4.6217
G01 X6.2622 Y4.7180
G01 X6.2571 Y4.8143
G01 X6.2547 Y4.8362
G01 X6.2382 Y4.9312
G01 X6.2084 Y5.0345
G01 X6.1673 Y5.1338
G01 X6.1153 Y5.2278
G01 X6.0532 Y5.3154
G01 X5.9891 Y5.3876
G01 X5.9736 Y5.4031
G01 X5.9014 Y5.4672
G01 X5.8229 Y5.5232
G01 X5.8043 Y5.5349
G01 X5.7198 Y5.5813
G01 X5.6307 Y5.6185
G01 X5.6100 Y5.6258
G01 X5.5172 Y5.6522
G01 X5.4113 Y5.6702
G01 X5.3040 Y5.6762
G01 X4.9719 Y5.6762
G01 X4.9637 Y6.0609
G01 X4.9601 Y6.1051
G01 X4.9508 Y6.1540
G01 X4.9397 Y6.1914
G01 X4.9322 Y6.2117
G01 X4.9164 Y6.2473
G01 X4.8917 Y6.2905
G01 X4.8624 Y6.3308
G01 X4.8363 Y6.3597
G01 X4.8209 Y6.3749
G01 X4.7997 Y6.3934
G01 X4.7826 Y6.4068
G01 X4.7505 Y6.4288
G01 X4.7164 Y6.4477
G01 X4.6969 Y6.4569
G01 X4.6607 Y6.4714
G01 X4.6233 Y6.4823
G01 X4.6022 Y6.4871
G01 X4.5637 Y6.4932
G01 X4.5194 Y6.4959
G01 X2.5738 Y6.4960
G01 X2.5736 Y6.9556
G01 X2.5713 Y6.9777
G01 X2.5664 Y6.9993
G01 X2.5592 Y7.0203
G01 X2.5497 Y7.0403
G01 X2.5379 Y7.0591
G01 X2.5241 Y7.0764
G01 X2.5084 Y7.0921
G01 X2.4911 Y7.1059
G01 X2.4723 Y7.1177
G01 X2.4523 Y7.1272
G01 X2.4313 Y7.1344
G01 X2.4097 Y7.1393
G01 X2.3876 Y7.1416
G01 X2.2280 Y7.1418
G01 X2.2280 Y7.7002
G01 X2.3876 Y7.7004
G01 X2.4097 Y7.7027
G01 X2.4313 Y7.7076
G01 X2.4523 Y7.7148
G01 X2.4723 Y7.7243
G01 X2.4911 Y7.7361
G01 X2.5084 Y7.7499
G01 X2.5241 Y7.7656
G01 X2.5379 Y7.7829
G01 X2.5497 Y7.8017
G01 X2.5592 Y7.8217
G01 X2.5664 Y7.8427
G01 X2.5713 Y7.8643
G01 X2.5736 Y7.8864
G01 X2.5738 Y8.2960
G01 X4.1030 Y8.2960
G01 X4.1424 Y8.2979
G01 X4.1643 Y8.3004
G01 X4.2031 Y8.3073
G01 X4.2411 Y8.3179
G01 X4.2619 Y8.3252
G01 X4.2882 Y8.3361
G01 X4.3162 Y8.3502
G01 X4.7780 Y8.3502
G01 X4.7876 Y8.3504
G01 X4.8097 Y8.3527
G01 X4.8313 Y8.3576
G01 X4.8523 Y8.3648
G01 X4.8723 Y8.3743
G01 X4.8911 Y8.3861
G01 X4.9084 Y8.3999
G01 X4.9241 Y8.4156
G01 X4.9379 Y8.4329
G01 X4.9497 Y8.4517
G01 X4.9592 Y8.4717
G01 X4.9664 Y8.4927
G01 X4.9713 Y8.5143
G01 X4.9736 Y8.5364
G01 X4.9736 Y8.9556
G01 X4.9713 Y8.9777
G01 X4.9664 Y8.9993
G01 X4.9592 Y9.0203
G01 X4.9497 Y9.0403
G01 X4.9379 Y9.0591
G01 X4.9284 Y9.0710
G01 X4.9379 Y9.0829
G01 X4.9497 Y9.1017
G01 X4.9592 Y9.1217
G01 X4.9664 Y9.1427
G01 X4.9713 Y9.1643
G01 X4.9736 Y9.1864
G01 X4.9736 Y9.6056
G01 X4.9713 Y9.6277
G01 X4.9664 Y9.6493
G01 X4.9592 Y9.6703
G01 X4.9497 Y9.6903
G01 X4.9379 Y9.7091
G01 X4.9284 Y9.7210
G01 X4.9379 Y9.7329
G01 X4.9497 Y9.7517
G01 X4.9592 Y9.7717
G01 X4.9664 Y9.7927
G01 X4.9713 Y9.8143
G01 X4.9736 Y9.8364
G01 X4.9738 Y10.2460
G01 X4.9736 Y10.2556
G01 X4.9713 Y10.2777
G01 X4.9664 Y10.2993
G01 X4.9592 Y10.3203
G01 X4.9497 Y10.3403
G01 X4.9379 Y10.3591
G01 X4.9284 Y10.3710
G01 X4.9379 Y10.3829
G01 X4.9497 Y10.4017
G01 X4.9592 Y10.4217
G01 X4.9664 Y10.4427
G01 X4.9713 Y10.4643
G01 X4.9736 Y10.4864
G01 X4.9738 Y10.8960
G01 X4.9736 Y10.9056
G01 X4.9713 Y10.9277
G01 X4.9664 Y10.9493
G01 X4.9592 Y10.9703
G01 X4.9497 Y10.9903
G01 X4.9440 Y10.9993
G01 X4.9640 Y10.9993
G01 X4.9924 Y11.0009
G01 X5.0143 Y11.0034
G01 X5.0531 Y11.0103
G01 X5.1016 Y11.0243
G01 X5.1482 Y11.0436
G01 X5.1829 Y11.0624
G01 X5.2015 Y11.0741
G01 X5.2248 Y11.0906
G01 X5.2419 Y11.1043
G01 X5.2712 Y11.1308
G01 X5.2977 Y11.1601
G01 X5.3114 Y11.1772
G01 X5.3279 Y11.2005
G01 X5.3396 Y11.2191
G01 X5.3584 Y11.2538
G01 X5.3777 Y11.3004
G01 X5.3917 Y11.3489
G01 X5.3986 Y11.3877
G01 X5.4011 Y11.4096
G01 X5.4030 Y11.4490
G01 X5.4030 Y13.9251
G01 X5.4222 Y13.9273
G01 X5.5065 Y13.9417
G01 X5.5279 Y13.9465
G01 X5.6205 Y13.9736
G01 X5.7198 Y14.0147
G01 X5.8138 Y14.0667
G01 X5.8927 Y14.1222
G01 X5.9098 Y14.1359
G01 X5.9816 Y14.2004
G01 X6.0461 Y14.2722
G01 X6.0598 Y14.2893
G01 X6.1153 Y14.3682
G01 X6.1673 Y14.4622
G01 X6.2045 Y14.5513
G01 X6.2118 Y14.5720
G01 X6.2382 Y14.6648
G01 X6.2562 Y14.7707
G01 X6.2619 Y14.8670
G01 X6.2619 Y14.8890
G01 X6.2562 Y14.9853
G01 X6.2403 Y15.0805
G01 X6.2355 Y15.1019
G01 X6.2084 Y15.1945
G01 X6.1718 Y15.2837
G01 X6.1623 Y15.3035
G01 X6.1153 Y15.3878
G01 X6.0598 Y15.4667
G01 X6.0461 Y15.4838
G01 X5.9816 Y15.5556
G01 X5.9098 Y15.6201
G01 X5.8927 Y15.6338
G01 X5.8138 Y15.6893
G01 X5.7198 Y15.7413
G01 X5.6205 Y15.7824
G01 X5.5172 Y15.8122
G01 X5.4113 Y15.8302
G01 X5.3150 Y15.8359
G01 X3.7800 Y15.8362
G01 X3.6837 Y15.8311
G01 X3.6618 Y15.8287
G01 X3.5668 Y15.8122
G01 X3.4740 Y15.7858
G01 X3.4533 Y15.7785
G01 X3.3642 Y15.7413
G01 X3.2797 Y15.6949
G01 X3.2611 Y15.6832
G01 X3.1913 Y15.6338
G01 X3.1742 Y15.6201
G01 X3.1024 Y15.5556
G01 X3.0308 Y15.4754
G01 X2.9687 Y15.3878
G01 X2.9167 Y15.2938
G01 X2.8756 Y15.1945
G01 X2.8485 Y15.1019
G01 X2.8437 Y15.0805
G01 X2.8278 Y14.9853
G01 X2.8218 Y14.8780
G01 X2.8269 Y14.7817
G01 X2.8293 Y14.7598
G01 X2.8458 Y14.6648
G01 X2.8722 Y14.5720
G01 X2.8795 Y14.5513
G01 X2.9167 Y14.4622
G01 X2.9687 Y14.3682
G01 X3.0242 Y14.2893
G01 X3.0379 Y14.2722
G01 X3.1024 Y14.2004
G01 X3.1742 Y14.1359
G01 X3.1913 Y14.1222
G01 X3.2702 Y14.0666
G01 X3.3545 Y14.0197
G01 X3.3743 Y14.0102
G01 X3.4533 Y13.9775
G01 X3.4740 Y13.9702
G01 X3.5668 Y13.9438
G01 X3.6618 Y13.9273
G01 X3.6837 Y13.9249
G01 X3.7800 Y13.9198
G01 X4.5030 Y13.9198
G01 X4.5030 Y11.7973
G01 X4.4395 Y11.7972
G01 X4.4169 Y11.7960
G01 X4.3951 Y11.7936
G01 X4.3675 Y11.7886
G01 X4.3300 Y11.7778
G01 X4.3039 Y11.7673
G01 X4.2841 Y11.7578
G01 X4.2566 Y11.7418
G01 X3.4280 Y11.7418
G01 X3.4184 Y11.7416
G01 X3.3963 Y11.7393
G01 X3.3747 Y11.7344
G01 X3.3537 Y11.7272
G01 X3.3337 Y11.7177
G01 X3.3149 Y11.7059
G01 X3.2976 Y11.6921
G01 X3.2819 Y11.6764
G01 X3.2681 Y11.6591
G01 X3.2563 Y11.6403
G01 X3.2468 Y11.6203
G01 X3.2396 Y11.5993
G01 X3.2347 Y11.5777
G01 X3.2324 Y11.5556
G01 X3.2324 Y11.1364
G01 X3.2347 Y11.1143
G01 X3.2396 Y11.0927
G01 X3.2468 Y11.0717
G01 X3.2563 Y11.0517
G01 X3.2681 Y11.0329
G01 X3.2776 Y11.0210
G01 X3.2681 Y11.0091
G01 X3.2563 Y10.9903
G01 X3.2468 Y10.9703
G01 X3.2396 Y10.9493
G01 X3.2347 Y10.9277
G01 X3.2324 Y10.9056
G01 X3.2322 Y10.4960
G01 X3.2324 Y10.4864
G01 X3.2347 Y10.4643
G01 X3.2396 Y10.4427
G01 X3.2468 Y10.4217
G01 X3.2563 Y10.4017
G01 X3.2681 Y10.3829
G01 X3.2776 Y10.3710
G01 X3.2681 Y10.3591
G01 X3.2563 Y10.3403
G01 X3.2468 Y10.3203
G01 X3.2396 Y10.2993
G01 X3.2347 Y10.2777
G01 X3.2324 Y10.2556
G01 X3.2322 Y9.8460
G01 X3.2324 Y9.8364
G01 X3.2347 Y9.8143
G01 X3.2396 Y9.7927
G01 X3.2468 Y9.7717
G01 X3.2563 Y9.7517
G01 X3.2681 Y9.7329
G01 X3.2776 Y9.7210
G01 X3.2681 Y9.7091
G01 X3.2563 Y9.6903
G01 X3.2468 Y9.6703
G01 X3.2396 Y9.6493
G01 X3.2347 Y9.6277
G01 X3.2324 Y9.6056
G01 X3.2322 Y9.1960
G01 X2.5738 Y9.1960
G01 X2.5738 Y9.7960
G01 X2.5736 Y9.8056
G01 X2.5713 Y9.8277
G01 X2.5664 Y9.8493
G01 X2.5592 Y9.8703
G01 X2.5497 Y9.8903
G01 X2.5379 Y9.9091
G01 X2.5241 Y9.9264
G01 X2.5084 Y9.9421
G01 X2.4911 Y9.9559
G01 X2.4723 Y9.9677
G01 X2.4523 Y9.9772
G01 X2.4313 Y9.9844
G01 X2.4097 Y9.9893
G01 X2.3876 Y9.9916
G01 X2.3780 Y9.9918
G01 X0.4684 Y9.9916
G01 X0.4463 Y9.9893
G01 X0.4247 Y9.9844
G01 X0.4037 Y9.9772
G01 X0.3837 Y9.9677
G01 X0.3649 Y9.9559
G01 X0.3476 Y9.9421
G01 X0.3319 Y9.9264
G01 X0.3181 Y9.9091
G01 X0.3063 Y9.8903
G01 X0.2968 Y9.8703
G01 X0.2896 Y9.8493
G01 X0.2847 Y9.8277
G01 X0.2824 Y9.8056
G01 X0.2822 Y9.7960
G01 X0.2822 Y7.8960
G01 X0.2824 Y7.8864
G01 X0.2847 Y7.8643
G01 X0.2896 Y7.8427
G01 X0.2968 Y7.8217
G01 X0.3063 Y7.8017
G01 X0.3181 Y7.7829
G01 X0.3319 Y7.7656
G01 X0.3476 Y7.7499
G01 X0.3649 Y7.7361
G01 X0.3837 Y7.7243
G01 X0.4037 Y7.7148
G01 X0.4247 Y7.7076
G01 X0.4463 Y7.7027
G01 X0.4684 Y7.7004
G01 X0.4780 Y7.7002
G01 X1.3280 Y7.7002
G01 X1.3280 Y7.1418
G01 X0.4780 Y7.1418
G01 X0.4684 Y7.1416
G01 X0.4463 Y7.1393
G01 X0.4247 Y7.1344
G01 X0.4037 Y7.1272
G01 X0.3837 Y7.1177
G01 X0.3649 Y7.1059
G01 X0.3476 Y7.0921
G01 X0.3319 Y7.0764
G01 X0.3181 Y7.0591
G01 X0.3063 Y7.0403
G01 X0.2968 Y7.0203
G01 X0.2896 Y6.9993
G01 X0.2847 Y6.9777
G01 X0.2824 Y6.9556
G01 X0.2822 Y6.9460
G01 X0.2824 Y5.1364
G01 X0.2847 Y5.1143
G01 X0.2896 Y5.0927
G01 X0.2968 Y5.0717
G01 X0.3063 Y5.0517
G01 X0.3181 Y5.0329
G01 X0.3319 Y5.0156
G01 X0.3476 Y4.9999
G01 X0.3649 Y4.9861
G01 X0.3837 Y4.9743
G01 X0.4037 Y4.9648
G01 X0.4247 Y4.9576
G01 X0.4463 Y4.9527
G01 X0.4684 Y4.9504
G00 Z2.5400
G00 X0.3866 Y10.0460
G01 F76.20
G01 Z-0.0508
G01 F76.20
G01 X0.3769 Y10.0427
G01 X0.3497 Y10.0296
G01 X0.3241 Y10.0136
G01 X0.3005 Y9.9949
G01 X0.2791 Y9.9735
G01 X0.2604 Y9.9499
G01 X0.2444 Y9.9243
G01 X0.2313 Y9.8971
G01 X0.2215 Y9.8685
G01 X0.2149 Y9.8391
G01 X0.2118 Y9.8091
G01 X0.2114 Y7.8960
G01 X0.2118 Y7.8829
G01 X0.2149 Y7.8529
G01 X0.2215 Y7.8235
G01 X0.2313 Y7.7949
G01 X0.2444 Y7.7677
G01 X0.2604 Y7.7421
G01 X0.2791 Y7.7185
G01 X0.3005 Y7.6971
G01 X0.3241 Y7.6784
G01 X0.3497 Y7.6624
G01 X0.3769 Y7.6493
G01 X0.4055 Y7.6395
G01 X0.4349 Y7.6329
G01 X0.4649 Y7.6298
G01 X0.4780 Y7.6294
G01 X1.2573 Y7.6294
G01 X1.2573 Y7.2126
G01 X0.4780 Y7.2126
G01 X0.4649 Y7.2122
G01 X0.4349 Y7.2091
G01 X0.4054 Y7.2025
G01 X0.3769 Y7.1927
G01 X0.3497 Y7.1796
G01 X0.3241 Y7.1636
G01 X0.3005 Y7.1449
G01 X0.2791 Y7.1235
G01 X0.2604 Y7.0999
G01 X0.2444 Y7.0743
G01 X0.2313 Y7.0471
G01 X0.2215 Y7.0185
G01 X0.2149 Y6.9891
G01 X0.2118 Y6.9591
G01 X0.2114 Y6.9460
G01 X0.2114 Y5.1460
G01 X0.2118 Y5.1329
G01 X0.2149 Y5.1029
G01 X0.2215 Y5.0735
G01 X0.2313 Y5.0449
G01 X0.2444 Y5.0177
G01 X0.2604 Y4.9921
G01 X0.2791 Y4.9685
G01 X0.3005 Y4.9471
G01 X0.3241 Y4.9284
G01 X0.3497 Y4.9124
G01 X0.3769 Y4.8993
G01 X0.4054 Y4.8895
G01 X0.4349 Y4.8829
G01 X0.4649 Y4.8798
G01 X2.3780 Y4.8794
G01 X2.3911 Y4.8798
G01 X2.4211 Y4.8829
G01 X2.4506 Y4.8895
G01 X2.4791 Y4.8993
G01 X2.5063 Y4.9124
G01 X2.5319 Y4.9284
G01 X2.5555 Y4.9471
G01 X2.5769 Y4.9685
G01 X2.5956 Y4.9921
G01 X2.6116 Y5.0177
G01 X2.6247 Y5.0449
G01 X2.6345 Y5.0735
G01 X2.6411 Y5.1029
G01 X2.6442 Y5.1329
G01 X2.6446 Y5.5253
G01 X3.1423 Y5.5253
G01 X3.1270 Y5.5128
G01 X3.0524 Y5.4456
G01 X2.9755 Y5.3595
G01 X2.9088 Y5.2654
G01 X2.8598 Y5.1777
G01 X2.8468 Y5.1508
G01 X2.8141 Y5.0718
G01 X2.8043 Y5.0436
G01 X2.7769 Y4.9470
G01 X2.7596 Y4.8480
G01 X2.7563 Y4.8183
G01 X2.7511 Y4.7180
G01 X2.7575 Y4.6028
G01 X2.7769 Y4.4890
G01 X2.8088 Y4.3782
G01 X2.8530 Y4.2716
G01 X2.9012 Y4.1834
G01 X2.9171 Y4.1581
G01 X2.9666 Y4.0884
G01 X2.9852 Y4.0650
G01 X3.0524 Y3.9904
G01 X3.1270 Y3.9232
G01 X3.1504 Y3.9046
G01 X3.2326 Y3.8468
G01 X3.3203 Y3.7978
G01 X3.3472 Y3.7848
G01 X3.4402 Y3.7468
G01 X3.5510 Y3.7149
G01 X3.6648 Y3.6955
G01 X3.7651 Y3.6895
G01 X5.3040 Y3.6891
G01 X5.4043 Y3.6943
G01 X5.4340 Y3.6976
G01 X5.5183 Y3.7119
G01 X5.5474 Y3.7186
G01 X5.6438 Y3.7468
G01 X5.7504 Y3.7910
G01 X5.8386 Y3.8392
G01 X5.8639 Y3.8551
G01 X5.9455 Y3.9135
G01 X6.0207 Y3.9802
G01 X6.0418 Y4.0013
G01 X6.0988 Y4.0650
G01 X6.1174 Y4.0884
G01 X6.1752 Y4.1706
G01 X6.2242 Y4.2583
G01 X6.2372 Y4.2852
G01 X6.2752 Y4.3782
G01 X6.3071 Y4.4890
G01 X6.3265 Y4.6028
G01 X6.3329 Y4.7180
G01 X6.3265 Y4.8332
G01 X6.3101 Y4.9323
G01 X6.3034 Y4.9614
G01 X6.2797 Y5.0436
G01 X6.2699 Y5.0718
G01 X6.2310 Y5.1644
G01 X6.1752 Y5.2654
G01 X6.1085 Y5.3595
G01 X6.0316 Y5.4456
G01 X5.9455 Y5.5225
G01 X5.8514 Y5.5892
G01 X5.7504 Y5.6450
G01 X5.6578 Y5.6839
G01 X5.6296 Y5.6937
G01 X5.5330 Y5.7211
G01 X5.4192 Y5.7405
G01 X5.3115 Y5.7468
G01 X5.0411 Y5.7469
G01 X5.0346 Y6.0570
G01 X5.0302 Y6.1144
G01 X5.0226 Y6.1566
G01 X5.0155 Y6.1852
G01 X5.0026 Y6.2261
G01 X4.9859 Y6.2656
G01 X4.9797 Y6.2790
G01 X4.9588 Y6.3164
G01 X4.9427 Y6.3411
G01 X4.9171 Y6.3755
G01 X4.9075 Y6.3867
G01 X4.8783 Y6.4180
G01 X4.8675 Y6.4281
G01 X4.8350 Y6.4560
G01 X4.7877 Y6.4890
G01 X4.7371 Y6.5165
G01 X4.6837 Y6.5382
G01 X4.6426 Y6.5503
G01 X4.6139 Y6.5568
G01 X4.5715 Y6.5635
G01 X4.5214 Y6.5666
G01 X2.6446 Y6.5667
G01 X2.6446 Y6.9460
G01 X2.6442 Y6.9591
G01 X2.6411 Y6.9891
G01 X2.6345 Y7.0185
G01 X2.6247 Y7.0471
G01 X2.6116 Y7.0743
G01 X2.5956 Y7.0999
G01 X2.5769 Y7.1235
G01 X2.5555 Y7.1449
G01 X2.5319 Y7.1636
G01 X2.5063 Y7.1796
G01 X2.4791 Y7.1927
G01 X2.4506 Y7.2025
G01 X2.4211 Y7.2091
G01 X2.3911 Y7.2122
G01 X2.2987 Y7.2126
G01 X2.2987 Y7.6294
G01 X2.3911 Y7.6298
G01 X2.4211 Y7.6329
G01 X2.4505 Y7.6395
G01 X2.4791 Y7.6493
G01 X2.5063 Y7.6624
G01 X2.5319 Y7.6784
G01 X2.5555 Y7.6971
G01 X2.5769 Y7.7185
G01 X2.5956 Y7.7421
G01 X2.6116 Y7.7677
G01 X2.6247 Y7.7949
G01 X2.6345 Y7.8235
G01 X2.6411 Y7.8529
G01 X2.6442 Y7.8829
G01 X2.6446 Y8.2253
G01 X4.1105 Y8.2254
G01 X4.1613 Y8.2286
G01 X4.2189 Y8.2384
G01 X4.2750 Y8.2545
G01 X4.3153 Y8.2708
G01 X4.3339 Y8.2794
G01 X4.7911 Y8.2798
G01 X4.8211 Y8.2829
G01 X4.8506 Y8.2895
G01 X4.8791 Y8.2993
G01 X4.9063 Y8.3124
G01 X4.9319 Y8.3284
G01 X4.9555 Y8.3471
G01 X4.9769 Y8.3685
G01 X4.9956 Y8.3921
G01 X5.0116 Y8.4177
G01 X5.0247 Y8.4449
G01 X5.0345 Y8.4735
G01 X5.0411 Y8.5029
G01 X5.0442 Y8.5329
G01 X5.0446 Y8.9460
G01 X5.0442 Y8.9591
G01 X5.0411 Y8.9891
G01 X5.0345 Y9.0185
G01 X5.0247 Y9.0471
G01 X5.0132 Y9.0710
G01 X5.0247 Y9.0949
G01 X5.0345 Y9.1235
G01 X5.0411 Y9.1529
G01 X5.0442 Y9.1829
G01 X5.0446 Y9.5960
G01 X5.0442 Y9.6091
G01 X5.0411 Y9.6391
G01 X5.0345 Y9.6685
G01 X5.0247 Y9.6971
G01 X5.0132 Y9.7210
G01 X5.0247 Y9.7449
G01 X5.0345 Y9.7735
G01 X5.0411 Y9.8029
G01 X5.0442 Y9.8329
G01 X5.0446 Y10.2460
G01 X5.0442 Y10.2591
G01 X5.0411 Y10.2891
G01 X5.0345 Y10.3185
G01 X5.0247 Y10.3471
G01 X5.0132 Y10.3710
G01 X5.0247 Y10.3949
G01 X5.0345 Y10.4235
G01 X5.0411 Y10.4529
G01 X5.0442 Y10.4829
G01 X5.0446 Y10.8960
G01 X5.0442 Y10.9091
G01 X5.0414 Y10.9363
G01 X5.0689 Y10.9414
G01 X5.1250 Y10.9575
G01 X5.1653 Y10.9738
G01 X5.1922 Y10.9867
G01 X5.2300 Y11.0081
G01 X5.2776 Y11.0419
G01 X5.3103 Y11.0705
G01 X5.3315 Y11.0917
G01 X5.3601 Y11.1244
G01 X5.3939 Y11.1720
G01 X5.4153 Y11.2098
G01 X5.4282 Y11.2367
G01 X5.4445 Y11.2770
G01 X5.4606 Y11.3331
G01 X5.4683 Y11.3759
G01 X5.4717 Y11.4056
G01 X5.4737 Y11.4490
G01 X5.4737 Y13.8644
G01 X5.5330 Y13.8749
G01 X5.6296 Y13.9023
G01 X5.6578 Y13.9121
G01 X5.7504 Y13.9510
G01 X5.8514 Y14.0068
G01 X5.9336 Y14.0646
G01 X5.9570 Y14.0832
G01 X6.0316 Y14.1504
G01 X6.0988 Y14.2250
G01 X6.1174 Y14.2484
G01 X6.1752 Y14.3306
G01 X6.2310 Y14.4316
G01 X6.2699 Y14.5242
G01 X6.2797 Y14.5524
G01 X6.3071 Y14.6490
G01 X6.3265 Y14.7628
G01 X6.3329 Y14.8780
G01 X6.3265 Y14.9932
G01 X6.3071 Y15.1070
G01 X6.2752 Y15.2178
G01 X6.2310 Y15.3244
G01 X6.1752 Y15.4254
G01 X6.1085 Y15.5195
G01 X6.0316 Y15.6056
G01 X5.9570 Y15.6728
G01 X5.9336 Y15.6914
G01 X5.8514 Y15.7492
G01 X5.7504 Y15.8050
G01 X5.6578 Y15.8439
G01 X5.6296 Y15.8537
G01 X5.5330 Y15.8811
G01 X5.4192 Y15.9005
G01 X5.3040 Y15.9069
G01 X3.7800 Y15.9069
G01 X3.6648 Y15.9005
G01 X3.5510 Y15.8811
G01 X3.4402 Y15.8492
G01 X3.3336 Y15.8050
G01 X3.2454 Y15.7568
G01 X3.2201 Y15.7409
G01 X3.1504 Y15.6914
G01 X3.1270 Y15.6728
G01 X3.0524 Y15.6056
G01 X2.9852 Y15.5310
G01 X2.9666 Y15.5076
G01 X2.9088 Y15.4254
G01 X2.8530 Y15.3244
G01 X2.8088 Y15.2178
G01 X2.7806 Y15.1214
G01 X2.7739 Y15.0923
G01 X2.7575 Y14.9932
G01 X2.7515 Y14.8929
G01 X2.7515 Y14.8631
G01 X2.7575 Y14.7628
G01 X2.7739 Y14.6637
G01 X2.7806 Y14.6346
G01 X2.8043 Y14.5524
G01 X2.8141 Y14.5242
G01 X2.8530 Y14.4316
G01 X2.9012 Y14.3434
G01 X2.9171 Y14.3181
G01 X2.9755 Y14.2365
G01 X3.0422 Y14.1613
G01 X3.0633 Y14.1402
G01 X3.1385 Y14.0735
G01 X3.2201 Y14.0151
G01 X3.2454 Y13.9992
G01 X3.3203 Y13.9578
G01 X3.3472 Y13.9448
G01 X3.4402 Y13.9068
G01 X3.5510 Y13.8749
G01 X3.6648 Y13.8555
G01 X3.7725 Y13.8492
G01 X4.4323 Y13.8491
G01 X4.4323 Y11.8677
G01 X4.3981 Y11.8654
G01 X4.3833 Y11.8633
G01 X4.3518 Y11.8575
G01 X4.3373 Y11.8538
G01 X4.3066 Y11.8445
G01 X4.2926 Y11.8392
G01 X4.2632 Y11.8265
G01 X4.2370 Y11.8126
G01 X3.4280 Y11.8126
G01 X3.4149 Y11.8122
G01 X3.3849 Y11.8091
G01 X3.3555 Y11.8025
G01 X3.3269 Y11.7927
G01 X3.2997 Y11.7796
G01 X3.2741 Y11.7636
G01 X3.2505 Y11.7449
G01 X3.2291 Y11.7235
G01 X3.2104 Y11.6999
G01 X3.1944 Y11.6743
G01 X3.1813 Y11.6471
G01 X3.1715 Y11.6185
G01 X3.1649 Y11.5891
G01 X3.1618 Y11.5591
G01 X3.1614 Y11.5460
G01 X3.1618 Y11.1329
G01 X3.1649 Y11.1029
G01 X3.1715 Y11.0735
G01 X3.1813 Y11.0449
G01 X3.1928 Y11.0210
G01 X3.1813 Y10.9971
G01 X3.1715 Y10.9685
G01 X3.1649 Y10.9391
G01 X3.1618 Y10.9091
G01 X3.1614 Y10.4960
G01 X3.1618 Y10.4829
G01 X3.1649 Y10.4529
G01 X3.1715 Y10.4235
G01 X3.1813 Y10.3949
G01 X3.1928 Y10.3710
G01 X3.1813 Y10.3471
G01 X3.1715 Y10.3185
G01 X3.1649 Y10.2891
G01 X3.1618 Y10.2591
G01 X3.1614 Y9.8460
G01 X3.1618 Y9.8329
G01 X3.1649 Y9.8029
G01 X3.1715 Y9.7735
G01 X3.1813 Y9.7449
G01 X3.1928 Y9.7210
G01 X3.1813 Y9.6971
G01 X3.1715 Y9.6685
G01 X3.1649 Y9.6391
G01 X3.1618 Y9.6091
G01 X3.1614 Y9.2667
G01 X2.6446 Y9.2667
G01 X2.6446 Y9.7960
G01 X2.6442 Y9.8091
G01 X2.6411 Y9.8391
G01 X2.6345 Y9.8685
G01 X2.6247 Y9.8971
G01 X2.6116 Y9.9243
G01 X2.5956 Y9.9499
G01 X2.5769 Y9.9735
G01 X2.5555 Y9.9949
G01 X2.5319 Y10.0136
G01 X2.5063 Y10.0296
G01 X2.4791 Y10.0427
G01 X2.4694 Y10.0460
G01 X2.4791 Y10.0493
G01 X2.5063 Y10.0624
G01 X2.5319 Y10.0784
G01 X2.5555 Y10.0971
G01 X2.5769 Y10.1185
G01 X2.5956 Y10.1421
G01 X2.6116 Y10.1677
G01 X2.6247 Y10.1949
G01 X2.6345 Y10.2235
G01 X2.6411 Y10.2529
G01 X2.6442 Y10.2829
G01 X2.6446 Y12.1960
G01 X2.6442 Y12.2091
G01 X2.6411 Y12.2391
G01 X2.6345 Y12.2685
G01 X2.6247 Y12.2971
G01 X2.6116 Y12.3243
G01 X2.5956 Y12.3499
G01 X2.5769 Y12.3735
G01 X2.5555 Y12.3949
G01 X2.5319 Y12.4136
G01 X2.5063 Y12.4296
G01 X2.4791 Y12.4427
G01 X2.4505 Y12.4525
G01 X2.4211 Y12.4591
G01 X2.3911 Y12.4622
G01 X2.3780 Y12.4626
G01 X0.4649 Y12.4622
G01 X0.4349 Y12.4591
G01 X0.4055 Y12.4525
G01 X0.3769 Y12.4427
G01 X0.3497 Y12.4296
G01 X0.3241 Y12.4136
G01 X0.3005 Y12.3949
G01 X0.2791 Y12.3735
G01 X0.2604 Y12.3499
G01 X0.2444 Y12.3243
G01 X0.2313 Y12.2971
G01 X0.2215 Y12.2685
G01 X0.2149 Y12.2391
G01 X0.2118 Y12.2091
G01 X0.2118 Y10.2829
G01 X0.2149 Y10.2529
G01 X0.2215 Y10.2235
G01 X0.2313 Y10.1949
G01 X0.2444 Y10.1677
G01 X0.2604 Y10.1421
G01 X0.2791 Y10.1185
G01 X0.3005 Y10.0971
G01 X0.3241 Y10.0784
G01 X0.3497 Y10.0624
G01 X0.3769 Y10.0493
G01 X0.3866 Y10.0460
G00 Z2.5400
G00 X0.4684 Y10.1004
G01 F76.20
G01 Z-0.0508
G01 F76.20
G01 X2.3876 Y10.1004
G01 X2.4097 Y10.1027
G01 X2.4313 Y10.1076
G01 X2.4523 Y10.1148
G01 X2.4723 Y10.1243
G01 X2.4911 Y10.1361
G01 X2.5084 Y10.1499
G01 X2.5241 Y10.1656
G01 X2.5379 Y10.1829
G01 X2.5497 Y10.2017
G01 X2.5592 Y10.2217
G01 X2.5664 Y10.2427
G01 X2.5713 Y10.2643
G01 X2.5736 Y10.2864
G01 X2.5738 Y10.2960
G01 X2.5738 Y12.1960
G01 X2.5736 Y12.2056
G01 X2.5713 Y12.2277
G01 X2.5664 Y12.2493
G01 X2.5592 Y12.2703
G01 X2.5497 Y12.2903
G01 X2.5379 Y12.3091
G01 X2.5241 Y12.3264
G01 X2.5084 Y12.3421
G01 X2.4911 Y12.3559
G01 X2.4723 Y12.3677
G01 X2.4523 Y12.3772
G01 X2.4313 Y12.3844
G01 X2.4097 Y12.3893
G01 X2.3876 Y12.3916
G01 X2.3780 Y12.3918
G01 X0.4780 Y12.3918
G01 X0.4684 Y12.3916
G01 X0.4463 Y12.3893
G01 X0.4247 Y12.3844
G01 X0.4037 Y12.3772
G01 X0.3837 Y12.3677
G01 X0.3649 Y12.3559
G01 X0.3476 Y12.3421
G01 X0.3319 Y12.3264
G01 X0.3181 Y12.3091
G01 X0.3063 Y12.2903
G01 X0.2968 Y12.2703
G01 X0.2896 Y12.2493
G01 X0.2847 Y12.2277
G01 X0.2824 Y12.2056
G01 X0.2822 Y12.1960
G01 X0.2824 Y10.2864
G01 X0.2847 Y10.2643
G01 X0.2896 Y10.2427
G01 X0.2968 Y10.2217
G01 X0.3063 Y10.2017
G01 X0.3181 Y10.1829
G01 X0.3319 Y10.1656
G01 X0.3476 Y10.1499
G01 X0.3649 Y10.1361
G01 X0.3837 Y10.1243
G01 X0.4037 Y10.1148
G01 X0.4247 Y10.1076
G01 X0.4463 Y10.1027
G01 X0.4684 Y10.1004
G00 Z2.5400
G00 X0.4719 Y10.1710
G01 F76.20
G01 Z-0.0508
G01 F76.20
G01 X2.3780 Y10.1709
G01 X2.3982 Y10.1725
G01 X2.4121 Y10.1756
G01 X2.4254 Y10.1802
G01 X2.4382 Y10.1863
G01 X2.4502 Y10.1938
G01 X2.4613 Y10.2027
G01 X2.4713 Y10.2127
G01 X2.4802 Y10.2238
G01 X2.4877 Y10.2358
G01 X2.4938 Y10.2486
G01 X2.4984 Y10.2619
G01 X2.5015 Y10.2758
G01 X2.5031 Y10.2960
G01 X2.5031 Y12.1960
G01 X2.5015 Y12.2162
G01 X2.4984 Y12.2301
G01 X2.4938 Y12.2434
G01 X2.4877 Y12.2562
G01 X2.4802 Y12.2682
G01 X2.4713 Y12.2793
G01 X2.4613 Y12.2893
G01 X2.4502 Y12.2982
G01 X2.4382 Y12.3057
G01 X2.4254 Y12.3118
G01 X2.4121 Y12.3164
G01 X2.3982 Y12.3195
G01 X2.3780 Y12.3211
G01 X0.4780 Y12.3211
G01 X0.4578 Y12.3195
G01 X0.4439 Y12.3164
G01 X0.4306 Y12.3118
G01 X0.4178 Y12.3057
G01 X0.4058 Y12.2982
G01 X0.3947 Y12.2893
G01 X0.3847 Y12.2793
G01 X0.3758 Y12.2682
G01 X0.3683 Y12.2562
G01 X0.3622 Y12.2434
G01 X0.3576 Y12.2301
G01 X0.3545 Y12.2162
G01 X0.3529 Y12.1960
G01 X0.3530 Y10.2899
G01 X0.3545 Y10.2758
G01 X0.3576 Y10.2619
G01 X0.3622 Y10.2486
G01 X0.3683 Y10.2358
G01 X0.3758 Y10.2238
G01 X0.3847 Y10.2127
G01 X0.3947 Y10.2027
G01 X0.4058 Y10.1938
G01 X0.4178 Y10.1863
G01 X0.4306 Y10.1802
G01 X0.4439 Y10.1756
G01 X0.4578 Y10.1725
G01 X0.4719 Y10.1710
G00 Z2.5400
G00 X0.4753 Y10.2417
G01 F76.20
G01 Z-0.0508
G01 F76.20
G01 X2.3780 Y10.2416
G01 X2.3868 Y10.2423
G01 X2.3986 Y10.2457
G01 X2.4094 Y10.2516
G01 X2.4186 Y10.2598
G01 X2.4224 Y10.2646
G01 X2.4283 Y10.2754
G01 X2.4317 Y10.2872
G01 X2.4324 Y10.2960
G01 X2.4324 Y12.1960
G01 X2.4317 Y12.2048
G01 X2.4283 Y12.2166
G01 X2.4224 Y12.2274
G01 X2.4142 Y12.2366
G01 X2.4042 Y12.2437
G01 X2.3986 Y12.2463
G01 X2.3868 Y12.2497
G01 X2.3780 Y12.2504
G01 X0.4780 Y12.2504
G01 X0.4692 Y12.2497
G01 X0.4574 Y12.2463
G01 X0.4466 Y12.2404
G01 X0.4374 Y12.2322
G01 X0.4336 Y12.2274
G01 X0.4277 Y12.2166
G01 X0.4243 Y12.2048
G01 X0.4236 Y12.1960
G01 X0.4236 Y10.2960
G01 X0.4243 Y10.2872
G01 X0.4277 Y10.2754
G01 X0.4336 Y10.2646
G01 X0.4374 Y10.2598
G01 X0.4466 Y10.2516
G01 X0.4574 Y10.2457
G01 X0.4632 Y10.2437
G01 X0.4753 Y10.2417
G00 Z2.5400
G00 X0.2518 Y10.0460
G01 F76.20
G01 Z-0.0508
G01 F76.20
G01 X0.2264 Y10.0206
G01 X0.2026 Y9.9907
G01 X0.1824 Y9.9584
G01 X0.1659 Y9.9239
G01 X0.1535 Y9.8878
G01 X0.1452 Y9.8505
G01 X0.1411 Y9.8125
G01 X0.1407 Y7.8960
G01 X0.1411 Y7.8795
G01 X0.1452 Y7.8415
G01 X0.1535 Y7.8042
G01 X0.1659 Y7.7681
G01 X0.1824 Y7.7336
G01 X0.2026 Y7.7013
G01 X0.2264 Y7.6714
G01 X0.2534 Y7.6444
G01 X0.2833 Y7.6206
G01 X0.3156 Y7.6004
G01 X0.3501 Y7.5839
G01 X0.3862 Y7.5715
G01 X0.4235 Y7.5632
G01 X0.4615 Y7.5591
G01 X0.4780 Y7.5587
G01 X1.1866 Y7.5587
G01 X1.1866 Y7.2833
G01 X0.4780 Y7.2833
G01 X0.4614 Y7.2829
G01 X0.4235 Y7.2788
G01 X0.3862 Y7.2705
G01 X0.3501 Y7.2581
G01 X0.3156 Y7.2416
G01 X0.2833 Y7.2214
G01 X0.2534 Y7.1976
G01 X0.2264 Y7.1706
G01 X0.2026 Y7.1407
G01 X0.1824 Y7.1084
G01 X0.1659 Y7.0739
G01 X0.1535 Y7.0378
G01 X0.1452 Y7.0005
G01 X0.1411 Y6.9625
G01 X0.1407 Y6.9460
G01 X0.1411 Y5.1295
G01 X0.1452 Y5.0915
G01 X0.1535 Y5.0542
G01 X0.1659 Y5.0181
G01 X0.1824 Y4.9836
G01 X0.2026 Y4.9513
G01 X0.2264 Y4.9214
G01 X0.2534 Y4.8944
G01 X0.2833 Y4.8706
G01 X0.3156 Y4.8504
G01 X0.3501 Y4.8339
G01 X0.3862 Y4.8215
G01 X0.4235 Y4.8132
G01 X0.4614 Y4.8091
G01 X2.3780 Y4.8087
G01 X2.3946 Y4.8091
G01 X2.4325 Y4.8132
G01 X2.4698 Y4.8215
G01 X2.5059 Y4.8339
G01 X2.5404 Y4.8504
G01 X2.5727 Y4.8706
G01 X2.6026 Y4.8944
G01 X2.6296 Y4.9214
G01 X2.6534 Y4.9513
G01 X2.6736 Y4.9836
G01 X2.6901 Y5.0181
G01 X2.7025 Y5.0542
G01 X2.7108 Y5.0915
G01 X2.7149 Y5.1295
G01 X2.7153 Y5.4546
G01 X2.9651 Y5.4546
G01 X2.9203 Y5.4036
G01 X2.8594 Y5.3188
G01 X2.8489 Y5.3031
G01 X2.8393 Y5.2868
G01 X2.7979 Y5.2119
G01 X2.7892 Y5.1951
G01 X2.7815 Y5.1779
G01 X2.7420 Y5.0812
G01 X2.7126 Y4.9810
G01 X2.7079 Y4.9627
G01 X2.7042 Y4.9441
G01 X2.6873 Y4.8411
G01 X2.6857 Y4.8223
G01 X2.6803 Y4.7180
G01 X2.6857 Y4.6137
G01 X2.6873 Y4.5949
G01 X2.7042 Y4.4919
G01 X2.7079 Y4.4733
G01 X2.7126 Y4.4550
G01 X2.7420 Y4.3548
G01 X2.7815 Y4.2581
G01 X2.7892 Y4.2409
G01 X2.8393 Y4.1492
G01 X2.8489 Y4.1329
G01 X2.9089 Y4.0475
G01 X2.9203 Y4.0324
G01 X2.9894 Y3.9542
G01 X3.0024 Y3.9404
G01 X3.0799 Y3.8705
G01 X3.0944 Y3.8583
G01 X3.1792 Y3.7974
G01 X3.1949 Y3.7869
G01 X3.2112 Y3.7773
G01 X3.3029 Y3.7272
G01 X3.3991 Y3.6868
G01 X3.4168 Y3.6800
G01 X3.5170 Y3.6506
G01 X3.5353 Y3.6459
G01 X3.5539 Y3.6422
G01 X3.6569 Y3.6253
G01 X3.7611 Y3.6189
G01 X3.7800 Y3.6183
G01 X5.3040 Y3.6183
G01 X5.4083 Y3.6237
G01 X5.4271 Y3.6253
G01 X5.4459 Y3.6279
G01 X5.5301 Y3.6422
G01 X5.5487 Y3.6459
G01 X5.5670 Y3.6506
G01 X5.6672 Y3.6800
G01 X5.7639 Y3.7195
G01 X5.7811 Y3.7272
G01 X5.8728 Y3.7773
G01 X5.8891 Y3.7869
G01 X5.9745 Y3.8469
G01 X5.9896 Y3.8582
G01 X6.0041 Y3.8705
G01 X6.0816 Y3.9404
G01 X6.1515 Y4.0179
G01 X6.1637 Y4.0324
G01 X6.1751 Y4.0475
G01 X6.2351 Y4.1329
G01 X6.2861 Y4.2241
G01 X6.2948 Y4.2409
G01 X6.3352 Y4.3371
G01 X6.3420 Y4.3548
G01 X6.3477 Y4.3728
G01 X6.3714 Y4.4550
G01 X6.3761 Y4.4733
G01 X6.3798 Y4.4919
G01 X6.3967 Y4.5949
G01 X6.4031 Y4.6991
G01 X6.4037 Y4.7180
G01 X6.4031 Y4.7369
G01 X6.3967 Y4.8411
G01 X6.3941 Y4.8599
G01 X6.3761 Y4.9627
G01 X6.3714 Y4.9810
G01 X6.3420 Y5.0812
G01 X6.3025 Y5.1779
G01 X6.2948 Y5.1951
G01 X6.2861 Y5.2119
G01 X6.2351 Y5.3031
G01 X6.1751 Y5.3885
G01 X6.1637 Y5.4036
G01 X6.1515 Y5.4181
G01 X6.0946 Y5.4818
G01 X6.0816 Y5.4956
G01 X6.0678 Y5.5086
G01 X5.9896 Y5.5778
G01 X5.9048 Y5.6386
G01 X5.8891 Y5.6491
G01 X5.8728 Y5.6587
G01 X5.7811 Y5.7088
G01 X5.7639 Y5.7165
G01 X5.6672 Y5.7560
G01 X5.6492 Y5.7617
G01 X5.5487 Y5.7901
G01 X5.5301 Y5.7938
G01 X5.4271 Y5.8107
G01 X5.3135 Y5.8175
G01 X5.1104 Y5.8177
G01 X5.1053 Y6.0585
G01 X5.1044 Y6.0771
G01 X5.1003 Y6.1237
G01 X5.0973 Y6.1421
G01 X5.0881 Y6.1880
G01 X5.0749 Y6.2329
G01 X5.0689 Y6.2505
G01 X5.0620 Y6.2679
G01 X5.0429 Y6.3106
G01 X5.0341 Y6.3271
G01 X5.0104 Y6.3674
G01 X4.9999 Y6.3828
G01 X4.9719 Y6.4203
G01 X4.9597 Y6.4344
G01 X4.9278 Y6.4686
G01 X4.8929 Y6.4998
G01 X4.8785 Y6.5117
G01 X4.8405 Y6.5389
G01 X4.8249 Y6.5491
G01 X4.8087 Y6.5585
G01 X4.7674 Y6.5804
G01 X4.7243 Y6.5985
G01 X4.7068 Y6.6051
G01 X4.6620 Y6.6184
G01 X4.6439 Y6.6230
G01 X4.6255 Y6.6266
G01 X4.5793 Y6.6338
G01 X4.5233 Y6.6373
G01 X2.7153 Y6.6374
G01 X2.7149 Y6.9625
G01 X2.7108 Y7.0005
G01 X2.7025 Y7.0378
G01 X2.6901 Y7.0739
G01 X2.6736 Y7.1084
G01 X2.6534 Y7.1407
G01 X2.6296 Y7.1706
G01 X2.6026 Y7.1976
G01 X2.5727 Y7.2214
G01 X2.5404 Y7.2416
G01 X2.5059 Y7.2581
G01 X2.4698 Y7.2705
G01 X2.4325 Y7.2788
G01 X2.3946 Y7.2829
G01 X2.3694 Y7.2833
G01 X2.3694 Y7.5587
G01 X2.3945 Y7.5591
G01 X2.4325 Y7.5632
G01 X2.4698 Y7.5715
G01 X2.5059 Y7.5839
G01 X2.5404 Y7.6004
G01 X2.5727 Y7.6206
G01 X2.6026 Y7.6444
G01 X2.6296 Y7.6714
G01 X2.6534 Y7.7013
G01 X2.6736 Y7.7336
G01 X2.6901 Y7.7681
G01 X2.7025 Y7.8042
G01 X2.7108 Y7.8415
G01 X2.7149 Y7.8795
G01 X2.7153 Y8.1546
G01 X4.1125 Y8.1547
G01 X4.1692 Y8.1583
G01 X4.2160 Y8.1657
G01 X4.2346 Y8.1694
G01 X4.2803 Y8.1820
G01 X4.2983 Y8.1878
G01 X4.3497 Y8.2087
G01 X4.7780 Y8.2087
G01 X4.7946 Y8.2091
G01 X4.8325 Y8.2132
G01 X4.8698 Y8.2215
G01 X4.9059 Y8.2339
G01 X4.9404 Y8.2504
G01 X4.9727 Y8.2706
G01 X5.0026 Y8.2944
G01 X5.0296 Y8.3214
G01 X5.0534 Y8.3513
G01 X5.0736 Y8.3837
G01 X5.0901 Y8.4181
G01 X5.1025 Y8.4542
G01 X5.1108 Y8.4915
G01 X5.1149 Y8.5294
G01 X5.1153 Y8.5460
G01 X5.1149 Y8.9626
G01 X5.1108 Y9.0005
G01 X5.1025 Y9.0378
G01 X5.0911 Y9.0710
G01 X5.1025 Y9.1042
G01 X5.1108 Y9.1415
G01 X5.1149 Y9.1794
G01 X5.1153 Y9.1960
G01 X5.1149 Y9.6126
G01 X5.1108 Y9.6505
G01 X5.1025 Y9.6878
G01 X5.0911 Y9.7210
G01 X5.1025 Y9.7542
G01 X5.1108 Y9.7915
G01 X5.1149 Y9.8294
G01 X5.1153 Y10.2460
G01 X5.1149 Y10.2626
G01 X5.1108 Y10.3005
G01 X5.1025 Y10.3378
G01 X5.0911 Y10.3710
G01 X5.1025 Y10.4042
G01 X5.1108 Y10.4415
G01 X5.1149 Y10.4794
G01 X5.1153 Y10.8807
G01 X5.1483 Y10.8908
G01 X5.1923 Y10.9084
G01 X5.2096 Y10.9162
G01 X5.2264 Y10.9248
G01 X5.2676 Y10.9482
G01 X5.3066 Y10.9752
G01 X5.3217 Y10.9866
G01 X5.3362 Y10.9988
G01 X5.3712 Y11.0308
G01 X5.3842 Y11.0446
G01 X5.4154 Y11.0803
G01 X5.4432 Y11.1186
G01 X5.4538 Y11.1344
G01 X5.4634 Y11.1506
G01 X5.4858 Y11.1924
G01 X5.5045 Y11.2360
G01 X5.5112 Y11.2537
G01 X5.5170 Y11.2717
G01 X5.5296 Y11.3174
G01 X5.5380 Y11.3641
G01 X5.5407 Y11.3828
G01 X5.5423 Y11.4016
G01 X5.5444 Y11.4490
G01 X5.5444 Y13.8051
G01 X5.5670 Y13.8106
G01 X5.6492 Y13.8343
G01 X5.6672 Y13.8400
G01 X5.6849 Y13.8468
G01 X5.7811 Y13.8872
G01 X5.8728 Y13.9373
G01 X5.8891 Y13.9469
G01 X5.9048 Y13.9574
G01 X5.9896 Y14.0183
G01 X6.0678 Y14.0874
G01 X6.0816 Y14.1004
G01 X6.0946 Y14.1142
G01 X6.1637 Y14.1924
G01 X6.2246 Y14.2772
G01 X6.2351 Y14.2929
G01 X6.2447 Y14.3092
G01 X6.2948 Y14.4009
G01 X6.3352 Y14.4971
G01 X6.3420 Y14.5148
G01 X6.3477 Y14.5328
G01 X6.3761 Y14.6333
G01 X6.3941 Y14.7361
G01 X6.3967 Y14.7549
G01 X6.4031 Y14.8591
G01 X6.4037 Y14.8780
G01 X6.4031 Y14.8969
G01 X6.3967 Y15.0011
G01 X6.3941 Y15.0199
G01 X6.3761 Y15.1227
G01 X6.3714 Y15.1410
G01 X6.3420 Y15.2412
G01 X6.3025 Y15.3379
G01 X6.2948 Y15.3551
G01 X6.2447 Y15.4468
G01 X6.2351 Y15.4631
G01 X6.1751 Y15.5485
G01 X6.1637 Y15.5636
G01 X6.0946 Y15.6418
G01 X6.0816 Y15.6556
G01 X6.0041 Y15.7255
G01 X5.9896 Y15.7377
G01 X5.9745 Y15.7491
G01 X5.8891 Y15.8091
G01 X5.7979 Y15.8601
G01 X5.7811 Y15.8688
G01 X5.6849 Y15.9092
G01 X5.6672 Y15.9160
G01 X5.6492 Y15.9217
G01 X5.5487 Y15.9501
G01 X5.5301 Y15.9538
G01 X5.4271 Y15.9707
G01 X5.4083 Y15.9723
G01 X5.3040 Y15.9777
G01 X3.7800 Y15.9777
G01 X3.6757 Y15.9723
G01 X3.6569 Y15.9707
G01 X3.6381 Y15.9681
G01 X3.5539 Y15.9538
G01 X3.5353 Y15.9501
G01 X3.5170 Y15.9454
G01 X3.4168 Y15.9160
G01 X3.3201 Y15.8765
G01 X3.3029 Y15.8688
G01 X3.2112 Y15.8187
G01 X3.1949 Y15.8091
G01 X3.1792 Y15.7986
G01 X3.0944 Y15.7378
G01 X3.0162 Y15.6686
G01 X3.0024 Y15.6556
G01 X2.9894 Y15.6418
G01 X2.9325 Y15.5781
G01 X2.9203 Y15.5636
G01 X2.9089 Y15.5485
G01 X2.8489 Y15.4631
G01 X2.7979 Y15.3719
G01 X2.7892 Y15.3551
G01 X2.7815 Y15.3379
G01 X2.7420 Y15.2412
G01 X2.7126 Y15.1410
G01 X2.7079 Y15.1227
G01 X2.6961 Y15.0564
G01 X2.6901 Y15.0739
G01 X2.6736 Y15.1084
G01 X2.6534 Y15.1407
G01 X2.6296 Y15.1706
G01 X2.6026 Y15.1976
G01 X2.5727 Y15.2214
G01 X2.5404 Y15.2416
G01 X2.5059 Y15.2581
G01 X2.4698 Y15.2705
G01 X2.4325 Y15.2788
G01 X2.3945 Y15.2829
G01 X0.4615 Y15.2829
G01 X0.4235 Y15.2788
G01 X0.3862 Y15.2705
G01 X0.3501 Y15.2581
G01 X0.3156 Y15.2416
G01 X0.2833 Y15.2214
G01 X0.2534 Y15.1976
G01 X0.2264 Y15.1706
G01 X0.2026 Y15.1407
G01 X0.1824 Y15.1084
G01 X0.1659 Y15.0739
G01 X0.1535 Y15.0378
G01 X0.1452 Y15.0005
G01 X0.1411 Y14.9625
G01 X0.1407 Y13.1460
G01 X0.1411 Y13.1295
G01 X0.1452 Y13.0915
G01 X0.1535 Y13.0542
G01 X0.1659 Y13.0181
G01 X0.1824 Y12.9836
G01 X0.2026 Y12.9513
G01 X0.2264 Y12.9214
G01 X0.2534 Y12.8944
G01 X0.2833 Y12.8706
G01 X0.3156 Y12.8504
G01 X0.3501 Y12.8339
G01 X0.3862 Y12.8215
G01 X0.4235 Y12.8132
G01 X0.4615 Y12.8091
G01 X2.3780 Y12.8087
G01 X2.3945 Y12.8091
G01 X2.4325 Y12.8132
G01 X2.4698 Y12.8215
G01 X2.5059 Y12.8339
G01 X2.5404 Y12.8504
G01 X2.5727 Y12.8706
G01 X2.6026 Y12.8944
G01 X2.6296 Y12.9214
G01 X2.6534 Y12.9513
G01 X2.6736 Y12.9836
G01 X2.6901 Y13.0181
G01 X2.7025 Y13.0542
G01 X2.7108 Y13.0915
G01 X2.7149 Y13.1295
G01 X2.7153 Y14.6058
G01 X2.7420 Y14.5148
G01 X2.7815 Y14.4181
G01 X2.7892 Y14.4009
G01 X2.8393 Y14.3092
G01 X2.8489 Y14.2929
G01 X2.8594 Y14.2772
G01 X2.9203 Y14.1924
G01 X2.9325 Y14.1779
G01 X3.0024 Y14.1004
G01 X3.0799 Y14.0305
G01 X3.0944 Y14.0182
G01 X3.1792 Y13.9574
G01 X3.1949 Y13.9469
G01 X3.2861 Y13.8959
G01 X3.3029 Y13.8872
G01 X3.3991 Y13.8468
G01 X3.4168 Y13.8400
G01 X3.4348 Y13.8343
G01 X3.5353 Y13.8059
G01 X3.6381 Y13.7879
G01 X3.6569 Y13.7853
G01 X3.6757 Y13.7837
G01 X3.7800 Y13.7783
G01 X4.3616 Y13.7783
G01 X4.3616 Y11.9314
G01 X4.3360 Y11.9265
G01 X4.3013 Y11.9170
G01 X4.2832 Y11.9113
G01 X4.2498 Y11.8980
G01 X4.2190 Y11.8833
G01 X3.4280 Y11.8833
G01 X3.4115 Y11.8829
G01 X3.3735 Y11.8788
G01 X3.3362 Y11.8705
G01 X3.3001 Y11.8581
G01 X3.2656 Y11.8416
G01 X3.2333 Y11.8214
G01 X3.2034 Y11.7976
G01 X3.1764 Y11.7706
G01 X3.1526 Y11.7407
G01 X3.1324 Y11.7084
G01 X3.1159 Y11.6739
G01 X3.1035 Y11.6378
G01 X3.0952 Y11.6005
G01 X3.0911 Y11.5625
G01 X3.0911 Y11.1295
G01 X3.0952 Y11.0915
G01 X3.1035 Y11.0542
G01 X3.1149 Y11.0210
G01 X3.1035 Y10.9878
G01 X3.0952 Y10.9505
G01 X3.0911 Y10.9125
G01 X3.0907 Y10.4960
G01 X3.0911 Y10.4795
G01 X3.0952 Y10.4415
G01 X3.1035 Y10.4042
G01 X3.1149 Y10.3710
G01 X3.1035 Y10.3378
G01 X3.0952 Y10.3005
G01 X3.0911 Y10.2625
G01 X3.0907 Y9.8460
G01 X3.0911 Y9.8295
G01 X3.0952 Y9.7915
G01 X3.1035 Y9.7542
G01 X3.1149 Y9.7210
G01 X3.1035 Y9.6878
G01 X3.0952 Y9.6505
G01 X3.0911 Y9.6125
G01 X3.0907 Y9.3374
G01 X2.7153 Y9.3374
G01 X2.7153 Y9.7960
G01 X2.7149 Y9.8125
G01 X2.7108 Y9.8505
G01 X2.7025 Y9.8878
G01 X2.6901 Y9.9239
G01 X2.6736 Y9.9584
G01 X2.6534 Y9.9907
G01 X2.6296 Y10.0206
G01 X2.6042 Y10.0460
G01 X2.6296 Y10.0714
G01 X2.6534 Y10.1013
G01 X2.6736 Y10.1336
G01 X2.6901 Y10.1681
G01 X2.7025 Y10.2042
G01 X2.7108 Y10.2415
G01 X2.7149 Y10.2795
G01 X2.7153 Y10.2960
G01 X2.7149 Y12.2125
G01 X2.7108 Y12.2505
G01 X2.7025 Y12.2878
G01 X2.6901 Y12.3239
G01 X2.6736 Y12.3584
G01 X2.6534 Y12.3907
G01 X2.6296 Y12.4206
G01 X2.6026 Y12.4476
G01 X2.5727 Y12.4714
G01 X2.5404 Y12.4916
G01 X2.5059 Y12.5081
G01 X2.4698 Y12.5205
G01 X2.4325 Y12.5288
G01 X2.3945 Y12.5329
G01 X0.4780 Y12.5333
G01 X0.4615 Y12.5329
G01 X0.4235 Y12.5288
G01 X0.3862 Y12.5205
G01 X0.3501 Y12.5081
G01 X0.3156 Y12.4916
G01 X0.2833 Y12.4714
G01 X0.2534 Y12.4476
G01 X0.2264 Y12.4206
G01 X0.2026 Y12.3907
G01 X0.1824 Y12.3584
G01 X0.1659 Y12.3239
G01 X0.1535 Y12.2878
G01 X0.1452 Y12.2505
G01 X0.1411 Y12.2125
G01 X0.1411 Y10.2795
G01 X0.1452 Y10.2415
G01 X0.1535 Y10.2042
G01 X0.1659 Y10.1681
G01 X0.1824 Y10.1336
G01 X0.2026 Y10.1013
G01 X0.2264 Y10.0714
G01 X0.2518 Y10.0460
G00 Z2.5400
G00 X0.1564 Y10.0460
G01 F76.20
G01 Z-0.0508
G01 F76.20
G01 X0.1449 Y10.0316
G01 X0.1204 Y9.9924
G01 X0.1005 Y9.9507
G01 X0.0854 Y9.9070
G01 X0.0754 Y9.8620
G01 X0.0705 Y9.8160
G01 X0.0700 Y9.7960
G01 X0.0700 Y7.8960
G01 X0.0705 Y7.8760
G01 X0.0754 Y7.8300
G01 X0.0854 Y7.7850
G01 X0.1005 Y7.7413
G01 X0.1204 Y7.6996
G01 X0.1449 Y7.6604
G01 X0.1736 Y7.6243
G01 X0.2063 Y7.5916
G01 X0.2424 Y7.5629
G01 X0.2816 Y7.5384
G01 X0.3233 Y7.5185
G01 X0.3670 Y7.5034
G01 X0.4120 Y7.4934
G01 X0.4580 Y7.4885
G01 X0.4780 Y7.4880
G01 X1.1159 Y7.4880
G01 X1.1159 Y7.3540
G01 X0.4580 Y7.3535
G01 X0.4120 Y7.3486
G01 X0.3670 Y7.3386
G01 X0.3233 Y7.3235
G01 X0.2816 Y7.3036
G01 X0.2424 Y7.2791
G01 X0.2063 Y7.2504
G01 X0.1736 Y7.2177
G01 X0.1449 Y7.1816
G01 X0.1204 Y7.1424
G01 X0.1005 Y7.1007
G01 X0.0854 Y7.0570
G01 X0.0754 Y7.0120
G01 X0.0705 Y6.9660
G01 X0.0700 Y6.9460
G01 X0.0705 Y5.1260
G01 X0.0754 Y5.0800
G01 X0.0854 Y5.0350
G01 X0.1005 Y4.9913
G01 X0.1204 Y4.9496
G01 X0.1449 Y4.9104
G01 X0.1736 Y4.8743
G01 X0.2063 Y4.8416
G01 X0.2424 Y4.8129
G01 X0.2816 Y4.7884
G01 X0.3233 Y4.7685
G01 X0.3670 Y4.7534
G01 X0.4120 Y4.7434
G01 X0.4580 Y4.7385
G01 X2.3980 Y4.7385
G01 X2.4440 Y4.7434
G01 X2.4890 Y4.7534
G01 X2.5327 Y4.7685
G01 X2.5744 Y4.7884
G01 X2.6143 Y4.8135
G01 X2.6096 Y4.7180
G01 X2.6103 Y4.6951
G01 X2.6151 Y4.6098
G01 X2.6170 Y4.5870
G01 X2.6202 Y4.5643
G01 X2.6345 Y4.4800
G01 X2.6390 Y4.4576
G01 X2.6447 Y4.4354
G01 X2.6683 Y4.3533
G01 X2.6753 Y4.3314
G01 X2.6835 Y4.3101
G01 X2.7162 Y4.2311
G01 X2.7255 Y4.2102
G01 X2.7360 Y4.1899
G01 X2.7774 Y4.1150
G01 X2.7890 Y4.0953
G01 X2.8017 Y4.0763
G01 X2.8512 Y4.0066
G01 X2.8650 Y3.9883
G01 X2.8797 Y3.9708
G01 X2.9367 Y3.9070
G01 X2.9524 Y3.8904
G01 X2.9690 Y3.8747
G01 X3.0328 Y3.8177
G01 X3.0503 Y3.8030
G01 X3.0686 Y3.7892
G01 X3.1383 Y3.7397
G01 X3.1573 Y3.7270
G01 X3.1770 Y3.7154
G01 X3.2519 Y3.6740
G01 X3.2722 Y3.6635
G01 X3.2931 Y3.6542
G01 X3.3721 Y3.6215
G01 X3.3934 Y3.6133
G01 X3.4153 Y3.6063
G01 X3.4974 Y3.5827
G01 X3.5196 Y3.5770
G01 X3.5420 Y3.5725
G01 X3.6263 Y3.5582
G01 X3.6490 Y3.5550
G01 X3.6718 Y3.5531
G01 X3.7571 Y3.5483
G01 X3.7800 Y3.5476
G01 X5.3040 Y3.5476
G01 X5.3269 Y3.5483
G01 X5.4122 Y3.5531
G01 X5.4350 Y3.5550
G01 X5.4577 Y3.5582
G01 X5.5420 Y3.5725
G01 X5.5644 Y3.5770
G01 X5.5866 Y3.5827
G01 X5.6687 Y3.6063
G01 X5.6906 Y3.6133
G01 X5.7119 Y3.6215
G01 X5.7909 Y3.6542
G01 X5.8118 Y3.6635
G01 X5.8321 Y3.6740
G01 X5.9070 Y3.7154
G01 X5.9267 Y3.7270
G01 X5.9457 Y3.7397
G01 X6.0154 Y3.7892
G01 X6.0337 Y3.8030
G01 X6.0512 Y3.8177
G01 X6.1150 Y3.8747
G01 X6.1316 Y3.8904
G01 X6.1473 Y3.9070
G01 X6.2043 Y3.9708
G01 X6.2190 Y3.9883
G01 X6.2328 Y4.0066
G01 X6.2823 Y4.0763
G01 X6.2950 Y4.0953
G01 X6.3066 Y4.1150
G01 X6.3480 Y4.1899
G01 X6.3585 Y4.2102
G01 X6.3678 Y4.2311
G01 X6.4005 Y4.3101
G01 X6.4087 Y4.3314
G01 X6.4157 Y4.3533
G01 X6.4393 Y4.4354
G01 X6.4450 Y4.4576
G01 X6.4495 Y4.4800
G01 X6.4638 Y4.5643
G01 X6.4670 Y4.5870
G01 X6.4689 Y4.6098
G01 X6.4737 Y4.6951
G01 X6.4744 Y4.7180
G01 X6.4737 Y4.7409
G01 X6.4689 Y4.8262
G01 X6.4670 Y4.8490
G01 X6.4638 Y4.8717
G01 X6.4495 Y4.9560
G01 X6.4450 Y4.9784
G01 X6.4393 Y5.0006
G01 X6.4157 Y5.0827
G01 X6.4087 Y5.1046
G01 X6.4005 Y5.1259
G01 X6.3678 Y5.2049
G01 X6.3585 Y5.2258
G01 X6.3480 Y5.2461
G01 X6.3066 Y5.3210
G01 X6.2950 Y5.3407
G01 X6.2823 Y5.3597
G01 X6.2328 Y5.4294
G01 X6.2190 Y5.4477
G01 X6.2043 Y5.4652
G01 X6.1473 Y5.5290
G01 X6.1316 Y5.5456
G01 X6.1150 Y5.5613
G01 X6.0512 Y5.6183
G01 X6.0337 Y5.6330
G01 X6.0154 Y5.6468
G01 X5.9457 Y5.6963
G01 X5.9267 Y5.7090
G01 X5.9070 Y5.7206
G01 X5.8321 Y5.7620
G01 X5.8118 Y5.7725
G01 X5.7909 Y5.7818
G01 X5.7119 Y5.8145
G01 X5.6906 Y5.8227
G01 X5.6687 Y5.8297
G01 X5.5866 Y5.8533
G01 X5.5644 Y5.8590
G01 X5.5420 Y5.8635
G01 X5.4577 Y5.8778
G01 X5.4350 Y5.8810
G01 X5.4122 Y5.8829
G01 X5.3154 Y5.8882
G01 X5.1796 Y5.8884
G01 X5.1756 Y6.0712
G01 X5.1704 Y6.1330
G01 X5.1616 Y6.1829
G01 X5.1568 Y6.2050
G01 X5.1507 Y6.2267
G01 X5.1353 Y6.2750
G01 X5.1157 Y6.3218
G01 X5.1062 Y6.3422
G01 X5.0816 Y6.3866
G01 X5.0698 Y6.4058
G01 X5.0570 Y6.4244
G01 X5.0267 Y6.4650
G01 X5.0119 Y6.4821
G01 X4.9772 Y6.5191
G01 X4.9395 Y6.5530
G01 X4.9221 Y6.5674
G01 X4.8809 Y6.5969
G01 X4.8620 Y6.6093
G01 X4.8178 Y6.6340
G01 X4.7977 Y6.6443
G01 X4.7770 Y6.6534
G01 X4.7299 Y6.6720
G01 X4.6813 Y6.6864
G01 X4.6594 Y6.6920
G01 X4.6372 Y6.6963
G01 X4.5871 Y6.7041
G01 X4.5253 Y6.7080
G01 X2.7860 Y6.7081
G01 X2.7860 Y6.9460
G01 X2.7855 Y6.9660
G01 X2.7806 Y7.0120
G01 X2.7706 Y7.0570
G01 X2.7555 Y7.1007
G01 X2.7356 Y7.1424
G01 X2.7111 Y7.1816
G01 X2.6824 Y7.2177
G01 X2.6497 Y7.2504
G01 X2.6136 Y7.2791
G01 X2.5744 Y7.3036
G01 X2.5327 Y7.3235
G01 X2.4890 Y7.3386
G01 X2.4401 Y7.3490
G01 X2.4401 Y7.4930
G01 X2.4890 Y7.5034
G01 X2.5327 Y7.5185
G01 X2.5744 Y7.5384
G01 X2.6136 Y7.5629
G01 X2.6497 Y7.5916
G01 X2.6824 Y7.6243
G01 X2.7111 Y7.6604
G01 X2.7356 Y7.6996
G01 X2.7555 Y7.7413
G01 X2.7706 Y7.7850
G01 X2.7806 Y7.8300
G01 X2.7855 Y7.8760
G01 X2.7860 Y8.0839
G01 X4.1144 Y8.0840
G01 X4.1771 Y8.0880
G01 X4.2279 Y8.0960
G01 X4.2503 Y8.1005
G01 X4.2999 Y8.1141
G01 X4.3217 Y8.1210
G01 X4.3643 Y8.1380
G01 X4.7780 Y8.1380
G01 X4.7980 Y8.1385
G01 X4.8440 Y8.1434
G01 X4.8891 Y8.1534
G01 X4.9327 Y8.1685
G01 X4.9744 Y8.1884
G01 X5.0136 Y8.2129
G01 X5.0497 Y8.2416
G01 X5.0824 Y8.2743
G01 X5.1111 Y8.3104
G01 X5.1356 Y8.3496
G01 X5.1555 Y8.3913
G01 X5.1706 Y8.4350
G01 X5.1806 Y8.4800
G01 X5.1855 Y8.5260
G01 X5.1860 Y8.5460
G01 X5.1855 Y8.9660
G01 X5.1806 Y9.0120
G01 X5.1706 Y9.0570
G01 X5.1658 Y9.0710
G01 X5.1706 Y9.0850
G01 X5.1806 Y9.1300
G01 X5.1855 Y9.1760
G01 X5.1860 Y9.1960
G01 X5.1855 Y9.6160
G01 X5.1806 Y9.6620
G01 X5.1706 Y9.7070
G01 X5.1658 Y9.7210
G01 X5.1706 Y9.7350
G01 X5.1806 Y9.7800
G01 X5.1855 Y9.8260
G01 X5.1860 Y10.2460
G01 X5.1855 Y10.2660
G01 X5.1806 Y10.3120
G01 X5.1706 Y10.3570
G01 X5.1658 Y10.3710
G01 X5.1706 Y10.3850
G01 X5.1806 Y10.4300
G01 X5.1855 Y10.4760
G01 X5.1860 Y10.8295
G01 X5.2403 Y10.8524
G01 X5.2606 Y10.8629
G01 X5.3053 Y10.8884
G01 X5.3475 Y10.9176
G01 X5.3658 Y10.9313
G01 X5.3833 Y10.9461
G01 X5.4212 Y10.9808
G01 X5.4369 Y10.9974
G01 X5.4707 Y11.0362
G01 X5.4844 Y11.0545
G01 X5.5136 Y11.0967
G01 X5.5391 Y11.1414
G01 X5.5496 Y11.1617
G01 X5.5589 Y11.1826
G01 X5.5780 Y11.2303
G01 X5.5928 Y11.2795
G01 X5.5985 Y11.3017
G01 X5.6030 Y11.3241
G01 X5.6110 Y11.3749
G01 X5.6145 Y11.4261
G01 X5.6151 Y11.4490
G01 X5.6151 Y13.7509
G01 X5.6906 Y13.7733
G01 X5.7119 Y13.7815
G01 X5.7909 Y13.8142
G01 X5.8118 Y13.8235
G01 X5.8321 Y13.8340
G01 X5.9070 Y13.8754
G01 X5.9267 Y13.8870
G01 X5.9457 Y13.8997
G01 X6.0154 Y13.9492
G01 X6.0337 Y13.9630
G01 X6.0512 Y13.9777
G01 X6.1150 Y14.0347
G01 X6.1316 Y14.0504
G01 X6.1473 Y14.0670
G01 X6.2043 Y14.1308
G01 X6.2190 Y14.1483
G01 X6.2328 Y14.1666
G01 X6.2823 Y14.2363
G01 X6.2950 Y14.2553
G01 X6.3066 Y14.2750
G01 X6.3480 Y14.3499
G01 X6.3585 Y14.3702
G01 X6.3678 Y14.3911
G01 X6.4005 Y14.4701
G01 X6.4087 Y14.4914
G01 X6.4157 Y14.5133
G01 X6.4393 Y14.5954
G01 X6.4450 Y14.6176
G01 X6.4495 Y14.6400
G01 X6.4638 Y14.7243
G01 X6.4670 Y14.7470
G01 X6.4689 Y14.7698
G01 X6.4737 Y14.8551
G01 X6.4744 Y14.8780
G01 X6.4737 Y14.9009
G01 X6.4689 Y14.9862
G01 X6.4670 Y15.0090
G01 X6.4638 Y15.0317
G01 X6.4495 Y15.1160
G01 X6.4450 Y15.1384
G01 X6.4393 Y15.1606
G01 X6.4157 Y15.2427
G01 X6.4087 Y15.2646
G01 X6.4005 Y15.2859
G01 X6.3678 Y15.3649
G01 X6.3585 Y15.3858
G01 X6.3480 Y15.4061
G01 X6.3066 Y15.4810
G01 X6.2950 Y15.5007
G01 X6.2823 Y15.5197
G01 X6.2328 Y15.5894
G01 X6.2190 Y15.6077
G01 X6.2043 Y15.6252
G01 X6.1473 Y15.6890
G01 X6.1316 Y15.7056
G01 X6.1150 Y15.7213
G01 X6.0512 Y15.7783
G01 X6.0337 Y15.7930
G01 X6.0154 Y15.8068
G01 X5.9457 Y15.8563
G01 X5.9267 Y15.8690
G01 X5.9070 Y15.8806
G01 X5.8321 Y15.9220
G01 X5.8118 Y15.9325
G01 X5.7909 Y15.9418
G01 X5.7119 Y15.9745
G01 X5.6906 Y15.9827
G01 X5.6687 Y15.9897
G01 X5.5866 Y16.0133
G01 X5.5644 Y16.0190
G01 X5.5420 Y16.0235
G01 X5.4577 Y16.0378
G01 X5.4350 Y16.0410
G01 X5.4122 Y16.0429
G01 X5.3269 Y16.0477
G01 X5.3040 Y16.0484
G01 X3.7800 Y16.0484
G01 X3.7571 Y16.0477
G01 X3.6718 Y16.0429
G01 X3.6490 Y16.0410
G01 X3.6263 Y16.0378
G01 X3.5420 Y16.0235
G01 X3.5196 Y16.0190
G01 X3.4974 Y16.0133
G01 X3.4153 Y15.9897
G01 X3.3934 Y15.9827
G01 X3.3721 Y15.9745
G01 X3.2931 Y15.9418
G01 X3.2722 Y15.9325
G01 X3.2519 Y15.9220
G01 X3.1770 Y15.8806
G01 X3.1573 Y15.8690
G01 X3.1383 Y15.8563
G01 X3.0686 Y15.8068
G01 X3.0503 Y15.7930
G01 X3.0328 Y15.7783
G01 X2.9690 Y15.7213
G01 X2.9524 Y15.7056
G01 X2.9367 Y15.6890
G01 X2.8797 Y15.6252
G01 X2.8650 Y15.6077
G01 X2.8512 Y15.5894
G01 X2.8017 Y15.5197
G01 X2.7890 Y15.5007
G01 X2.7774 Y15.4810
G01 X2.7360 Y15.4061
G01 X2.7255 Y15.3858
G01 X2.7162 Y15.3649
G01 X2.6835 Y15.2859
G01 X2.6753 Y15.2646
G01 X2.6659 Y15.2342
G01 X2.6497 Y15.2504
G01 X2.6136 Y15.2791
G01 X2.5744 Y15.3036
G01 X2.5327 Y15.3235
G01 X2.4890 Y15.3386
G01 X2.4440 Y15.3486
G01 X2.3980 Y15.3535
G01 X2.3780 Y15.3540
G01 X0.4580 Y15.3535
G01 X0.4120 Y15.3486
G01 X0.3670 Y15.3386
G01 X0.3233 Y15.3235
G01 X0.2816 Y15.3036
G01 X0.2424 Y15.2791
G01 X0.2063 Y15.2504
G01 X0.1736 Y15.2177
G01 X0.1449 Y15.1816
G01 X0.1204 Y15.1424
G01 X0.1005 Y15.1007
G01 X0.0854 Y15.0570
G01 X0.0754 Y15.0120
G01 X0.0705 Y14.9660
G01 X0.0700 Y14.9460
G01 X0.0705 Y13.1260
G01 X0.0754 Y13.0800
G01 X0.0854 Y13.0350
G01 X0.1005 Y12.9913
G01 X0.1204 Y12.9496
G01 X0.1449 Y12.9104
G01 X0.1736 Y12.8743
G01 X0.2063 Y12.8416
G01 X0.2424 Y12.8129
G01 X0.2816 Y12.7884
G01 X0.3233 Y12.7685
G01 X0.3670 Y12.7534
G01 X0.4120 Y12.7434
G01 X0.4580 Y12.7385
G01 X0.4780 Y12.7380
G01 X2.3780 Y12.7380
G01 X2.3980 Y12.7385
G01 X2.4440 Y12.7434
G01 X2.4890 Y12.7534
G01 X2.5327 Y12.7685
G01 X2.5744 Y12.7884
G01 X2.6136 Y12.8129
G01 X2.6497 Y12.8416
G01 X2.6824 Y12.8743
G01 X2.7111 Y12.9104
G01 X2.7356 Y12.9496
G01 X2.7555 Y12.9913
G01 X2.7706 Y13.0350
G01 X2.7806 Y13.0800
G01 X2.7855 Y13.1260
G01 X2.7860 Y13.1460
G01 X2.7860 Y14.2604
G01 X2.8017 Y14.2363
G01 X2.8512 Y14.1666
G01 X2.8650 Y14.1483
G01 X2.8797 Y14.1308
G01 X2.9367 Y14.0670
G01 X2.9524 Y14.0504
G01 X2.9690 Y14.0347
G01 X3.0328 Y13.9777
G01 X3.0503 Y13.9630
G01 X3.0686 Y13.9492
G01 X3.1383 Y13.8997
G01 X3.1573 Y13.8870
G01 X3.1770 Y13.8754
G01 X3.2519 Y13.8340
G01 X3.2722 Y13.8235
G01 X3.2931 Y13.8142
G01 X3.3721 Y13.7815
G01 X3.3934 Y13.7733
G01 X3.4153 Y13.7663
G01 X3.4974 Y13.7427
G01 X3.5196 Y13.7370
G01 X3.5420 Y13.7325
G01 X3.6263 Y13.7182
G01 X3.6490 Y13.7150
G01 X3.6718 Y13.7131
G01 X3.7571 Y13.7083
G01 X3.7800 Y13.7076
G01 X4.2909 Y13.7076
G01 X4.2909 Y11.9876
G01 X4.2599 Y11.9780
G01 X4.2385 Y11.9699
G01 X4.2019 Y11.9540
G01 X3.4280 Y11.9540
G01 X3.4080 Y11.9535
G01 X3.3620 Y11.9486
G01 X3.3170 Y11.9386
G01 X3.2733 Y11.9235
G01 X3.2316 Y11.9036
G01 X3.1924 Y11.8791
G01 X3.1563 Y11.8504
G01 X3.1236 Y11.8177
G01 X3.0949 Y11.7816
G01 X3.0704 Y11.7424
G01 X3.0505 Y11.7007
G01 X3.0354 Y11.6570
G01 X3.0254 Y11.6120
G01 X3.0205 Y11.5660
G01 X3.0200 Y11.5460
G01 X3.0205 Y11.1260
G01 X3.0254 Y11.0800
G01 X3.0354 Y11.0350
G01 X3.0402 Y11.0210
G01 X3.0354 Y11.0070
G01 X3.0254 Y10.9620
G01 X3.0205 Y10.9160
G01 X3.0200 Y10.4960
G01 X3.0205 Y10.4760
G01 X3.0254 Y10.4300
G01 X3.0354 Y10.3850
G01 X3.0402 Y10.3710
G01 X3.0354 Y10.3570
G01 X3.0254 Y10.3120
G01 X3.0205 Y10.2660
G01 X3.0200 Y10.2460
G01 X3.0205 Y9.8260
G01 X3.0254 Y9.7800
G01 X3.0354 Y9.7350
G01 X3.0402 Y9.7210
G01 X3.0354 Y9.7070
G01 X3.0254 Y9.6620
G01 X3.0205 Y9.6160
G01 X3.0200 Y9.4081
G01 X2.7860 Y9.4081
G01 X2.7860 Y9.7960
G01 X2.7855 Y9.8160
G01 X2.7806 Y9.8620
G01 X2.7706 Y9.9070
G01 X2.7555 Y9.9507
G01 X2.7356 Y9.9924
G01 X2.7111 Y10.0316
G01 X2.6996 Y10.0460
G01 X2.7111 Y10.0604
G01 X2.7356 Y10.0996
G01 X2.7555 Y10.1413
G01 X2.7706 Y10.1850
G01 X2.7806 Y10.2300
G01 X2.7855 Y10.2760
G01 X2.7860 Y10.2960
G01 X2.7855 Y12.2160
G01 X2.7806 Y12.2620
G01 X2.7706 Y12.3070
G01 X2.7555 Y12.3507
G01 X2.7356 Y12.3924
G01 X2.7111 Y12.4316
G01 X2.6824 Y12.4677
G01 X2.6497 Y12.5004
G01 X2.6136 Y12.5291
G01 X2.5744 Y12.5536
G01 X2.5327 Y12.5735
G01 X2.4890 Y12.5886
G01 X2.4440 Y12.5986
G01 X2.3980 Y12.6035
G01 X0.4780 Y12.6040
G01 X0.4580 Y12.6035
G01 X0.4120 Y12.5986
G01 X0.3670 Y12.5886
G01 X0.3233 Y12.5735
G01 X0.2816 Y12.5536
G01 X0.2424 Y12.5291
G01 X0.2063 Y12.5004
G01 X0.1736 Y12.4677
G01 X0.1449 Y12.4316
G01 X0.1204 Y12.3924
G01 X0.1005 Y12.3507
G01 X0.0854 Y12.3070
G01 X0.0754 Y12.2620
G01 X0.0705 Y12.2160
G01 X0.0705 Y10.2760
G01 X0.0754 Y10.2300
G01 X0.0854 Y10.1850
G01 X0.1005 Y10.1413
G01 X0.1204 Y10.0996
G01 X0.1449 Y10.0604
G01 X0.1564 Y10.0460
G00 Z2.5400
G00 X0.0706 Y10.0460
G01 F76.20
G01 Z-0.0508
G01 F76.20
G01 X0.0584 Y10.0264
G01 X0.0350 Y9.9775
G01 X0.0174 Y9.9263
G01 X0.0056 Y9.8734
G01 X-0.0001 Y9.8195
G01 X-0.0007 Y9.7960
G01 X-0.0007 Y7.8960
G01 X-0.0001 Y7.8725
G01 X0.0056 Y7.8186
G01 X0.0174 Y7.7657
G01 X0.0350 Y7.7145
G01 X0.0584 Y7.6656
G01 X0.0871 Y7.6196
G01 X0.1209 Y7.5772
G01 X0.1592 Y7.5389
G01 X0.2016 Y7.5051
G01 X0.2476 Y7.4764
G01 X0.2965 Y7.4530
G01 X0.3477 Y7.4354
G01 X0.4006 Y7.4236
G01 X0.4249 Y7.4210
G01 X0.4006 Y7.4184
G01 X0.3477 Y7.4066
G01 X0.2965 Y7.3890
G01 X0.2476 Y7.3656
G01 X0.2016 Y7.3369
G01 X0.1592 Y7.3031
G01 X0.1209 Y7.2648
G01 X0.0871 Y7.2224
G01 X0.0584 Y7.1764
G01 X0.0350 Y7.1275
G01 X0.0174 Y7.0763
G01 X0.0056 Y7.0234
G01 X-0.0001 Y6.9695
G01 X-0.0007 Y6.9460
G01 X-0.0007 Y5.1460
G01 X-0.0001 Y5.1225
G01 X0.0056 Y5.0686
G01 X0.0174 Y5.0157
G01 X0.0350 Y4.9645
G01 X0.0584 Y4.9156
G01 X0.0871 Y4.8696
G01 X0.1209 Y4.8272
G01 X0.1592 Y4.7889
G01 X0.2016 Y4.7551
G01 X0.2476 Y4.7264
G01 X0.2965 Y4.7030
G01 X0.3477 Y4.6854
G01 X0.4006 Y4.6736
G01 X0.4545 Y4.6679
G01 X0.4780 Y4.6673
G01 X2.3780 Y4.6673
G01 X2.4015 Y4.6679
G01 X2.4554 Y4.6736
G01 X2.5083 Y4.6854
G01 X2.5395 Y4.6961
G01 X2.5444 Y4.6058
G01 X2.5467 Y4.5790
G01 X2.5505 Y4.5525
G01 X2.5648 Y4.4682
G01 X2.5700 Y4.4418
G01 X2.5767 Y4.4158
G01 X2.6004 Y4.3337
G01 X2.6085 Y4.3081
G01 X2.6181 Y4.2830
G01 X2.6508 Y4.2040
G01 X2.6618 Y4.1795
G01 X2.6741 Y4.1556
G01 X2.7155 Y4.0808
G01 X2.7291 Y4.0577
G01 X2.7440 Y4.0354
G01 X2.7935 Y3.9656
G01 X2.8097 Y3.9442
G01 X2.8270 Y3.9237
G01 X2.8840 Y3.8599
G01 X2.9024 Y3.8404
G01 X2.9219 Y3.8220
G01 X2.9857 Y3.7650
G01 X3.0062 Y3.7477
G01 X3.0276 Y3.7315
G01 X3.0974 Y3.6820
G01 X3.1197 Y3.6671
G01 X3.1428 Y3.6535
G01 X3.2176 Y3.6121
G01 X3.2415 Y3.5998
G01 X3.2660 Y3.5888
G01 X3.3450 Y3.5561
G01 X3.3701 Y3.5465
G01 X3.3957 Y3.5384
G01 X3.4778 Y3.5147
G01 X3.5038 Y3.5080
G01 X3.5302 Y3.5028
G01 X3.6145 Y3.4885
G01 X3.6410 Y3.4847
G01 X3.6678 Y3.4824
G01 X3.7532 Y3.4777
G01 X3.7800 Y3.4769
G01 X5.3040 Y3.4769
G01 X5.3308 Y3.4777
G01 X5.4162 Y3.4824
G01 X5.4430 Y3.4847
G01 X5.4695 Y3.4885
G01 X5.5538 Y3.5028
G01 X5.5802 Y3.5080
G01 X5.6062 Y3.5147
G01 X5.6883 Y3.5384
G01 X5.7139 Y3.5465
G01 X5.7390 Y3.5561
G01 X5.8180 Y3.5888
G01 X5.8425 Y3.5998
G01 X5.8664 Y3.6121
G01 X5.9412 Y3.6535
G01 X5.9643 Y3.6671
G01 X5.9866 Y3.6820
G01 X6.0564 Y3.7315
G01 X6.0778 Y3.7477
G01 X6.0983 Y3.7650
G01 X6.1621 Y3.8220
G01 X6.1816 Y3.8404
G01 X6.2000 Y3.8599
G01 X6.2570 Y3.9237
G01 X6.2743 Y3.9442
G01 X6.2905 Y3.9656
G01 X6.3400 Y4.0354
G01 X6.3549 Y4.0577
G01 X6.3685 Y4.0808
G01 X6.4099 Y4.1556
G01 X6.4222 Y4.1795
G01 X6.4332 Y4.2040
G01 X6.4659 Y4.2830
G01 X6.4755 Y4.3081
G01 X6.4836 Y4.3337
G01 X6.5073 Y4.4158
G01 X6.5140 Y4.4418
G01 X6.5192 Y4.4682
G01 X6.5335 Y4.5525
G01 X6.5373 Y4.5790
G01 X6.5396 Y4.6058
G01 X6.5443 Y4.6912
G01 X6.5451 Y4.7180
G01 X6.5443 Y4.7448
G01 X6.5396 Y4.8302
G01 X6.5373 Y4.8570
G01 X6.5335 Y4.8835
G01 X6.5192 Y4.9678
G01 X6.5140 Y4.9942
G01 X6.5073 Y5.0202
G01 X6.4836 Y5.1023
G01 X6.4755 Y5.1279
G01 X6.4659 Y5.1530
G01 X6.4332 Y5.2320
G01 X6.4222 Y5.2565
G01 X6.4099 Y5.2804
G01 X6.3685 Y5.3552
G01 X6.3549 Y5.3783
G01 X6.3400 Y5.4006
G01 X6.2905 Y5.4704
G01 X6.2743 Y5.4918
G01 X6.2570 Y5.5123
G01 X6.2000 Y5.5761
G01 X6.1816 Y5.5956
G01 X6.1621 Y5.6140
G01 X6.0983 Y5.6710
G01 X6.0778 Y5.6883
G01 X6.0564 Y5.7045
G01 X5.9866 Y5.7540
G01 X5.9643 Y5.7689
G01 X5.9412 Y5.7825
G01 X5.8664 Y5.8239
G01 X5.8425 Y5.8362
G01 X5.8180 Y5.8472
G01 X5.7390 Y5.8799
G01 X5.7139 Y5.8895
G01 X5.6883 Y5.8976
G01 X5.6062 Y5.9213
G01 X5.5802 Y5.9280
G01 X5.5538 Y5.9332
G01 X5.4695 Y5.9475
G01 X5.4430 Y5.9513
G01 X5.4162 Y5.9536
G01 X5.3308 Y5.9583
G01 X5.3040 Y5.9591
G01 X5.2488 Y5.9591
G01 X5.2462 Y6.0747
G01 X5.2432 Y6.1159
G01 X5.2405 Y6.1423
G01 X5.2363 Y6.1684
G01 X5.2254 Y6.2220
G01 X5.2101 Y6.2744
G01 X5.2016 Y6.2995
G01 X5.1918 Y6.3241
G01 X5.1694 Y6.3739
G01 X5.1569 Y6.3972
G01 X5.1292 Y6.4443
G01 X5.1142 Y6.4661
G01 X5.0814 Y6.5098
G01 X5.0451 Y6.5506
G01 X5.0267 Y6.5696
G01 X5.0073 Y6.5876
G01 X4.9657 Y6.6231
G01 X4.9214 Y6.6549
G01 X4.8992 Y6.6694
G01 X4.8516 Y6.6962
G01 X4.8280 Y6.7082
G01 X4.8037 Y6.7189
G01 X4.7529 Y6.7388
G01 X4.7006 Y6.7544
G01 X4.6749 Y6.7610
G01 X4.6489 Y6.7661
G01 X4.5950 Y6.7744
G01 X4.5686 Y6.7766
G01 X4.5272 Y6.7787
G01 X2.8567 Y6.7788
G01 X2.8567 Y6.9460
G01 X2.8561 Y6.9695
G01 X2.8504 Y7.0234
G01 X2.8386 Y7.0763
G01 X2.8210 Y7.1275
G01 X2.7976 Y7.1764
G01 X2.7689 Y7.2224
G01 X2.7351 Y7.2648
G01 X2.6968 Y7.3031
G01 X2.6544 Y7.3369
G01 X2.6084 Y7.3656
G01 X2.5595 Y7.3890
G01 X2.5108 Y7.4058
G01 X2.5108 Y7.4362
G01 X2.5595 Y7.4530
G01 X2.6084 Y7.4764
G01 X2.6544 Y7.5051
G01 X2.6968 Y7.5389
G01 X2.7351 Y7.5772
G01 X2.7689 Y7.6196
G01 X2.7976 Y7.6656
G01 X2.8210 Y7.7145
G01 X2.8386 Y7.7657
G01 X2.8504 Y7.8186
G01 X2.8561 Y7.8725
G01 X2.8567 Y8.0132
G01 X4.1164 Y8.0133
G01 X4.1583 Y8.0155
G01 X4.1851 Y8.0178
G01 X4.2397 Y8.0263
G01 X4.2661 Y8.0315
G01 X4.3195 Y8.0461
G01 X4.3450 Y8.0543
G01 X4.3784 Y8.0673
G01 X4.7780 Y8.0673
G01 X4.8015 Y8.0679
G01 X4.8554 Y8.0736
G01 X4.9083 Y8.0854
G01 X4.9595 Y8.1030
G01 X5.0084 Y8.1264
G01 X5.0544 Y8.1551
G01 X5.0968 Y8.1889
G01 X5.1351 Y8.2272
G01 X5.1689 Y8.2696
G01 X5.1976 Y8.3156
G01 X5.2210 Y8.3645
G01 X5.2386 Y8.4157
G01 X5.2504 Y8.4686
G01 X5.2561 Y8.5225
G01 X5.2567 Y8.5460
G01 X5.2567 Y8.9460
G01 X5.2561 Y8.9695
G01 X5.2504 Y9.0234
G01 X5.2398 Y9.0710
G01 X5.2504 Y9.1186
G01 X5.2561 Y9.1725
G01 X5.2567 Y9.1960
G01 X5.2567 Y9.5960
G01 X5.2561 Y9.6195
G01 X5.2504 Y9.6734
G01 X5.2398 Y9.7210
G01 X5.2504 Y9.7686
G01 X5.2561 Y9.8225
G01 X5.2567 Y9.8460
G01 X5.2567 Y10.2460
G01 X5.2561 Y10.2695
G01 X5.2504 Y10.3234
G01 X5.2398 Y10.3710
G01 X5.2504 Y10.4186
G01 X5.2561 Y10.4725
G01 X5.2567 Y10.4960
G01 X5.2567 Y10.7824
G01 X5.2710 Y10.7887
G01 X5.2948 Y10.8011
G01 X5.3429 Y10.8285
G01 X5.3652 Y10.8434
G01 X5.4099 Y10.8760
G01 X5.4517 Y10.9124
G01 X5.4712 Y10.9308
G01 X5.5086 Y10.9716
G01 X5.5260 Y10.9921
G01 X5.5421 Y11.0135
G01 X5.5735 Y11.0591
G01 X5.5872 Y11.0822
G01 X5.6133 Y11.1310
G01 X5.6351 Y11.1819
G01 X5.6447 Y11.2070
G01 X5.6529 Y11.2325
G01 X5.6675 Y11.2859
G01 X5.6775 Y11.3404
G01 X5.6812 Y11.3669
G01 X5.6851 Y11.4222
G01 X5.6858 Y11.4490
G01 X5.6858 Y13.6977
G01 X5.7139 Y13.7065
G01 X5.7390 Y13.7161
G01 X5.8180 Y13.7488
G01 X5.8425 Y13.7598
G01 X5.8664 Y13.7721
G01 X5.9412 Y13.8135
G01 X5.9643 Y13.8271
G01 X5.9866 Y13.8420
G01 X6.0564 Y13.8915
G01 X6.0778 Y13.9077
G01 X6.0983 Y13.9250
G01 X6.1621 Y13.9820
G01 X6.1816 Y14.0004
G01 X6.2000 Y14.0199
G01 X6.2570 Y14.0837
G01 X6.2743 Y14.1042
G01 X6.2905 Y14.1256
G01 X6.3400 Y14.1954
G01 X6.3549 Y14.2177
G01 X6.3685 Y14.2408
G01 X6.4099 Y14.3156
G01 X6.4222 Y14.3395
G01 X6.4332 Y14.3640
G01 X6.4659 Y14.4430
G01 X6.4755 Y14.4681
G01 X6.4836 Y14.4937
G01 X6.5073 Y14.5758
G01 X6.5140 Y14.6018
G01 X6.5192 Y14.6282
G01 X6.5335 Y14.7125
G01 X6.5373 Y14.7390
G01 X6.5396 Y14.7658
G01 X6.5443 Y14.8512
G01 X6.5451 Y14.8780
G01 X6.5443 Y14.9048
G01 X6.5396 Y14.9902
G01 X6.5373 Y15.0170
G01 X6.5335 Y15.0435
G01 X6.5192 Y15.1278
G01 X6.5140 Y15.1542
G01 X6.5073 Y15.1802
G01 X6.4836 Y15.2623
G01 X6.4755 Y15.2879
G01 X6.4659 Y15.3130
G01 X6.4332 Y15.3920
G01 X6.4222 Y15.4165
G01 X6.4099 Y15.4404
G01 X6.3685 Y15.5152
G01 X6.3549 Y15.5383
G01 X6.3400 Y15.5606
G01 X6.2905 Y15.6304
G01 X6.2743 Y15.6518
G01 X6.2570 Y15.6723
G01 X6.2000 Y15.7361
G01 X6.1816 Y15.7556
G01 X6.1621 Y15.7740
G01 X6.0983 Y15.8310
G01 X6.0778 Y15.8483
G01 X6.0564 Y15.8645
G01 X5.9866 Y15.9140
G01 X5.9643 Y15.9289
G01 X5.9412 Y15.9425
G01 X5.8664 Y15.9839
G01 X5.8425 Y15.9962
G01 X5.8180 Y16.0072
G01 X5.7390 Y16.0399
G01 X5.7139 Y16.0495
G01 X5.6883 Y16.0576
G01 X5.6062 Y16.0813
G01 X5.5802 Y16.0880
G01 X5.5538 Y16.0932
G01 X5.4695 Y16.1075
G01 X5.4430 Y16.1113
G01 X5.4162 Y16.1136
G01 X5.3308 Y16.1183
G01 X5.3040 Y16.1191
G01 X3.7800 Y16.1191
G01 X3.7532 Y16.1183
G01 X3.6678 Y16.1136
G01 X3.6410 Y16.1113
G01 X3.6145 Y16.1075
G01 X3.5302 Y16.0932
G01 X3.5038 Y16.0880
G01 X3.4778 Y16.0813
G01 X3.3957 Y16.0576
G01 X3.3701 Y16.0495
G01 X3.3450 Y16.0399
G01 X3.2660 Y16.0072
G01 X3.2415 Y15.9962
G01 X3.2176 Y15.9839
G01 X3.1428 Y15.9425
G01 X3.1197 Y15.9289
G01 X3.0974 Y15.9140
G01 X3.0276 Y15.8645
G01 X3.0062 Y15.8483
G01 X2.9857 Y15.8310
G01 X2.9219 Y15.7740
G01 X2.9024 Y15.7556
G01 X2.8840 Y15.7361
G01 X2.8270 Y15.6723
G01 X2.8097 Y15.6518
G01 X2.7935 Y15.6304
G01 X2.7440 Y15.5606
G01 X2.7291 Y15.5383
G01 X2.7155 Y15.5152
G01 X2.6741 Y15.4404
G01 X2.6618 Y15.4165
G01 X2.6334 Y15.3500
G01 X2.6084 Y15.3656
G01 X2.5595 Y15.3890
G01 X2.5083 Y15.4066
G01 X2.4554 Y15.4184
G01 X2.4015 Y15.4241
G01 X2.3780 Y15.4247
G01 X0.4780 Y15.4247
G01 X0.4545 Y15.4241
G01 X0.4006 Y15.4184
G01 X0.3477 Y15.4066
G01 X0.2965 Y15.3890
G01 X0.2476 Y15.3656
G01 X0.2016 Y15.3369
G01 X0.1592 Y15.3031
G01 X0.1209 Y15.2648
G01 X0.0871 Y15.2224
G01 X0.0584 Y15.1764
G01 X0.0350 Y15.1275
G01 X0.0174 Y15.0763
G01 X0.0056 Y15.0234
G01 X-0.0001 Y14.9695
G01 X-0.0007 Y14.9460
G01 X-0.0007 Y13.1460
G01 X-0.0001 Y13.1225
G01 X0.0056 Y13.0686
G01 X0.0174 Y13.0157
G01 X0.0350 Y12.9645
G01 X0.0584 Y12.9156
G01 X0.0871 Y12.8696
G01 X0.1209 Y12.8272
G01 X0.1592 Y12.7889
G01 X0.2016 Y12.7551
G01 X0.2476 Y12.7264
G01 X0.2965 Y12.7030
G01 X0.3477 Y12.6854
G01 X0.4006 Y12.6736
G01 X0.4249 Y12.6710
G01 X0.4006 Y12.6684
G01 X0.3477 Y12.6566
G01 X0.2965 Y12.6390
G01 X0.2476 Y12.6156
G01 X0.2016 Y12.5869
G01 X0.1592 Y12.5531
G01 X0.1209 Y12.5148
G01 X0.0871 Y12.4724
G01 X0.0584 Y12.4264
G01 X0.0350 Y12.3775
G01 X0.0174 Y12.3263
G01 X0.0056 Y12.2734
G01 X-0.0001 Y12.2195
G01 X-0.0007 Y12.1960
G01 X-0.0007 Y10.2960
G01 X-0.0001 Y10.2725
G01 X0.0056 Y10.2186
G01 X0.0174 Y10.1657
G01 X0.0350 Y10.1145
G01 X0.0584 Y10.0656
G01 X0.0706 Y10.0460
G00 Z2.5400
G00 X-0.0105 Y10.0460
G01 F76.20
G01 Z-0.0508
G01 F76.20
G01 X-0.0304 Y10.0043
G01 X-0.0507 Y9.9455
G01 X-0.0642 Y9.8848
G01 X-0.0708 Y9.8230
G01 X-0.0714 Y9.7960
G01 X-0.0714 Y7.8960
G01 X-0.0708 Y7.8690
G01 X-0.0642 Y7.8072
G01 X-0.0507 Y7.7465
G01 X-0.0304 Y7.6877
G01 X-0.0036 Y7.6315
G01 X0.0294 Y7.5788
G01 X0.0681 Y7.5301
G01 X0.1121 Y7.4861
G01 X0.1608 Y7.4474
G01 X0.2030 Y7.4210
G01 X0.1608 Y7.3946
G01 X0.1121 Y7.3559
G01 X0.0681 Y7.3119
G01 X0.0294 Y7.2632
G01 X-0.0036 Y7.2105
G01 X-0.0304 Y7.1543
G01 X-0.0507 Y7.0955
G01 X-0.0642 Y7.0348
G01 X-0.0708 Y6.9730
G01 X-0.0714 Y6.9460
G01 X-0.0714 Y5.1460
G01 X-0.0708 Y5.1190
G01 X-0.0642 Y5.0572
G01 X-0.0507 Y4.9965
G01 X-0.0304 Y4.9377
G01 X-0.0036 Y4.8815
G01 X0.0294 Y4.8288
G01 X0.0681 Y4.7801
G01 X0.1121 Y4.7361
G01 X0.1608 Y4.6974
G01 X0.2135 Y4.6644
G01 X0.2697 Y4.6376
G01 X0.3285 Y4.6173
G01 X0.3892 Y4.6038
G01 X0.4510 Y4.5972
G01 X0.4780 Y4.5966
G01 X2.3780 Y4.5966
G01 X2.4050 Y4.5972
G01 X2.4668 Y4.6038
G01 X2.4736 Y4.6053
G01 X2.4764 Y4.5711
G01 X2.4807 Y4.5406
G01 X2.4951 Y4.4563
G01 X2.5011 Y4.4261
G01 X2.5088 Y4.3962
G01 X2.5324 Y4.3141
G01 X2.5418 Y4.2847
G01 X2.5528 Y4.2559
G01 X2.5855 Y4.1770
G01 X2.5981 Y4.1488
G01 X2.6122 Y4.1214
G01 X2.6536 Y4.0466
G01 X2.6692 Y4.0201
G01 X2.6864 Y3.9944
G01 X2.7358 Y3.9247
G01 X2.7544 Y3.9001
G01 X2.7743 Y3.8765
G01 X2.8312 Y3.8128
G01 X2.8524 Y3.7904
G01 X2.8748 Y3.7692
G01 X2.9385 Y3.7123
G01 X2.9621 Y3.6924
G01 X2.9867 Y3.6738
G01 X3.0564 Y3.6244
G01 X3.0821 Y3.6072
G01 X3.1086 Y3.5916
G01 X3.1834 Y3.5502
G01 X3.2108 Y3.5361
G01 X3.2390 Y3.5235
G01 X3.3179 Y3.4908
G01 X3.3467 Y3.4798
G01 X3.3761 Y3.4704
G01 X3.4540 Y3.4480
G01 X3.3761 Y3.4256
G01 X3.3467 Y3.4162
G01 X3.3179 Y3.4052
G01 X3.2390 Y3.3725
G01 X3.2108 Y3.3599
G01 X3.1834 Y3.3458
G01 X3.1086 Y3.3044
G01 X3.0821 Y3.2888
G01 X3.0564 Y3.2716
G01 X2.9867 Y3.2222
G01 X2.9621 Y3.2036
G01 X2.9385 Y3.1837
G01 X2.8748 Y3.1268
G01 X2.8524 Y3.1056
G01 X2.8312 Y3.0832
G01 X2.7743 Y3.0195
G01 X2.7544 Y2.9959
G01 X2.7358 Y2.9713
G01 X2.6864 Y2.9016
G01 X2.6692 Y2.8759
G01 X2.6536 Y2.8494
G01 X2.6122 Y2.7746
G01 X2.5981 Y2.7472
G01 X2.5855 Y2.7190
G01 X2.5528 Y2.6401
G01 X2.5418 Y2.6113
G01 X2.5324 Y2.5819
G01 X2.5088 Y2.4998
G01 X2.5011 Y2.4699
G01 X2.4951 Y2.4397
G01 X2.4807 Y2.3554
G01 X2.4764 Y2.3249
G01 X2.4738 Y2.2942
G01 X2.4690 Y2.2088
G01 X2.4682 Y2.1780
G01 X2.4690 Y2.1472
G01 X2.4738 Y2.0618
G01 X2.4764 Y2.0311
G01 X2.4807 Y2.0006
G01 X2.4951 Y1.9163
G01 X2.5011 Y1.8861
G01 X2.5088 Y1.8562
G01 X2.5324 Y1.7741
G01 X2.5418 Y1.7447
G01 X2.5528 Y1.7159
G01 X2.5855 Y1.6370
G01 X2.5981 Y1.6088
G01 X2.6122 Y1.5814
G01 X2.6536 Y1.5066
G01 X2.6692 Y1.4801
G01 X2.6864 Y1.4544
G01 X2.7358 Y1.3847
G01 X2.7544 Y1.3601
G01 X2.7743 Y1.3365
G01 X2.8312 Y1.2728
G01 X2.8524 Y1.2504
G01 X2.8748 Y1.2292
G01 X2.9385 Y1.1723
G01 X2.9621 Y1.1524
G01 X2.9867 Y1.1338
G01 X3.0564 Y1.0844
G01 X3.0821 Y1.0672
G01 X3.1086 Y1.0516
G01 X3.1834 Y1.0102
G01 X3.2108 Y0.9961
G01 X3.2390 Y0.9835
G01 X3.3179 Y0.9508
G01 X3.3467 Y0.9398
G01 X3.3761 Y0.9304
G01 X3.4582 Y0.9068
G01 X3.4881 Y0.8991
G01 X3.5183 Y0.8931
G01 X3.6026 Y0.8787
G01 X3.6331 Y0.8744
G01 X3.6638 Y0.8718
G01 X3.7492 Y0.8670
G01 X3.7800 Y0.8662
G01 X5.3040 Y0.8662
G01 X5.3348 Y0.8670
G01 X5.4202 Y0.8718
G01 X5.4509 Y0.8744
G01 X5.4814 Y0.8787
G01 X5.5657 Y0.8931
G01 X5.5959 Y0.8991
G01 X5.6258 Y0.9068
G01 X5.7079 Y0.9304
G01 X5.7373 Y0.9398
G01 X5.7661 Y0.9508
G01 X5.8450 Y0.9835
G01 X5.8732 Y0.9961
G01 X5.9006 Y1.0102
G01 X5.9754 Y1.0516
G01 X6.0019 Y1.0672
G01 X6.0276 Y1.0844
G01 X6.0973 Y1.1338
G01 X6.1219 Y1.1524
G01 X6.1455 Y1.1723
G01 X6.2092 Y1.2292
G01 X6.2316 Y1.2504
G01 X6.2528 Y1.2728
G01 X6.3097 Y1.3365
G01 X6.3296 Y1.3601
G01 X6.3482 Y1.3847
G01 X6.3976 Y1.4544
G01 X6.4148 Y1.4801
G01 X6.4304 Y1.5066
G01 X6.4718 Y1.5814
G01 X6.4859 Y1.6088
G01 X6.4985 Y1.6370
G01 X6.5312 Y1.7159
G01 X6.5422 Y1.7447
G01 X6.5516 Y1.7741
G01 X6.5752 Y1.8562
G01 X6.5829 Y1.8861
G01 X6.5889 Y1.9163
G01 X6.6033 Y2.0006
G01 X6.6076 Y2.0311
G01 X6.6102 Y2.0618
G01 X6.6150 Y2.1472
G01 X6.6158 Y2.1780
G01 X6.6150 Y2.2088
G01 X6.6102 Y2.2942
G01 X6.6076 Y2.3249
G01 X6.6033 Y2.3554
G01 X6.5889 Y2.4397
G01 X6.5829 Y2.4699
G01 X6.5752 Y2.4998
G01 X6.5516 Y2.5819
G01 X6.5422 Y2.6113
G01 X6.5312 Y2.6401
G01 X6.4985 Y2.7190
G01 X6.4859 Y2.7472
G01 X6.4718 Y2.7746
G01 X6.4304 Y2.8494
G01 X6.4148 Y2.8759
G01 X6.3976 Y2.9016
G01 X6.3482 Y2.9713
G01 X6.3296 Y2.9959
G01 X6.3097 Y3.0195
G01 X6.2528 Y3.0832
G01 X6.2316 Y3.1056
G01 X6.2092 Y3.1268
G01 X6.1455 Y3.1837
G01 X6.1219 Y3.2036
G01 X6.0973 Y3.2222
G01 X6.0276 Y3.2716
G01 X6.0019 Y3.2888
G01 X5.9754 Y3.3044
G01 X5.9006 Y3.3458
G01 X5.8732 Y3.3599
G01 X5.8450 Y3.3725
G01 X5.7661 Y3.4052
G01 X5.7373 Y3.4162
G01 X5.7079 Y3.4256
G01 X5.6300 Y3.4480
G01 X5.7079 Y3.4704
G01 X5.7373 Y3.4798
G01 X5.7661 Y3.4908
G01 X5.8450 Y3.5235
G01 X5.8732 Y3.5361
G01 X5.9006 Y3.5502
G01 X5.9754 Y3.5916
G01 X6.0019 Y3.6072
G01 X6.0276 Y3.6244
G01 X6.0973 Y3.6738
G01 X6.1219 Y3.6924
G01 X6.1455 Y3.7123
G01 X6.2092 Y3.7692
G01 X6.2316 Y3.7904
G01 X6.2528 Y3.8128
G01 X6.3097 Y3.8765
G01 X6.3296 Y3.9001
G01 X6.3482 Y3.9247
G01 X6.3976 Y3.9944
G01 X6.4148 Y4.0201
G01 X6.4304 Y4.0466
G01 X6.4718 Y4.1214
G01 X6.4859 Y4.1488
G01 X6.4985 Y4.1770
G01 X6.5312 Y4.2559
G01 X6.5422 Y4.2847
G01 X6.5516 Y4.3141
G01 X6.5752 Y4.3962
G01 X6.5829 Y4.4261
G01 X6.5889 Y4.4563
G01 X6.6033 Y4.5406
G01 X6.6076 Y4.5711
G01 X6.6102 Y4.6018
G01 X6.6150 Y4.6872
G01 X6.6158 Y4.7180
G01 X6.6150 Y4.7488
G01 X6.6102 Y4.8342
G01 X6.6076 Y4.8649
G01 X6.6033 Y4.8954
G01 X6.5889 Y4.9797
G01 X6.5829 Y5.0099
G01 X6.5752 Y5.0398
G01 X6.5516 Y5.1219
G01 X6.5422 Y5.1513
G01 X6.5312 Y5.1801
G01 X6.4985 Y5.2590
G01 X6.4859 Y5.2872
G01 X6.4718 Y5.3146
G01 X6.4304 Y5.3894
G01 X6.4148 Y5.4159
G01 X6.3976 Y5.4416
G01 X6.3482 Y5.5113
G01 X6.3296 Y5.5359
G01 X6.3097 Y5.5595
G01 X6.2528 Y5.6232
G01 X6.2316 Y5.6456
G01 X6.2092 Y5.6668
G01 X6.1455 Y5.7237
G01 X6.1219 Y5.7436
G01 X6.0973 Y5.7622
G01 X6.0276 Y5.8116
G01 X6.0019 Y5.8288
G01 X5.9754 Y5.8444
G01 X5.9006 Y5.8858
G01 X5.8732 Y5.8999
G01 X5.8450 Y5.9125
G01 X5.7661 Y5.9452
G01 X5.7373 Y5.9562
G01 X5.7079 Y5.9656
G01 X5.6258 Y5.9892
G01 X5.5959 Y5.9969
G01 X5.5657 Y6.0029
G01 X5.4814 Y6.0173
G01 X5.4509 Y6.0216
G01 X5.4202 Y6.0242
G01 X5.3181 Y6.0296
G01 X5.3169 Y6.0781
G01 X5.3138 Y6.1213
G01 X5.3106 Y6.1516
G01 X5.3058 Y6.1816
G01 X5.2941 Y6.2389
G01 X5.2859 Y6.2682
G01 X5.2680 Y6.3239
G01 X5.2455 Y6.3780
G01 X5.2327 Y6.4055
G01 X5.2183 Y6.4323
G01 X5.1885 Y6.4827
G01 X5.1548 Y6.5305
G01 X5.1362 Y6.5545
G01 X5.1163 Y6.5775
G01 X5.0762 Y6.6202
G01 X5.0327 Y6.6594
G01 X5.0093 Y6.6788
G01 X4.9618 Y6.7129
G01 X4.9364 Y6.7296
G01 X4.9101 Y6.7449
G01 X4.8583 Y6.7721
G01 X4.8044 Y6.7950
G01 X4.7760 Y6.8057
G01 X4.7199 Y6.8225
G01 X4.6904 Y6.8300
G01 X4.6329 Y6.8405
G01 X4.6028 Y6.8446
G01 X4.5444 Y6.8487
G01 X4.5140 Y6.8496
G01 X2.9274 Y6.8496
G01 X2.9274 Y6.9460
G01 X2.9268 Y6.9730
G01 X2.9202 Y7.0348
G01 X2.9067 Y7.0955
G01 X2.8864 Y7.1543
G01 X2.8596 Y7.2105
G01 X2.8266 Y7.2632
G01 X2.7879 Y7.3119
G01 X2.7439 Y7.3559
G01 X2.6952 Y7.3946
G01 X2.6530 Y7.4210
G01 X2.6952 Y7.4474
G01 X2.7439 Y7.4861
G01 X2.7879 Y7.5301
G01 X2.8266 Y7.5788
G01 X2.8596 Y7.6315
G01 X2.8864 Y7.6877
G01 X2.9067 Y7.7465
G01 X2.9202 Y7.8072
G01 X2.9268 Y7.8690
G01 X2.9274 Y7.9424
G01 X4.1184 Y7.9426
G01 X4.1623 Y7.9449
G01 X4.1930 Y7.9475
G01 X4.2516 Y7.9566
G01 X4.2818 Y7.9626
G01 X4.3117 Y7.9703
G01 X4.3684 Y7.9875
G01 X4.3921 Y7.9966
G01 X4.7780 Y7.9966
G01 X4.8050 Y7.9972
G01 X4.8668 Y8.0038
G01 X4.9276 Y8.0173
G01 X4.9864 Y8.0376
G01 X5.0425 Y8.0644
G01 X5.0952 Y8.0974
G01 X5.1439 Y8.1361
G01 X5.1879 Y8.1801
G01 X5.2266 Y8.2288
