(G-CODE GENERATED BY FLATCAM v8.912 - www.flatcam.org - Version Date: 2019/03/17)

(Name: drill_70_16.xln_cnc)
(Type: G-code from Excellon)
(Units: MM)

(Created on Saturday, 31 July 2021 at 15:47)

(Feedrate: 76.2 mm/min)
(Feedrate rapids 76.2 mm/min)

(Z_Cut: -1.7 mm)
(Z_Move: 2.54 mm)
(Z Toolchange: 25.4 mm)
(X,Y Toolchange: 0.0000, 0.0000 mm)
(Z Start: None mm)
(Z End: 10.8 mm)
(Steps per circle: 64)
(Postprocessor Excellon: default)

(X range:    3.5280 ...    5.0500  mm)
(Y range:    1.6700 ...   17.9260  mm)

(Spindle Speed: None RPM)

G21
G90
G94

G01 F76.20
G00 Z2.5400

M03
G00 X3.8780 Y12.1210
G01 Z-1.7000
G01 Z0
G00 Z2.5400
G00 X3.8780 Y7.9710
G01 Z-1.7000
G01 Z0
G00 Z2.5400
M05
G00 Z10.80
G00 X0.0 Y0.0

