(G-CODE GENERATED BY FLATCAM v8.912 - www.flatcam.org - Version Date: 2019/03/17)

(Name: profile.gbr_cutout_cnc)
(Type: G-code from Geometry)
(Units: MM)

(Created on Monday, 26 July 2021 at 19:34)

(TOOL DIAMETER: 1.0 mm)
(Feedrate: 76.2 mm/min)
(Feedrate_Z: 76.2 mm/min)
(Feedrate rapids 76.2 mm/min)

(Z_Cut: -1.7 mm)
(DepthPerCut: 0.4 mm <=>5 passes)
(Z_Move: 2.54 mm)
(Z Toolchange: 25.4 mm)
(X,Y Toolchange: 0.0000, 0.0000 mm)
(Z Start: None mm)
(Z End: 10.0 mm)
(Steps per circle: 64)
(Postprocessor Geometry: default)

(X range:   -0.6281 ...    7.5931  mm)
(Y range:    2.8199 ...   16.9541  mm)

(Spindle Speed: None RPM)

G21
G90
G94

G01 F76.20
G00 Z2.5400

M03
G00 X0.0000 Y2.8199
G01 F76.20
G01 Z-0.4000
G01 F76.20
G01 X-0.0423 Y2.8215
G01 X-0.0703 Y2.8239
G01 X-0.1122 Y2.8302
G01 X-0.1398 Y2.8357
G01 X-0.1670 Y2.8427
G01 X-0.2074 Y2.8552
G01 X-0.2337 Y2.8652
G01 X-0.2725 Y2.8821
G01 X-0.2975 Y2.8950
G01 X-0.3341 Y2.9162
G01 X-0.3691 Y2.9401
G01 X-0.3916 Y2.9570
G01 X-0.4237 Y2.9846
G01 X-0.4441 Y3.0039
G01 X-0.4634 Y3.0243
G01 X-0.4910 Y3.0564
G01 X-0.5162 Y3.0905
G01 X-0.5318 Y3.1138
G01 X-0.5461 Y3.1381
G01 X-0.5659 Y3.1755
G01 X-0.5773 Y3.2011
G01 X-0.5928 Y3.2406
G01 X-0.6014 Y3.2673
G01 X-0.6123 Y3.3082
G01 X-0.6178 Y3.3358
G01 X-0.6241 Y3.3777
G01 X-0.6279 Y3.4339
G01 X-0.6281 Y16.3260
G01 X-0.6265 Y16.3683
G01 X-0.6241 Y16.3963
G01 X-0.6178 Y16.4382
G01 X-0.6123 Y16.4658
G01 X-0.6014 Y16.5067
G01 X-0.5928 Y16.5334
G01 X-0.5773 Y16.5729
G01 X-0.5659 Y16.5985
G01 X-0.5461 Y16.6359
G01 X-0.5318 Y16.6602
G01 X-0.5162 Y16.6835
G01 X-0.4910 Y16.7176
G01 X-0.4634 Y16.7497
G01 X-0.4441 Y16.7701
G01 X-0.4237 Y16.7894
G01 X-0.3916 Y16.8170
G01 X-0.3575 Y16.8422
G01 X-0.3341 Y16.8578
G01 X-0.2975 Y16.8790
G01 X-0.2725 Y16.8919
G01 X-0.2337 Y16.9088
G01 X-0.2074 Y16.9188
G01 X-0.1807 Y16.9274
G01 X-0.1398 Y16.9383
G01 X-0.0981 Y16.9462
G01 X-0.0703 Y16.9501
G01 X-0.0141 Y16.9539
G01 X6.9650 Y16.9541
G01 X7.0073 Y16.9525
G01 X7.0353 Y16.9501
G01 X7.0772 Y16.9438
G01 X7.1048 Y16.9383
G01 X7.1457 Y16.9274
G01 X7.1724 Y16.9188
G01 X7.2119 Y16.9033
G01 X7.2375 Y16.8919
G01 X7.2749 Y16.8721
G01 X7.2991 Y16.8578
G01 X7.3225 Y16.8422
G01 X7.3566 Y16.8170
G01 X7.3887 Y16.7894
G01 X7.4091 Y16.7701
G01 X7.4284 Y16.7497
G01 X7.4560 Y16.7176
G01 X7.4729 Y16.6951
G01 X7.4968 Y16.6602
G01 X7.5111 Y16.6359
G01 X7.5309 Y16.5985
G01 X7.5478 Y16.5597
G01 X7.5578 Y16.5334
G01 X7.5664 Y16.5067
G01 X7.5773 Y16.4658
G01 X7.5852 Y16.4241
G01 X7.5891 Y16.3963
G01 X7.5929 Y16.3401
G01 X7.5931 Y3.4480
G01 X7.5923 Y3.4199
G01 X7.5891 Y3.3777
G01 X7.5852 Y3.3499
G01 X7.5773 Y3.3082
G01 X7.5703 Y3.2810
G01 X7.5578 Y3.2406
G01 X7.5478 Y3.2143
G01 X7.5309 Y3.1755
G01 X7.5180 Y3.1505
G01 X7.4968 Y3.1138
G01 X7.4729 Y3.0789
G01 X7.4560 Y3.0564
G01 X7.4379 Y3.0349
G01 X7.4091 Y3.0039
G01 X7.3781 Y2.9751
G01 X7.3566 Y2.9570
G01 X7.3341 Y2.9401
G01 X7.2992 Y2.9162
G01 X7.2749 Y2.9019
G01 X7.2375 Y2.8821
G01 X7.1987 Y2.8652
G01 X7.1724 Y2.8552
G01 X7.1457 Y2.8466
G01 X7.1048 Y2.8357
G01 X7.0631 Y2.8278
G01 X7.0353 Y2.8239
G01 X6.9931 Y2.8207
G01 X6.9650 Y2.8199
G01 X0.0000 Y2.8199
G00 X0.0000 Y2.8199
G01 F76.20
G01 Z-0.8000
G01 F76.20
G01 X6.9650 Y2.8199
G01 X6.9931 Y2.8207
G01 X7.0353 Y2.8239
G01 X7.0631 Y2.8278
G01 X7.1048 Y2.8357
G01 X7.1457 Y2.8466
G01 X7.1724 Y2.8552
G01 X7.1987 Y2.8652
G01 X7.2375 Y2.8821
G01 X7.2749 Y2.9019
G01 X7.2992 Y2.9162
G01 X7.3341 Y2.9401
G01 X7.3566 Y2.9570
G01 X7.3781 Y2.9751
G01 X7.4091 Y3.0039
G01 X7.4379 Y3.0349
G01 X7.4560 Y3.0564
G01 X7.4729 Y3.0789
G01 X7.4968 Y3.1138
G01 X7.5180 Y3.1505
G01 X7.5309 Y3.1755
G01 X7.5478 Y3.2143
G01 X7.5578 Y3.2406
G01 X7.5703 Y3.2810
G01 X7.5773 Y3.3082
G01 X7.5852 Y3.3499
G01 X7.5891 Y3.3777
G01 X7.5923 Y3.4199
G01 X7.5931 Y3.4480
G01 X7.5929 Y16.3401
G01 X7.5891 Y16.3963
G01 X7.5852 Y16.4241
G01 X7.5773 Y16.4658
G01 X7.5664 Y16.5067
G01 X7.5578 Y16.5334
G01 X7.5478 Y16.5597
G01 X7.5309 Y16.5985
G01 X7.5111 Y16.6359
G01 X7.4968 Y16.6602
G01 X7.4729 Y16.6951
G01 X7.4560 Y16.7176
G01 X7.4284 Y16.7497
G01 X7.4091 Y16.7701
G01 X7.3887 Y16.7894
G01 X7.3566 Y16.8170
G01 X7.3225 Y16.8422
G01 X7.2991 Y16.8578
G01 X7.2749 Y16.8721
G01 X7.2375 Y16.8919
G01 X7.2119 Y16.9033
G01 X7.1724 Y16.9188
G01 X7.1457 Y16.9274
G01 X7.1048 Y16.9383
G01 X7.0772 Y16.9438
G01 X7.0353 Y16.9501
G01 X7.0073 Y16.9525
G01 X6.9650 Y16.9541
G01 X-0.0141 Y16.9539
G01 X-0.0703 Y16.9501
G01 X-0.0981 Y16.9462
G01 X-0.1398 Y16.9383
G01 X-0.1807 Y16.9274
G01 X-0.2074 Y16.9188
G01 X-0.2337 Y16.9088
G01 X-0.2725 Y16.8919
G01 X-0.2975 Y16.8790
G01 X-0.3341 Y16.8578
G01 X-0.3575 Y16.8422
G01 X-0.3916 Y16.8170
G01 X-0.4237 Y16.7894
G01 X-0.4441 Y16.7701
G01 X-0.4634 Y16.7497
G01 X-0.4910 Y16.7176
G01 X-0.5162 Y16.6835
G01 X-0.5318 Y16.6602
G01 X-0.5461 Y16.6359
G01 X-0.5659 Y16.5985
G01 X-0.5773 Y16.5729
G01 X-0.5928 Y16.5334
G01 X-0.6014 Y16.5067
G01 X-0.6123 Y16.4658
G01 X-0.6178 Y16.4382
G01 X-0.6241 Y16.3963
G01 X-0.6265 Y16.3683
G01 X-0.6281 Y16.3260
G01 X-0.6279 Y3.4339
G01 X-0.6241 Y3.3777
G01 X-0.6178 Y3.3358
G01 X-0.6123 Y3.3082
G01 X-0.6014 Y3.2673
G01 X-0.5928 Y3.2406
G01 X-0.5773 Y3.2011
G01 X-0.5659 Y3.1755
G01 X-0.5461 Y3.1381
G01 X-0.5318 Y3.1138
G01 X-0.5162 Y3.0905
G01 X-0.4910 Y3.0564
G01 X-0.4634 Y3.0243
G01 X-0.4441 Y3.0039
G01 X-0.4237 Y2.9846
G01 X-0.3916 Y2.9570
G01 X-0.3691 Y2.9401
G01 X-0.3341 Y2.9162
G01 X-0.2975 Y2.8950
G01 X-0.2725 Y2.8821
G01 X-0.2337 Y2.8652
G01 X-0.2074 Y2.8552
G01 X-0.1670 Y2.8427
G01 X-0.1398 Y2.8357
G01 X-0.1122 Y2.8302
G01 X-0.0703 Y2.8239
G01 X-0.0423 Y2.8215
G01 X0.0000 Y2.8199
G00 X0.0000 Y2.8199
G01 F76.20
G01 Z-1.2000
G01 F76.20
G01 X-0.0423 Y2.8215
G01 X-0.0703 Y2.8239
G01 X-0.1122 Y2.8302
G01 X-0.1398 Y2.8357
G01 X-0.1670 Y2.8427
G01 X-0.2074 Y2.8552
G01 X-0.2337 Y2.8652
G01 X-0.2725 Y2.8821
G01 X-0.2975 Y2.8950
G01 X-0.3341 Y2.9162
G01 X-0.3691 Y2.9401
G01 X-0.3916 Y2.9570
G01 X-0.4237 Y2.9846
G01 X-0.4441 Y3.0039
G01 X-0.4634 Y3.0243
G01 X-0.4910 Y3.0564
G01 X-0.5162 Y3.0905
G01 X-0.5318 Y3.1138
G01 X-0.5461 Y3.1381
G01 X-0.5659 Y3.1755
G01 X-0.5773 Y3.2011
G01 X-0.5928 Y3.2406
G01 X-0.6014 Y3.2673
G01 X-0.6123 Y3.3082
G01 X-0.6178 Y3.3358
G01 X-0.6241 Y3.3777
G01 X-0.6279 Y3.4339
G01 X-0.6281 Y16.3260
G01 X-0.6265 Y16.3683
G01 X-0.6241 Y16.3963
G01 X-0.6178 Y16.4382
G01 X-0.6123 Y16.4658
G01 X-0.6014 Y16.5067
G01 X-0.5928 Y16.5334
G01 X-0.5773 Y16.5729
G01 X-0.5659 Y16.5985
G01 X-0.5461 Y16.6359
G01 X-0.5318 Y16.6602
G01 X-0.5162 Y16.6835
G01 X-0.4910 Y16.7176
G01 X-0.4634 Y16.7497
G01 X-0.4441 Y16.7701
G01 X-0.4237 Y16.7894
G01 X-0.3916 Y16.8170
G01 X-0.3575 Y16.8422
G01 X-0.3341 Y16.8578
G01 X-0.2975 Y16.8790
G01 X-0.2725 Y16.8919
G01 X-0.2337 Y16.9088
G01 X-0.2074 Y16.9188
G01 X-0.1807 Y16.9274
G01 X-0.1398 Y16.9383
G01 X-0.0981 Y16.9462
G01 X-0.0703 Y16.9501
G01 X-0.0141 Y16.9539
G01 X6.9650 Y16.9541
G01 X7.0073 Y16.9525
G01 X7.0353 Y16.9501
G01 X7.0772 Y16.9438
G01 X7.1048 Y16.9383
G01 X7.1457 Y16.9274
G01 X7.1724 Y16.9188
G01 X7.2119 Y16.9033
G01 X7.2375 Y16.8919
G01 X7.2749 Y16.8721
G01 X7.2991 Y16.8578
G01 X7.3225 Y16.8422
G01 X7.3566 Y16.8170
G01 X7.3887 Y16.7894
G01 X7.4091 Y16.7701
G01 X7.4284 Y16.7497
G01 X7.4560 Y16.7176
G01 X7.4729 Y16.6951
G01 X7.4968 Y16.6602
G01 X7.5111 Y16.6359
G01 X7.5309 Y16.5985
G01 X7.5478 Y16.5597
G01 X7.5578 Y16.5334
G01 X7.5664 Y16.5067
G01 X7.5773 Y16.4658
G01 X7.5852 Y16.4241
G01 X7.5891 Y16.3963
G01 X7.5929 Y16.3401
G01 X7.5931 Y3.4480
G01 X7.5923 Y3.4199
G01 X7.5891 Y3.3777
G01 X7.5852 Y3.3499
G01 X7.5773 Y3.3082
G01 X7.5703 Y3.2810
G01 X7.5578 Y3.2406
G01 X7.5478 Y3.2143
G01 X7.5309 Y3.1755
G01 X7.5180 Y3.1505
G01 X7.4968 Y3.1138
G01 X7.4729 Y3.0789
G01 X7.4560 Y3.0564
G01 X7.4379 Y3.0349
G01 X7.4091 Y3.0039
G01 X7.3781 Y2.9751
G01 X7.3566 Y2.9570
G01 X7.3341 Y2.9401
G01 X7.2992 Y2.9162
G01 X7.2749 Y2.9019
G01 X7.2375 Y2.8821
G01 X7.1987 Y2.8652
G01 X7.1724 Y2.8552
G01 X7.1457 Y2.8466
G01 X7.1048 Y2.8357
G01 X7.0631 Y2.8278
G01 X7.0353 Y2.8239
G01 X6.9931 Y2.8207
G01 X6.9650 Y2.8199
G01 X0.0000 Y2.8199
G00 X0.0000 Y2.8199
G01 F76.20
G01 Z-1.6000
G01 F76.20
G01 X6.9650 Y2.8199
G01 X6.9931 Y2.8207
G01 X7.0353 Y2.8239
G01 X7.0631 Y2.8278
G01 X7.1048 Y2.8357
G01 X7.1457 Y2.8466
G01 X7.1724 Y2.8552
G01 X7.1987 Y2.8652
G01 X7.2375 Y2.8821
G01 X7.2749 Y2.9019
G01 X7.2992 Y2.9162
G01 X7.3341 Y2.9401
G01 X7.3566 Y2.9570
G01 X7.3781 Y2.9751
G01 X7.4091 Y3.0039
G01 X7.4379 Y3.0349
G01 X7.4560 Y3.0564
G01 X7.4729 Y3.0789
G01 X7.4968 Y3.1138
G01 X7.5180 Y3.1505
G01 X7.5309 Y3.1755
G01 X7.5478 Y3.2143
G01 X7.5578 Y3.2406
G01 X7.5703 Y3.2810
G01 X7.5773 Y3.3082
G01 X7.5852 Y3.3499
G01 X7.5891 Y3.3777
G01 X7.5923 Y3.4199
G01 X7.5931 Y3.4480
G01 X7.5929 Y16.3401
G01 X7.5891 Y16.3963
G01 X7.5852 Y16.4241
G01 X7.5773 Y16.4658
G01 X7.5664 Y16.5067
G01 X7.5578 Y16.5334
G01 X7.5478 Y16.5597
G01 X7.5309 Y16.5985
G01 X7.5111 Y16.6359
G01 X7.4968 Y16.6602
G01 X7.4729 Y16.6951
G01 X7.4560 Y16.7176
G01 X7.4284 Y16.7497
G01 X7.4091 Y16.7701
G01 X7.3887 Y16.7894
G01 X7.3566 Y16.8170
G01 X7.3225 Y16.8422
G01 X7.2991 Y16.8578
G01 X7.2749 Y16.8721
G01 X7.2375 Y16.8919
G01 X7.2119 Y16.9033
G01 X7.1724 Y16.9188
G01 X7.1457 Y16.9274
G01 X7.1048 Y16.9383
G01 X7.0772 Y16.9438
G01 X7.0353 Y16.9501
G01 X7.0073 Y16.9525
G01 X6.9650 Y16.9541
G01 X-0.0141 Y16.9539
G01 X-0.0703 Y16.9501
G01 X-0.0981 Y16.9462
G01 X-0.1398 Y16.9383
G01 X-0.1807 Y16.9274
G01 X-0.2074 Y16.9188
G01 X-0.2337 Y16.9088
G01 X-0.2725 Y16.8919
G01 X-0.2975 Y16.8790
G01 X-0.3341 Y16.8578
G01 X-0.3575 Y16.8422
G01 X-0.3916 Y16.8170
G01 X-0.4237 Y16.7894
G01 X-0.4441 Y16.7701
G01 X-0.4634 Y16.7497
G01 X-0.4910 Y16.7176
G01 X-0.5162 Y16.6835
G01 X-0.5318 Y16.6602
G01 X-0.5461 Y16.6359
G01 X-0.5659 Y16.5985
G01 X-0.5773 Y16.5729
G01 X-0.5928 Y16.5334
G01 X-0.6014 Y16.5067
G01 X-0.6123 Y16.4658
G01 X-0.6178 Y16.4382
G01 X-0.6241 Y16.3963
G01 X-0.6265 Y16.3683
G01 X-0.6281 Y16.3260
G01 X-0.6279 Y3.4339
G01 X-0.6241 Y3.3777
G01 X-0.6178 Y3.3358
G01 X-0.6123 Y3.3082
G01 X-0.6014 Y3.2673
G01 X-0.5928 Y3.2406
G01 X-0.5773 Y3.2011
G01 X-0.5659 Y3.1755
G01 X-0.5461 Y3.1381
G01 X-0.5318 Y3.1138
G01 X-0.5162 Y3.0905
G01 X-0.4910 Y3.0564
G01 X-0.4634 Y3.0243
G01 X-0.4441 Y3.0039
G01 X-0.4237 Y2.9846
G01 X-0.3916 Y2.9570
G01 X-0.3691 Y2.9401
G01 X-0.3341 Y2.9162
G01 X-0.2975 Y2.8950
G01 X-0.2725 Y2.8821
G01 X-0.2337 Y2.8652
G01 X-0.2074 Y2.8552
G01 X-0.1670 Y2.8427
G01 X-0.1398 Y2.8357
G01 X-0.1122 Y2.8302
G01 X-0.0703 Y2.8239
G01 X-0.0423 Y2.8215
G01 X0.0000 Y2.8199
G00 X0.0000 Y2.8199
G01 F76.20
G01 Z-1.7000
G01 F76.20
G01 X-0.0423 Y2.8215
G01 X-0.0703 Y2.8239
G01 X-0.1122 Y2.8302
G01 X-0.1398 Y2.8357
G01 X-0.1670 Y2.8427
G01 X-0.2074 Y2.8552
G01 X-0.2337 Y2.8652
G01 X-0.2725 Y2.8821
G01 X-0.2975 Y2.8950
G01 X-0.3341 Y2.9162
G01 X-0.3691 Y2.9401
G01 X-0.3916 Y2.9570
G01 X-0.4237 Y2.9846
G01 X-0.4441 Y3.0039
G01 X-0.4634 Y3.0243
G01 X-0.4910 Y3.0564
G01 X-0.5162 Y3.0905
G01 X-0.5318 Y3.1138
G01 X-0.5461 Y3.1381
G01 X-0.5659 Y3.1755
G01 X-0.5773 Y3.2011
G01 X-0.5928 Y3.2406
G01 X-0.6014 Y3.2673
G01 X-0.6123 Y3.3082
G01 X-0.6178 Y3.3358
G01 X-0.6241 Y3.3777
G01 X-0.6279 Y3.4339
G01 X-0.6281 Y16.3260
G01 X-0.6265 Y16.3683
G01 X-0.6241 Y16.3963
G01 X-0.6178 Y16.4382
G01 X-0.6123 Y16.4658
G01 X-0.6014 Y16.5067
G01 X-0.5928 Y16.5334
G01 X-0.5773 Y16.5729
G01 X-0.5659 Y16.5985
G01 X-0.5461 Y16.6359
G01 X-0.5318 Y16.6602
G01 X-0.5162 Y16.6835
G01 X-0.4910 Y16.7176
G01 X-0.4634 Y16.7497
G01 X-0.4441 Y16.7701
G01 X-0.4237 Y16.7894
G01 X-0.3916 Y16.8170
G01 X-0.3575 Y16.8422
G01 X-0.3341 Y16.8578
G01 X-0.2975 Y16.8790
G01 X-0.2725 Y16.8919
G01 X-0.2337 Y16.9088
G01 X-0.2074 Y16.9188
G01 X-0.1807 Y16.9274
G01 X-0.1398 Y16.9383
G01 X-0.0981 Y16.9462
G01 X-0.0703 Y16.9501
G01 X-0.0141 Y16.9539
G01 X6.9650 Y16.9541
G01 X7.0073 Y16.9525
G01 X7.0353 Y16.9501
G01 X7.0772 Y16.9438
G01 X7.1048 Y16.9383
G01 X7.1457 Y16.9274
G01 X7.1724 Y16.9188
G01 X7.2119 Y16.9033
G01 X7.2375 Y16.8919
G01 X7.2749 Y16.8721
G01 X7.2991 Y16.8578
G01 X7.3225 Y16.8422
G01 X7.3566 Y16.8170
G01 X7.3887 Y16.7894
G01 X7.4091 Y16.7701
G01 X7.4284 Y16.7497
G01 X7.4560 Y16.7176
G01 X7.4729 Y16.6951
G01 X7.4968 Y16.6602
G01 X7.5111 Y16.6359
G01 X7.5309 Y16.5985
G01 X7.5478 Y16.5597
G01 X7.5578 Y16.5334
G01 X7.5664 Y16.5067
G01 X7.5773 Y16.4658
G01 X7.5852 Y16.4241
G01 X7.5891 Y16.3963
G01 X7.5929 Y16.3401
G01 X7.5931 Y3.4480
G01 X7.5923 Y3.4199
G01 X7.5891 Y3.3777
G01 X7.5852 Y3.3499
G01 X7.5773 Y3.3082
G01 X7.5703 Y3.2810
G01 X7.5578 Y3.2406
G01 X7.5478 Y3.2143
G01 X7.5309 Y3.1755
G01 X7.5180 Y3.1505
G01 X7.4968 Y3.1138
G01 X7.4729 Y3.0789
G01 X7.4560 Y3.0564
G01 X7.4379 Y3.0349
G01 X7.4091 Y3.0039
G01 X7.3781 Y2.9751
G01 X7.3566 Y2.9570
G01 X7.3341 Y2.9401
G01 X7.2992 Y2.9162
G01 X7.2749 Y2.9019
G01 X7.2375 Y2.8821
G01 X7.1987 Y2.8652
G01 X7.1724 Y2.8552
G01 X7.1457 Y2.8466
G01 X7.1048 Y2.8357
G01 X7.0631 Y2.8278
G01 X7.0353 Y2.8239
G01 X6.9931 Y2.8207
G01 X6.9650 Y2.8199
G01 X0.0000 Y2.8199
G00 Z2.5400
M05
G00 Z2.5400
G00 Z10.00
G00 X0.0 Y0.0

