(G-CODE GENERATED BY FLATCAM v8.912 - www.flatcam.org - Version Date: 2019/03/17)

(Name: copper_bottom.gbr_iso_cnc)
(Type: G-code from Geometry)
(Units: MM)

(Created on Monday, 26 July 2021 at 16:32)

(TOOL DIAMETER: 0.11 mm)
(Feedrate: 76.2 mm/min)
(Feedrate_Z: 76.2 mm/min)
(Feedrate rapids 76.2 mm/min)

(Z_Cut: -0.0508 mm)
(Z_Move: 2.54 mm)
(Z Toolchange: 25.4 mm)
(X,Y Toolchange: 0.0000, 0.0000 mm)
(Z Start: None mm)
(Z End: 10.8 mm)
(Steps per circle: 64)
(Postprocessor Geometry: default)

(X range:    0.3486 ...   67.7823  mm)
(Y range:    0.3486 ...   39.0925  mm)

(Spindle Speed: None RPM)

G21
G90
G94

G01 F76.20
G00 Z2.5400

M03
G00 X9.0393 Y0.6490
G01 F76.20
G01 Z-0.0508
G01 F76.20
G01 X9.0654 Y0.6478
G01 X59.0707 Y0.6479
G01 X59.0916 Y0.6490
G01 X60.6818 Y0.8057
G01 X60.7221 Y0.8131
G01 X60.7331 Y0.8159
G01 X62.2621 Y1.2797
G01 X62.2728 Y1.2835
G01 X62.3103 Y1.2997
G01 X63.7196 Y2.0529
G01 X63.7293 Y2.0588
G01 X63.7631 Y2.0820
G01 X64.9983 Y3.0957
G01 X65.0277 Y3.1243
G01 X65.0352 Y3.1326
G01 X66.0489 Y4.3678
G01 X66.0721 Y4.4016
G01 X66.0780 Y4.4113
G01 X66.8312 Y5.8206
G01 X66.8474 Y5.8581
G01 X66.8512 Y5.8688
G01 X67.3150 Y7.3978
G01 X67.3178 Y7.4088
G01 X67.3252 Y7.4491
G01 X67.4823 Y9.0452
G01 X67.4831 Y9.0655
G01 X67.4831 Y30.3756
G01 X67.4823 Y30.3959
G01 X67.3252 Y31.9919
G01 X67.3178 Y32.0322
G01 X67.3150 Y32.0432
G01 X66.8512 Y33.5723
G01 X66.8474 Y33.5830
G01 X66.8312 Y33.6206
G01 X66.0780 Y35.0298
G01 X66.0723 Y35.0393
G01 X66.0489 Y35.0733
G01 X65.0352 Y36.3084
G01 X65.0068 Y36.3377
G01 X64.9983 Y36.3454
G01 X63.7631 Y37.3591
G01 X63.7293 Y37.3823
G01 X63.7196 Y37.3882
G01 X62.3103 Y38.1414
G01 X62.3001 Y38.1462
G01 X62.2621 Y38.1613
G01 X60.7331 Y38.6252
G01 X60.7221 Y38.6280
G01 X60.6818 Y38.6354
G01 X59.0916 Y38.7920
G01 X59.0715 Y38.7932
G01 X19.4485 Y38.7928
G01 X19.3831 Y38.7811
G01 X19.3690 Y38.7775
G01 X19.3554 Y38.7721
G01 X19.3426 Y38.7650
G01 X19.2915 Y38.7323
G01 X19.2822 Y38.7257
G01 X19.2736 Y38.7182
G01 X19.2658 Y38.7098
G01 X19.2589 Y38.7007
G01 X19.2246 Y38.6507
G01 X19.2186 Y38.6410
G01 X19.2136 Y38.6307
G01 X19.2097 Y38.6200
G01 X19.2069 Y38.6089
G01 X19.1930 Y38.5382
G01 X19.1925 Y38.5267
G01 X19.1925 Y36.4360
G01 X19.0809 Y36.3244
G01 X16.7230 Y36.3244
G01 X16.6577 Y36.3891
G01 X16.6032 Y36.4270
G01 X16.5906 Y36.4345
G01 X16.5771 Y36.4403
G01 X16.5631 Y36.4444
G01 X16.5038 Y36.4574
G01 X16.4925 Y36.4593
G01 X16.4811 Y36.4600
G01 X16.4697 Y36.4596
G01 X16.4584 Y36.4581
G01 X16.3988 Y36.4470
G01 X16.3877 Y36.4444
G01 X16.3769 Y36.4406
G01 X16.3665 Y36.4358
G01 X16.3060 Y36.3965
G01 X16.2968 Y36.3896
G01 X16.2883 Y36.3819
G01 X16.2308 Y36.3244
G01 X14.0684 Y36.3244
G01 X14.0282 Y36.3520
G01 X14.0156 Y36.3595
G01 X14.0021 Y36.3653
G01 X13.9881 Y36.3694
G01 X13.9288 Y36.3824
G01 X13.9175 Y36.3843
G01 X13.9061 Y36.3850
G01 X13.8947 Y36.3846
G01 X13.8834 Y36.3831
G01 X13.8238 Y36.3720
G01 X13.8127 Y36.3694
G01 X13.8019 Y36.3656
G01 X13.7915 Y36.3608
G01 X13.7816 Y36.3550
G01 X13.7355 Y36.3244
G01 X11.5730 Y36.3244
G01 X11.5077 Y36.3891
G01 X11.4532 Y36.4270
G01 X11.4406 Y36.4345
G01 X11.4271 Y36.4403
G01 X11.4131 Y36.4444
G01 X11.3538 Y36.4574
G01 X11.3425 Y36.4593
G01 X11.3311 Y36.4600
G01 X11.3197 Y36.4596
G01 X11.3084 Y36.4581
G01 X11.2488 Y36.4470
G01 X11.2377 Y36.4444
G01 X11.2269 Y36.4406
G01 X11.2165 Y36.4358
G01 X11.1560 Y36.3965
G01 X11.1468 Y36.3896
G01 X11.1383 Y36.3819
G01 X11.0808 Y36.3244
G01 X8.7229 Y36.3244
G01 X8.6113 Y36.4360
G01 X8.6113 Y38.4557
G01 X8.6106 Y38.4690
G01 X8.6082 Y38.4821
G01 X8.5919 Y38.5507
G01 X8.5884 Y38.5626
G01 X8.5836 Y38.5741
G01 X8.5776 Y38.5850
G01 X8.5704 Y38.5951
G01 X8.5253 Y38.6513
G01 X8.5170 Y38.6591
G01 X8.5080 Y38.6660
G01 X8.4982 Y38.6720
G01 X8.4349 Y38.7062
G01 X8.4241 Y38.7101
G01 X8.4131 Y38.7130
G01 X8.3415 Y38.7209
G01 X8.3300 Y38.7215
G01 X8.3186 Y38.7210
G01 X7.4491 Y38.6354
G01 X7.4088 Y38.6280
G01 X7.3978 Y38.6252
G01 X5.8687 Y38.1613
G01 X5.8307 Y38.1462
G01 X5.8204 Y38.1414
G01 X4.4112 Y37.3882
G01 X4.4016 Y37.3823
G01 X4.3678 Y37.3591
G01 X3.1326 Y36.3454
G01 X3.1241 Y36.3377
G01 X3.0957 Y36.3084
G01 X2.0820 Y35.0733
G01 X2.0752 Y35.0642
G01 X2.0530 Y35.0298
G01 X1.2997 Y33.6206
G01 X1.2948 Y33.6103
G01 X1.2797 Y33.5723
G01 X0.8159 Y32.0432
G01 X0.8073 Y32.0033
G01 X0.8056 Y31.9919
G01 X0.6490 Y30.4017
G01 X0.6478 Y30.3756
G01 X0.6478 Y9.0655
G01 X0.6490 Y9.0393
G01 X0.8056 Y7.4491
G01 X0.8130 Y7.4088
G01 X0.8158 Y7.3978
G01 X1.2797 Y5.8688
G01 X1.2834 Y5.8584
G01 X1.2996 Y5.8205
G01 X2.0529 Y4.4112
G01 X2.0588 Y4.4016
G01 X2.0820 Y4.3678
G01 X3.0957 Y3.1326
G01 X3.1243 Y3.1032
G01 X3.1326 Y3.0957
G01 X4.3678 Y2.0820
G01 X4.4016 Y2.0588
G01 X4.4112 Y2.0529
G01 X5.8204 Y1.2997
G01 X5.8580 Y1.2835
G01 X5.8687 Y1.2797
G01 X7.3978 Y0.8159
G01 X7.4088 Y0.8131
G01 X7.4491 Y0.8057
G01 X9.0393 Y0.6490
G00 Z2.5400
G00 X9.0452 Y0.7086
G01 F76.20
G01 Z-0.0508
G01 F76.20
G01 X9.0654 Y0.7076
G01 X59.0679 Y0.7077
G01 X59.0857 Y0.7086
G01 X60.6759 Y0.8653
G01 X60.7157 Y0.8731
G01 X62.2498 Y1.3388
G01 X62.2821 Y1.3525
G01 X63.6961 Y2.1085
G01 X63.7251 Y2.1282
G01 X64.9603 Y3.1419
G01 X64.9854 Y3.1666
G01 X66.0027 Y4.4058
G01 X66.0252 Y4.4395
G01 X66.7784 Y5.8488
G01 X66.7921 Y5.8811
G01 X67.2578 Y7.4152
G01 X67.2656 Y7.4550
G01 X67.4225 Y9.0480
G01 X67.4233 Y9.0655
G01 X67.4233 Y30.3756
G01 X67.4225 Y30.3931
G01 X67.2656 Y31.9860
G01 X67.2591 Y32.0206
G01 X66.7940 Y33.5549
G01 X66.7784 Y33.5923
G01 X66.0225 Y35.0061
G01 X66.0027 Y35.0353
G01 X64.9890 Y36.2704
G01 X64.9644 Y36.2955
G01 X63.7251 Y37.3129
G01 X63.6914 Y37.3354
G01 X62.2773 Y38.0909
G01 X62.2447 Y38.1041
G01 X60.7157 Y38.5680
G01 X60.6759 Y38.5758
G01 X59.0857 Y38.7324
G01 X59.0683 Y38.7334
G01 X19.4541 Y38.7333
G01 X19.3942 Y38.7223
G01 X19.3810 Y38.7180
G01 X19.3238 Y38.6819
G01 X19.3153 Y38.6752
G01 X19.3082 Y38.6669
G01 X19.2739 Y38.6169
G01 X19.2687 Y38.6073
G01 X19.2655 Y38.5970
G01 X19.2526 Y38.5322
G01 X19.2523 Y36.4112
G01 X19.1057 Y36.2646
G01 X16.6982 Y36.2646
G01 X16.6195 Y36.3430
G01 X16.5694 Y36.3777
G01 X16.5570 Y36.3840
G01 X16.5502 Y36.3859
G01 X16.4909 Y36.3989
G01 X16.4802 Y36.4002
G01 X16.4693 Y36.3993
G01 X16.4097 Y36.3882
G01 X16.3993 Y36.3851
G01 X16.3897 Y36.3801
G01 X16.3347 Y36.3433
G01 X16.2556 Y36.2646
G01 X14.0482 Y36.2646
G01 X14.0405 Y36.2711
G01 X13.9944 Y36.3027
G01 X13.9820 Y36.3090
G01 X13.9159 Y36.3239
G01 X13.9052 Y36.3252
G01 X13.8943 Y36.3243
G01 X13.8347 Y36.3132
G01 X13.8243 Y36.3101
G01 X13.8147 Y36.3051
G01 X13.7641 Y36.2716
G01 X13.7556 Y36.2646
G01 X11.5482 Y36.2646
G01 X11.4695 Y36.3430
G01 X11.4194 Y36.3777
G01 X11.4070 Y36.3840
G01 X11.4002 Y36.3859
G01 X11.3409 Y36.3989
G01 X11.3302 Y36.4002
G01 X11.3193 Y36.3993
G01 X11.2597 Y36.3882
G01 X11.2493 Y36.3851
G01 X11.2397 Y36.3801
G01 X11.1847 Y36.3433
G01 X11.1056 Y36.2646
G01 X8.6981 Y36.2646
G01 X8.5515 Y36.4112
G01 X8.5511 Y38.4620
G01 X8.5337 Y38.5369
G01 X8.5298 Y38.5480
G01 X8.5235 Y38.5580
G01 X8.4859 Y38.6056
G01 X8.4783 Y38.6134
G01 X8.4694 Y38.6196
G01 X8.4163 Y38.6488
G01 X8.4063 Y38.6530
G01 X8.3957 Y38.6552
G01 X8.3354 Y38.6614
G01 X8.3245 Y38.6614
G01 X7.4550 Y38.5758
G01 X7.4204 Y38.5693
G01 X5.8861 Y38.1041
G01 X5.8487 Y38.0886
G01 X4.4348 Y37.3326
G01 X4.4058 Y37.3129
G01 X3.1665 Y36.2955
G01 X3.1419 Y36.2704
G01 X2.1250 Y35.0310
G01 X2.1057 Y35.0015
G01 X1.3501 Y33.5875
G01 X1.3369 Y33.5549
G01 X0.8731 Y32.0258
G01 X0.8652 Y31.9860
G01 X0.7086 Y30.3958
G01 X0.7076 Y30.3756
G01 X0.7076 Y9.0655
G01 X0.7086 Y9.0452
G01 X0.8652 Y7.4550
G01 X0.8730 Y7.4152
G01 X1.3387 Y5.8812
G01 X1.3524 Y5.8488
G01 X2.1057 Y4.4395
G01 X2.1282 Y4.4058
G01 X3.1419 Y3.1706
G01 X3.1706 Y3.1419
G01 X4.4058 Y2.1282
G01 X4.4348 Y2.1085
G01 X5.8487 Y1.3525
G01 X5.8810 Y1.3388
G01 X7.4204 Y0.8718
G01 X7.4550 Y0.8653
G01 X9.0452 Y0.7086
G00 Z2.5400
G00 X10.1284 Y6.8616
G01 F76.20
G01 Z-0.0508
G01 F76.20
G01 X10.9350 Y7.0777
G01 X11.6582 Y7.4952
G01 X12.2487 Y8.0857
G01 X12.6662 Y8.8089
G01 X12.8823 Y9.6155
G01 X12.8823 Y10.4505
G01 X12.6662 Y11.2571
G01 X12.2487 Y11.9803
G01 X11.6582 Y12.5708
G01 X10.9350 Y12.9883
G01 X10.1284 Y13.2044
G01 X9.2934 Y13.2044
G01 X8.4868 Y12.9883
G01 X7.7636 Y12.5708
G01 X7.1731 Y11.9803
G01 X6.7556 Y11.2571
G01 X6.5395 Y10.4505
G01 X6.5395 Y9.6155
G01 X6.7556 Y8.8089
G01 X7.1731 Y8.0857
G01 X7.7636 Y7.4952
G01 X8.4868 Y7.0777
G01 X9.2934 Y6.8616
G01 X10.1284 Y6.8616
G00 Z2.5400
G00 X10.1206 Y6.9214
G01 F76.20
G01 Z-0.0508
G01 F76.20
G01 X10.9119 Y7.1335
G01 X11.6215 Y7.5431
G01 X12.2008 Y8.1224
G01 X12.6104 Y8.8320
G01 X12.8225 Y9.6233
G01 X12.8225 Y10.4427
G01 X12.6104 Y11.2340
G01 X12.2008 Y11.9436
G01 X11.6215 Y12.5229
G01 X10.9119 Y12.9325
G01 X10.1206 Y13.1446
G01 X9.3012 Y13.1446
G01 X8.5099 Y12.9325
G01 X7.8003 Y12.5229
G01 X7.2210 Y11.9436
G01 X6.8114 Y11.2340
G01 X6.5993 Y10.4427
G01 X6.5993 Y9.6233
G01 X6.8114 Y8.8320
G01 X7.2210 Y8.1224
G01 X7.8003 Y7.5431
G01 X8.5099 Y7.1335
G01 X9.3012 Y6.9214
G01 X10.1206 Y6.9214
G00 Z2.5400
G00 X6.7356 Y10.0361
G01 F76.20
G01 Z-0.0508
G01 F76.20
G01 X6.7542 Y9.6999
G01 X6.8095 Y9.3739
G01 X6.9036 Y9.0474
G01 X7.0302 Y8.7420
G01 X7.1916 Y8.4500
G01 X7.3846 Y8.1779
G01 X7.6070 Y7.9291
G01 X7.8558 Y7.7067
G01 X8.1279 Y7.5137
G01 X8.4199 Y7.3523
G01 X8.7253 Y7.2257
G01 X9.0518 Y7.1316
G01 X9.3778 Y7.0763
G01 X9.7109 Y7.0576
G01 X10.0440 Y7.0763
G01 X10.3730 Y7.1322
G01 X10.6936 Y7.2246
G01 X10.9991 Y7.3510
G01 X11.2964 Y7.5154
G01 X11.5660 Y7.7067
G01 X11.8148 Y7.9291
G01 X12.0372 Y8.1779
G01 X12.2302 Y8.4500
G01 X12.3916 Y8.7420
G01 X12.5182 Y9.0474
G01 X12.6123 Y9.3739
G01 X12.6676 Y9.6999
G01 X12.6863 Y10.0330
G01 X12.6676 Y10.3661
G01 X12.6123 Y10.6921
G01 X12.5182 Y11.0186
G01 X12.3916 Y11.3240
G01 X12.2302 Y11.6160
G01 X12.0372 Y11.8881
G01 X11.8148 Y12.1369
G01 X11.5660 Y12.3593
G01 X11.2964 Y12.5506
G01 X10.9991 Y12.7150
G01 X10.6936 Y12.8414
G01 X10.3730 Y12.9338
G01 X10.0440 Y12.9897
G01 X9.7109 Y13.0084
G01 X9.3778 Y12.9897
G01 X9.0518 Y12.9344
G01 X8.7253 Y12.8403
G01 X8.4199 Y12.7137
G01 X8.1279 Y12.5523
G01 X7.8558 Y12.3593
G01 X7.6070 Y12.1369
G01 X7.3846 Y11.8881
G01 X7.1933 Y11.6185
G01 X7.0289 Y11.3212
G01 X6.9025 Y11.0157
G01 X6.8101 Y10.6951
G01 X6.7542 Y10.3661
G01 X6.7356 Y10.0361
G00 Z2.5400
G00 X6.6758 Y10.0394
G01 F76.20
G01 Z-0.0508
G01 F76.20
G01 X6.6758 Y10.0266
G01 X6.6947 Y9.6932
G01 X6.7505 Y9.3639
G01 X6.7534 Y9.3514
G01 X6.8440 Y9.0366
G01 X6.8483 Y9.0245
G01 X6.9762 Y8.7161
G01 X7.1409 Y8.4182
G01 X7.3379 Y8.1406
G01 X7.5647 Y7.8868
G01 X7.8185 Y7.6600
G01 X8.0961 Y7.4630
G01 X8.3940 Y7.2983
G01 X8.7024 Y7.1704
G01 X8.7145 Y7.1661
G01 X9.0293 Y7.0755
G01 X9.0418 Y7.0726
G01 X9.3711 Y7.0168
G01 X9.7109 Y6.9978
G01 X10.0507 Y7.0168
G01 X10.3863 Y7.0739
G01 X10.7134 Y7.1681
G01 X11.0220 Y7.2957
G01 X11.0335 Y7.3013
G01 X11.3202 Y7.4597
G01 X11.3311 Y7.4665
G01 X11.6033 Y7.6600
G01 X11.8571 Y7.8868
G01 X12.0839 Y8.1406
G01 X12.2809 Y8.4182
G01 X12.4456 Y8.7161
G01 X12.5735 Y9.0245
G01 X12.5778 Y9.0366
G01 X12.6684 Y9.3514
G01 X12.6713 Y9.3639
G01 X12.7271 Y9.6932
G01 X12.7461 Y10.0330
G01 X12.7271 Y10.3728
G01 X12.6713 Y10.7021
G01 X12.6684 Y10.7146
G01 X12.5778 Y11.0294
G01 X12.5735 Y11.0415
G01 X12.4456 Y11.3499
G01 X12.2809 Y11.6478
G01 X12.0839 Y11.9254
G01 X11.8571 Y12.1792
G01 X11.6033 Y12.4060
G01 X11.3311 Y12.5995
G01 X11.3202 Y12.6063
G01 X11.0335 Y12.7647
G01 X11.0220 Y12.7703
G01 X10.7134 Y12.8979
G01 X10.3863 Y12.9921
G01 X10.0507 Y13.0492
G01 X9.7109 Y13.0682
G01 X9.3711 Y13.0492
G01 X9.0418 Y12.9934
G01 X9.0293 Y12.9905
G01 X8.7145 Y12.8999
G01 X8.7024 Y12.8956
G01 X8.3940 Y12.7677
G01 X8.0961 Y12.6030
G01 X7.8185 Y12.4060
G01 X7.5647 Y12.1792
G01 X7.3379 Y11.9254
G01 X7.1444 Y11.6532
G01 X7.1376 Y11.6423
G01 X6.9792 Y11.3556
G01 X6.9736 Y11.3441
G01 X6.8460 Y11.0355
G01 X6.7518 Y10.7084
G01 X6.6947 Y10.3728
G01 X6.6758 Y10.0394
G00 Z2.5400
G00 X7.0536 Y19.2932
G01 F76.20
G01 Z-0.0508
G01 F76.20
G01 X7.0686 Y19.3021
G01 X7.0841 Y19.3093
G01 X7.1002 Y19.3150
G01 X7.1168 Y19.3191
G01 X7.1740 Y19.3302
G01 X7.1905 Y19.3326
G01 X7.2072 Y19.3334
G01 X8.8241 Y19.3334
G01 X8.8415 Y19.3325
G01 X8.8588 Y19.3299
G01 X8.9183 Y19.3178
G01 X8.9402 Y19.3118
G01 X8.9612 Y19.3031
G01 X8.9808 Y19.2916
G01 X9.0291 Y19.2591
G01 X9.0426 Y19.2491
G01 X9.0550 Y19.2378
G01 X9.3779 Y18.9149
G01 X9.5939 Y18.8254
G01 X17.0492 Y18.8254
G01 X17.2652 Y18.9149
G01 X18.5986 Y20.2483
G01 X18.6116 Y20.2600
G01 X18.6256 Y20.2704
G01 X18.6762 Y20.3039
G01 X18.6912 Y20.3127
G01 X18.7070 Y20.3201
G01 X18.7235 Y20.3258
G01 X18.7404 Y20.3298
G01 X18.8000 Y20.3409
G01 X18.8173 Y20.3433
G01 X18.8347 Y20.3439
G01 X18.8520 Y20.3427
G01 X18.8692 Y20.3398
G01 X18.9285 Y20.3268
G01 X18.9453 Y20.3222
G01 X18.9617 Y20.3160
G01 X18.9773 Y20.3081
G01 X18.9920 Y20.2987
G01 X19.0414 Y20.2636
G01 X19.0551 Y20.2529
G01 X19.0676 Y20.2408
G01 X19.0788 Y20.2275
G01 X19.0887 Y20.2132
G01 X19.1206 Y20.1616
G01 X19.1309 Y20.1423
G01 X19.1387 Y20.1219
G01 X19.1439 Y20.1007
G01 X19.1533 Y20.0480
G01 X19.1553 Y20.0327
G01 X19.1560 Y20.0174
G01 X19.1560 Y5.5980
G01 X19.2455 Y5.3820
G01 X21.5569 Y3.0706
G01 X21.7729 Y2.9811
G01 X59.7185 Y2.9811
G01 X59.9345 Y3.0706
G01 X64.7609 Y7.8967
G01 X64.9705 Y8.1066
G01 X65.0600 Y8.3228
G01 X65.0326 Y33.1189
G01 X64.9430 Y33.3350
G01 X61.6059 Y36.6718
G01 X61.3899 Y36.7613
G01 X58.7007 Y36.7613
G01 X58.6832 Y36.7622
G01 X58.6660 Y36.7648
G01 X58.6066 Y36.7769
G01 X58.5897 Y36.7812
G01 X58.5733 Y36.7872
G01 X58.5577 Y36.7948
G01 X58.5428 Y36.8040
G01 X58.4928 Y36.8383
G01 X58.4790 Y36.8488
G01 X58.4684 Y36.8587
G01 X58.4684 Y36.6016
G01 X61.2778 Y36.6015
G01 X61.3111 Y36.5997
G01 X61.3305 Y36.5975
G01 X61.3682 Y36.5909
G01 X61.4050 Y36.5805
G01 X61.4235 Y36.5741
G01 X61.4587 Y36.5592
G01 X61.5007 Y36.5360
G01 X61.5399 Y36.5082
G01 X61.5757 Y36.4762
G01 X64.7509 Y33.3009
G01 X64.7795 Y33.2686
G01 X64.8070 Y33.2298
G01 X64.8303 Y33.1878
G01 X64.8452 Y33.1526
G01 X64.8518 Y33.1337
G01 X64.8596 Y33.1068
G01 X64.8641 Y33.0873
G01 X64.8702 Y33.0495
G01 X64.8728 Y33.0069
G01 X64.9001 Y8.4399
G01 X64.8975 Y8.3919
G01 X64.8914 Y8.3542
G01 X64.8869 Y8.3347
G01 X64.8762 Y8.2983
G01 X64.8619 Y8.2630
G01 X64.8532 Y8.2449
G01 X64.8347 Y8.2119
G01 X64.8128 Y8.1806
G01 X64.8004 Y8.1650
G01 X64.7750 Y8.1369
G01 X59.9043 Y3.2662
G01 X59.8685 Y3.2342
G01 X59.8374 Y3.2119
G01 X59.8209 Y3.2015
G01 X59.7873 Y3.1832
G01 X59.7521 Y3.1683
G01 X59.7336 Y3.1619
G01 X59.6968 Y3.1515
G01 X59.6494 Y3.1435
G01 X59.6015 Y3.1408
G01 X21.8899 Y3.1408
G01 X21.8517 Y3.1427
G01 X21.8323 Y3.1449
G01 X21.7946 Y3.1515
G01 X21.7578 Y3.1619
G01 X21.7393 Y3.1683
G01 X21.7041 Y3.1832
G01 X21.6621 Y3.2064
G01 X21.6229 Y3.2342
G01 X21.5871 Y3.2662
G01 X19.4377 Y5.4157
G01 X19.4091 Y5.4480
G01 X19.3868 Y5.4791
G01 X19.3764 Y5.4956
G01 X19.3581 Y5.5292
G01 X19.3432 Y5.5644
G01 X19.3368 Y5.5829
G01 X19.3264 Y5.6197
G01 X19.3184 Y5.6671
G01 X19.3157 Y5.7150
G01 X19.3157 Y27.3816
G01 X18.2965 Y28.4008
G01 X17.1497 Y28.4008
G01 X17.1497 Y28.0735
G01 X17.1832 Y28.1224
G01 X17.1937 Y28.1363
G01 X17.2056 Y28.1491
G01 X17.2188 Y28.1606
G01 X17.2330 Y28.1707
G01 X17.2841 Y28.2034
G01 X17.3036 Y28.2142
G01 X17.3244 Y28.2225
G01 X17.3461 Y28.2280
G01 X17.4010 Y28.2382
G01 X17.4168 Y28.2403
G01 X17.4328 Y28.2411
G01 X18.0951 Y28.2411
G01 X18.1125 Y28.2402
G01 X18.1298 Y28.2376
G01 X18.1893 Y28.2255
G01 X18.2112 Y28.2195
G01 X18.2322 Y28.2108
G01 X18.2518 Y28.1993
G01 X18.3001 Y28.1668
G01 X18.3136 Y28.1568
G01 X18.3260 Y28.1455
G01 X19.0604 Y27.4111
G01 X19.0721 Y27.3981
G01 X19.0825 Y27.3841
G01 X19.1160 Y27.3335
G01 X19.1247 Y27.3188
G01 X19.1319 Y27.3033
G01 X19.1376 Y27.2872
G01 X19.1417 Y27.2706
G01 X19.1528 Y27.2134
G01 X19.1552 Y27.1969
G01 X19.1560 Y27.1802
G01 X19.1560 Y25.0676
G01 X19.1551 Y25.0502
G01 X19.1525 Y25.0329
G01 X19.1404 Y24.9734
G01 X19.1361 Y24.9565
G01 X19.1301 Y24.9402
G01 X19.1225 Y24.9245
G01 X19.1133 Y24.9096
G01 X19.0790 Y24.8596
G01 X19.0685 Y24.8458
G01 X19.0566 Y24.8331
G01 X19.0435 Y24.8216
G01 X19.0293 Y24.8115
G01 X18.9782 Y24.7788
G01 X18.9631 Y24.7701
G01 X18.9472 Y24.7630
G01 X18.9307 Y24.7576
G01 X18.9137 Y24.7538
G01 X18.8539 Y24.7436
G01 X18.8365 Y24.7415
G01 X18.8190 Y24.7412
G01 X18.8016 Y24.7426
G01 X18.7844 Y24.7458
G01 X18.7254 Y24.7598
G01 X18.7046 Y24.7662
G01 X18.6847 Y24.7751
G01 X18.6661 Y24.7864
G01 X18.6222 Y24.8170
G01 X18.6099 Y24.8263
G01 X18.5986 Y24.8367
G01 X18.0449 Y25.3904
G01 X17.8289 Y25.4799
G01 X17.0974 Y25.4799
G01 X17.0799 Y25.4808
G01 X17.0627 Y25.4834
G01 X17.0033 Y25.4955
G01 X16.9864 Y25.4998
G01 X16.9701 Y25.5058
G01 X16.9545 Y25.5134
G01 X16.9276 Y25.5307
G01 X16.8651 Y25.5307
G01 X16.8649 Y25.4975
G01 X16.8628 Y25.4779
G01 X16.8585 Y25.4586
G01 X16.8521 Y25.4400
G01 X16.8436 Y25.4222
G01 X16.8331 Y25.4055
G01 X16.8209 Y25.3901
G01 X16.8069 Y25.3761
G01 X16.7915 Y25.3639
G01 X16.7748 Y25.3534
G01 X16.7570 Y25.3449
G01 X16.7384 Y25.3385
G01 X16.7191 Y25.3342
G01 X16.6910 Y25.3319
G01 X15.4910 Y25.3319
G01 X15.4629 Y25.3342
G01 X15.4436 Y25.3385
G01 X15.4250 Y25.3449
G01 X15.4111 Y25.3516
G01 X15.4102 Y25.3288
G01 X15.4076 Y25.3115
G01 X15.3952 Y25.2511
G01 X15.4072 Y25.2586
G01 X15.4250 Y25.2671
G01 X15.4436 Y25.2735
G01 X15.4629 Y25.2778
G01 X15.4825 Y25.2799
G01 X15.9713 Y25.2801
G01 X16.0106 Y25.2962
G01 X16.0567 Y25.3095
G01 X16.1041 Y25.3175
G01 X16.1471 Y25.3201
G01 X17.7119 Y25.3202
G01 X17.7598 Y25.3175
G01 X17.8072 Y25.3095
G01 X17.8533 Y25.2962
G01 X17.8888 Y25.2818
G01 X17.9064 Y25.2733
G01 X17.9397 Y25.2546
G01 X17.9711 Y25.2327
G01 X17.9863 Y25.2205
G01 X18.0112 Y25.1982
G01 X18.5294 Y24.6797
G01 X18.5547 Y24.6510
G01 X18.5825 Y24.6118
G01 X18.6057 Y24.5698
G01 X18.6206 Y24.5346
G01 X18.6270 Y24.5161
G01 X18.6374 Y24.4793
G01 X18.6440 Y24.4416
G01 X18.6462 Y24.4222
G01 X18.6481 Y24.3840
G01 X18.6481 Y20.7010
G01 X18.6454 Y20.6531
G01 X18.6393 Y20.6153
G01 X18.6349 Y20.5963
G01 X18.6241 Y20.5596
G01 X18.6097 Y20.5241
G01 X18.6012 Y20.5065
G01 X18.5874 Y20.4816
G01 X18.5770 Y20.4651
G01 X18.5547 Y20.4340
G01 X18.5261 Y20.4017
G01 X17.2350 Y19.1105
G01 X17.1992 Y19.0785
G01 X17.1681 Y19.0562
G01 X17.1516 Y19.0458
G01 X17.1180 Y19.0275
G01 X17.0736 Y19.0091
G01 X17.0369 Y18.9983
G01 X17.0179 Y18.9939
G01 X16.9801 Y18.9878
G01 X16.9322 Y18.9851
G01 X9.7060 Y18.9852
G01 X9.6630 Y18.9878
G01 X9.6252 Y18.9939
G01 X9.6062 Y18.9983
G01 X9.5695 Y19.0091
G01 X9.5340 Y19.0235
G01 X9.5164 Y19.0320
G01 X9.4831 Y19.0507
G01 X9.4517 Y19.0726
G01 X9.4365 Y19.0848
G01 X9.4081 Y19.1105
G01 X9.0255 Y19.4931
G01 X7.0579 Y19.4931
G01 X7.0579 Y19.3301
G01 X7.0556 Y19.3020
G01 X7.0536 Y19.2932
G00 Z2.5400
G00 X7.0566 Y20.4494
G01 F76.20
G01 Z-0.0508
G01 F76.20
G01 X7.0748 Y20.4270
G01 X7.0858 Y20.4093
G01 X9.2029 Y20.4093
G01 X9.2575 Y20.4063
G01 X9.2986 Y20.3997
G01 X9.3242 Y20.3938
G01 X9.3641 Y20.3820
G01 X9.4147 Y20.3610
G01 X9.4626 Y20.3345
G01 X9.5072 Y20.3029
G01 X9.5480 Y20.2664
G01 X9.9131 Y19.9013
G01 X16.7300 Y19.9013
G01 X17.7319 Y20.9032
G01 X17.7319 Y24.1818
G01 X17.5097 Y24.4040
G01 X16.8685 Y24.4040
G01 X16.8468 Y24.3815
G01 X16.8243 Y24.3639
G01 X17.3055 Y24.3639
G01 X17.3290 Y24.3627
G01 X17.3522 Y24.3592
G01 X17.4116 Y24.3471
G01 X17.4342 Y24.3413
G01 X17.4561 Y24.3333
G01 X17.4771 Y24.3231
G01 X17.4970 Y24.3109
G01 X17.5471 Y24.2766
G01 X17.5658 Y24.2624
G01 X17.5830 Y24.2464
G01 X17.5984 Y24.2288
G01 X17.6120 Y24.2097
G01 X17.6447 Y24.1586
G01 X17.6593 Y24.1323
G01 X17.6703 Y24.1044
G01 X17.6777 Y24.0752
G01 X17.6879 Y24.0203
G01 X17.6908 Y23.9991
G01 X17.6918 Y23.9776
G01 X17.6918 Y21.0798
G01 X17.6906 Y21.0564
G01 X17.6871 Y21.0332
G01 X17.6750 Y20.9737
G01 X17.6670 Y20.9442
G01 X17.6552 Y20.9161
G01 X17.6399 Y20.8897
G01 X17.6074 Y20.8414
G01 X17.5939 Y20.8233
G01 X17.5787 Y20.8066
G01 X16.8266 Y20.0545
G01 X16.8092 Y20.0388
G01 X16.7903 Y20.0249
G01 X16.7397 Y19.9914
G01 X16.7200 Y19.9796
G01 X16.6992 Y19.9699
G01 X16.6775 Y19.9622
G01 X16.6552 Y19.9568
G01 X16.5980 Y19.9457
G01 X16.5758 Y19.9425
G01 X16.5534 Y19.9414
G01 X10.0897 Y19.9414
G01 X10.0663 Y19.9426
G01 X10.0431 Y19.9461
G01 X9.9836 Y19.9582
G01 X9.9541 Y19.9662
G01 X9.9260 Y19.9780
G01 X9.8996 Y19.9933
G01 X9.8513 Y20.0258
G01 X9.8332 Y20.0393
G01 X9.8165 Y20.0545
G01 X9.7552 Y20.1158
G01 X9.7395 Y20.1332
G01 X9.7256 Y20.1521
G01 X9.6921 Y20.2027
G01 X9.6801 Y20.2228
G01 X9.6703 Y20.2441
G01 X9.6626 Y20.2662
G01 X9.6571 Y20.2890
G01 X9.6460 Y20.3486
G01 X9.6429 Y20.3717
G01 X9.6421 Y20.3951
G01 X9.6436 Y20.4184
G01 X9.6475 Y20.4415
G01 X9.6605 Y20.5008
G01 X9.6667 Y20.5235
G01 X9.6765 Y20.5481
G01 X9.5839 Y20.5433
G01 X9.4525 Y20.5507
G01 X9.3227 Y20.5727
G01 X9.2087 Y20.6052
G01 X9.1840 Y20.6138
G01 X9.0866 Y20.6542
G01 X9.0630 Y20.6655
G01 X8.9594 Y20.7232
G01 X8.8708 Y20.7856
G01 X8.8574 Y20.7239
G01 X8.8512 Y20.7012
G01 X8.8428 Y20.6793
G01 X8.8322 Y20.6583
G01 X8.8196 Y20.6385
G01 X8.7845 Y20.5891
G01 X8.7700 Y20.5708
G01 X8.7538 Y20.5540
G01 X8.7360 Y20.5389
G01 X8.7168 Y20.5256
G01 X8.6652 Y20.4937
G01 X8.6393 Y20.4799
G01 X8.6118 Y20.4694
G01 X8.5833 Y20.4624
G01 X8.5306 Y20.4530
G01 X8.5101 Y20.4503
G01 X8.4895 Y20.4494
G01 X7.0566 Y20.4494
G00 Z2.5400
G00 X5.9169 Y20.4660
G01 F76.20
G01 Z-0.0508
G01 F76.20
G01 X6.8923 Y20.4658
G01 X6.9119 Y20.4637
G01 X6.9312 Y20.4594
G01 X6.9498 Y20.4530
G01 X6.9676 Y20.4445
G01 X6.9843 Y20.4340
G01 X6.9997 Y20.4218
G01 X7.0137 Y20.4078
G01 X7.0259 Y20.3924
G01 X7.0364 Y20.3757
G01 X7.0449 Y20.3579
G01 X7.0478 Y20.3495
G01 X9.2029 Y20.3495
G01 X9.2411 Y20.3476
G01 X9.2605 Y20.3454
G01 X9.2982 Y20.3388
G01 X9.3350 Y20.3284
G01 X9.3535 Y20.3220
G01 X9.3798 Y20.3111
G01 X9.3974 Y20.3026
G01 X9.4307 Y20.2839
G01 X9.4699 Y20.2561
G01 X9.5057 Y20.2241
G01 X9.8883 Y19.8415
G01 X16.7548 Y19.8415
G01 X17.7917 Y20.8784
G01 X17.7917 Y24.2066
G01 X17.5345 Y24.4638
G01 X16.8383 Y24.4638
G01 X16.8331 Y24.4555
G01 X16.8209 Y24.4401
G01 X16.8069 Y24.4261
G01 X16.7915 Y24.4139
G01 X16.7748 Y24.4034
G01 X16.7570 Y24.3949
G01 X16.7384 Y24.3885
G01 X16.7191 Y24.3842
G01 X16.6995 Y24.3821
G01 X15.6891 Y24.3819
G01 X15.7350 Y24.3510
G01 X15.7485 Y24.3410
G01 X15.7575 Y24.3328
G01 X15.9740 Y24.2431
G01 X16.2080 Y24.2431
G01 X16.2952 Y24.2792
G01 X16.3112 Y24.2850
G01 X16.3278 Y24.2891
G01 X16.3861 Y24.3007
G01 X16.4030 Y24.3032
G01 X16.4201 Y24.3041
G01 X17.3055 Y24.3041
G01 X17.3230 Y24.3032
G01 X17.3402 Y24.3006
G01 X17.3996 Y24.2885
G01 X17.4165 Y24.2842
G01 X17.4328 Y24.2782
G01 X17.4484 Y24.2706
G01 X17.4632 Y24.2615
G01 X17.5133 Y24.2272
G01 X17.5272 Y24.2167
G01 X17.5400 Y24.2048
G01 X17.5515 Y24.1916
G01 X17.5616 Y24.1774
G01 X17.5943 Y24.1263
G01 X17.6051 Y24.1068
G01 X17.6134 Y24.0860
G01 X17.6189 Y24.0643
G01 X17.6291 Y24.0094
G01 X17.6312 Y23.9936
G01 X17.6320 Y23.9776
G01 X17.6320 Y21.0798
G01 X17.6311 Y21.0624
G01 X17.6285 Y21.0451
G01 X17.6164 Y20.9856
G01 X17.6104 Y20.9637
G01 X17.6017 Y20.9427
G01 X17.5902 Y20.9231
G01 X17.5577 Y20.8748
G01 X17.5477 Y20.8613
G01 X17.5364 Y20.8489
G01 X16.7843 Y20.0968
G01 X16.7713 Y20.0851
G01 X16.7573 Y20.0747
G01 X16.7067 Y20.0412
G01 X16.6920 Y20.0325
G01 X16.6765 Y20.0253
G01 X16.6604 Y20.0196
G01 X16.6438 Y20.0155
G01 X16.5866 Y20.0044
G01 X16.5701 Y20.0020
G01 X16.5534 Y20.0012
G01 X10.0897 Y20.0012
G01 X10.0723 Y20.0021
G01 X10.0550 Y20.0047
G01 X9.9955 Y20.0168
G01 X9.9736 Y20.0228
G01 X9.9526 Y20.0315
G01 X9.9330 Y20.0430
G01 X9.8847 Y20.0755
G01 X9.8712 Y20.0855
G01 X9.8588 Y20.0968
G01 X9.7975 Y20.1581
G01 X9.7858 Y20.1711
G01 X9.7754 Y20.1851
G01 X9.7419 Y20.2357
G01 X9.7331 Y20.2507
G01 X9.7257 Y20.2665
G01 X9.7200 Y20.2830
G01 X9.7160 Y20.2999
G01 X9.7049 Y20.3595
G01 X9.7025 Y20.3768
G01 X9.7019 Y20.3942
G01 X9.7031 Y20.4115
G01 X9.7060 Y20.4287
G01 X9.7190 Y20.4880
G01 X9.7236 Y20.5048
G01 X9.7298 Y20.5212
G01 X9.7377 Y20.5368
G01 X9.7471 Y20.5515
G01 X9.7822 Y20.6009
G01 X9.7960 Y20.6180
G01 X9.8045 Y20.6261
G01 X9.7086 Y20.6101
G01 X9.5937 Y20.6034
G01 X9.5741 Y20.6034
G01 X9.4689 Y20.6093
G01 X9.4495 Y20.6115
G01 X9.3360 Y20.6310
G01 X9.2253 Y20.6627
G01 X9.2069 Y20.6691
G01 X9.1006 Y20.7134
G01 X8.9913 Y20.7739
G01 X8.8894 Y20.8461
G01 X8.8021 Y20.9238
G01 X8.8130 Y20.8652
G01 X8.8154 Y20.8479
G01 X8.8160 Y20.8305
G01 X8.8148 Y20.8132
G01 X8.8119 Y20.7960
G01 X8.7989 Y20.7367
G01 X8.7943 Y20.7199
G01 X8.7881 Y20.7035
G01 X8.7802 Y20.6879
G01 X8.7708 Y20.6732
G01 X8.7357 Y20.6238
G01 X8.7250 Y20.6101
G01 X8.7129 Y20.5976
G01 X8.6996 Y20.5864
G01 X8.6853 Y20.5765
G01 X8.6337 Y20.5446
G01 X8.6144 Y20.5343
G01 X8.5940 Y20.5265
G01 X8.5728 Y20.5213
G01 X8.5201 Y20.5119
G01 X8.5048 Y20.5099
G01 X8.4895 Y20.5092
G01 X6.0212 Y20.5092
G01 X5.9169 Y20.4660
G00 Z2.5400
G00 X6.9876 Y22.1297
G01 F76.20
G01 Z-0.0508
G01 F76.20
G01 X7.1342 Y22.2763
G01 X7.1342 Y23.4457
G01 X6.9876 Y23.5923
G01 X6.9368 Y23.5926
G01 X6.8668 Y23.6068
G01 X6.8568 Y23.6111
G01 X6.8522 Y23.6139
G01 X6.8021 Y23.6482
G01 X6.7937 Y23.6552
G01 X6.7870 Y23.6638
G01 X6.7543 Y23.7149
G01 X6.7483 Y23.7275
G01 X6.7357 Y23.7941
G01 X6.7358 Y24.0336
G01 X6.7487 Y24.0984
G01 X6.7519 Y24.1087
G01 X6.7571 Y24.1182
G01 X6.7914 Y24.1683
G01 X6.7984 Y24.1767
G01 X6.8070 Y24.1834
G01 X6.8581 Y24.2161
G01 X6.8642 Y24.2195
G01 X6.8775 Y24.2238
G01 X6.9373 Y24.2347
G01 X7.1663 Y24.2349
G01 X7.3129 Y24.3815
G01 X7.3129 Y25.7537
G01 X7.1663 Y25.9003
G01 X5.1435 Y25.9003
G01 X4.9968 Y25.7537
G01 X4.9968 Y24.3815
G01 X5.1498 Y24.2286
G01 X5.1838 Y24.2217
G01 X5.1941 Y24.2185
G01 X5.1990 Y24.2161
G01 X5.2581 Y24.1757
G01 X5.2621 Y24.1720
G01 X5.2688 Y24.1634
G01 X5.3049 Y24.1062
G01 X5.3092 Y24.0929
G01 X5.3201 Y24.0331
G01 X5.3200 Y23.7936
G01 X5.3071 Y23.7288
G01 X5.3039 Y23.7185
G01 X5.2987 Y23.7090
G01 X5.2644 Y23.6589
G01 X5.2611 Y23.6545
G01 X5.2533 Y23.6469
G01 X5.1977 Y23.6111
G01 X5.1851 Y23.6051
G01 X5.1185 Y23.5925
G01 X5.0682 Y23.5923
G01 X4.9216 Y23.4457
G01 X4.9216 Y22.2763
G01 X5.0682 Y22.1297
G01 X6.9876 Y22.1297
G00 Z2.5400
G00 X6.9628 Y22.1895
G01 F76.20
G01 Z-0.0508
G01 F76.20
G01 X7.0744 Y22.3011
G01 X7.0744 Y23.4209
G01 X6.9628 Y23.5325
G01 X6.9308 Y23.5330
G01 X6.9195 Y23.5348
G01 X6.8601 Y23.5469
G01 X6.8491 Y23.5497
G01 X6.8383 Y23.5536
G01 X6.8281 Y23.5586
G01 X6.8184 Y23.5645
G01 X6.7591 Y23.6058
G01 X6.7508 Y23.6136
G01 X6.7432 Y23.6222
G01 X6.7366 Y23.6315
G01 X6.7039 Y23.6826
G01 X6.6968 Y23.6955
G01 X6.6914 Y23.7091
G01 X6.6878 Y23.7233
G01 X6.6776 Y23.7782
G01 X6.6757 Y23.7991
G01 X6.6757 Y24.0281
G01 X6.6762 Y24.0396
G01 X6.6780 Y24.0509
G01 X6.6929 Y24.1213
G01 X6.6968 Y24.1321
G01 X6.7018 Y24.1423
G01 X6.7077 Y24.1520
G01 X6.7420 Y24.2021
G01 X6.7490 Y24.2113
G01 X6.7568 Y24.2196
G01 X6.7654 Y24.2272
G01 X6.7747 Y24.2338
G01 X6.8258 Y24.2665
G01 X6.8387 Y24.2736
G01 X6.8523 Y24.2790
G01 X6.8665 Y24.2826
G01 X6.9318 Y24.2943
G01 X7.1415 Y24.2947
G01 X7.2531 Y24.4063
G01 X7.2531 Y25.7289
G01 X7.1415 Y25.8405
G01 X5.1683 Y25.8405
G01 X5.0566 Y25.7289
G01 X5.0566 Y24.4063
G01 X5.1794 Y24.2837
G01 X5.2068 Y24.2775
G01 X5.2175 Y24.2736
G01 X5.2277 Y24.2686
G01 X5.2875 Y24.2284
G01 X5.2967 Y24.2214
G01 X5.3050 Y24.2136
G01 X5.3126 Y24.2050
G01 X5.3192 Y24.1957
G01 X5.3519 Y24.1446
G01 X5.3590 Y24.1317
G01 X5.3644 Y24.1181
G01 X5.3680 Y24.1039
G01 X5.3797 Y24.0386
G01 X5.3801 Y23.7991
G01 X5.3796 Y23.7876
G01 X5.3657 Y23.7169
G01 X5.3629 Y23.7059
G01 X5.3590 Y23.6951
G01 X5.3540 Y23.6849
G01 X5.3481 Y23.6752
G01 X5.3138 Y23.6251
G01 X5.3068 Y23.6159
G01 X5.2990 Y23.6076
G01 X5.2904 Y23.6000
G01 X5.2811 Y23.5934
G01 X5.2300 Y23.5607
G01 X5.2171 Y23.5536
G01 X5.2035 Y23.5482
G01 X5.1893 Y23.5446
G01 X5.1344 Y23.5344
G01 X5.1240 Y23.5329
G01 X5.0930 Y23.5325
G01 X4.9814 Y23.4209
G01 X4.9814 Y22.3011
G01 X5.0930 Y22.1895
G01 X6.9628 Y22.1895
G00 Z2.5400
G00 X6.6301 Y23.5758
G01 F76.20
G01 Z-0.0508
G01 F76.20
G01 X6.6031 Y23.6181
G01 X6.5885 Y23.6444
G01 X6.5775 Y23.6723
G01 X6.5701 Y23.7015
G01 X6.5599 Y23.7564
G01 X6.5570 Y23.7776
G01 X6.5560 Y23.7991
G01 X6.5560 Y24.0281
G01 X6.5572 Y24.0516
G01 X6.5607 Y24.0748
G01 X6.5728 Y24.1342
G01 X6.5786 Y24.1568
G01 X6.5866 Y24.1787
G01 X6.5968 Y24.1997
G01 X6.6090 Y24.2196
G01 X6.6307 Y24.2514
G01 X6.5159 Y24.2514
G01 X6.5159 Y23.5758
G01 X6.6301 Y23.5758
G00 Z2.5400
G00 X6.7847 Y24.3112
G01 F76.20
G01 Z-0.0508
G01 F76.20
G01 X6.4561 Y24.3112
G01 X6.4561 Y23.5160
G01 X6.7834 Y23.5160
G01 X6.7345 Y23.5495
G01 X6.7206 Y23.5600
G01 X6.7078 Y23.5719
G01 X6.6963 Y23.5851
G01 X6.6862 Y23.5993
G01 X6.6535 Y23.6504
G01 X6.6427 Y23.6699
G01 X6.6344 Y23.6907
G01 X6.6289 Y23.7124
G01 X6.6187 Y23.7673
G01 X6.6166 Y23.7831
G01 X6.6158 Y23.7991
G01 X6.6158 Y24.0281
G01 X6.6167 Y24.0456
G01 X6.6193 Y24.0628
G01 X6.6314 Y24.1222
G01 X6.6357 Y24.1391
G01 X6.6417 Y24.1554
G01 X6.6493 Y24.1710
G01 X6.6584 Y24.1858
G01 X6.6927 Y24.2359
G01 X6.7032 Y24.2498
G01 X6.7151 Y24.2626
G01 X6.7283 Y24.2741
G01 X6.7425 Y24.2842
G01 X6.7847 Y24.3112
G00 Z2.5400
G00 X7.0682 Y24.3712
G01 F76.20
G01 Z-0.0508
G01 F76.20
G01 X7.0810 Y24.3726
G01 X7.0936 Y24.3754
G01 X7.1059 Y24.3796
G01 X7.1175 Y24.3852
G01 X7.1285 Y24.3920
G01 X7.1386 Y24.4001
G01 X7.1478 Y24.4092
G01 X7.1558 Y24.4193
G01 X7.1627 Y24.4303
G01 X7.1683 Y24.4420
G01 X7.1725 Y24.4542
G01 X7.1753 Y24.4668
G01 X7.1767 Y24.4797
G01 X7.1767 Y25.6555
G01 X7.1753 Y25.6684
G01 X7.1725 Y25.6810
G01 X7.1683 Y25.6932
G01 X7.1627 Y25.7049
G01 X7.1558 Y25.7159
G01 X7.1478 Y25.7260
G01 X7.1386 Y25.7351
G01 X7.1285 Y25.7432
G01 X7.1175 Y25.7500
G01 X7.1059 Y25.7556
G01 X7.0936 Y25.7598
G01 X7.0810 Y25.7626
G01 X7.0625 Y25.7641
G01 X5.2473 Y25.7641
G01 X5.2288 Y25.7626
G01 X5.2162 Y25.7598
G01 X5.2039 Y25.7556
G01 X5.1923 Y25.7500
G01 X5.1813 Y25.7432
G01 X5.1712 Y25.7351
G01 X5.1620 Y25.7260
G01 X5.1540 Y25.7159
G01 X5.1471 Y25.7049
G01 X5.1415 Y25.6932
G01 X5.1373 Y25.6810
G01 X5.1345 Y25.6684
G01 X5.1330 Y25.6499
G01 X5.1330 Y24.4853
G01 X5.1345 Y24.4668
G01 X5.1373 Y24.4542
G01 X5.1415 Y24.4420
G01 X5.1471 Y24.4303
G01 X5.1540 Y24.4193
G01 X5.1620 Y24.4092
G01 X5.1712 Y24.4001
G01 X5.1813 Y24.3920
G01 X5.1923 Y24.3852
G01 X5.2039 Y24.3796
G01 X5.2162 Y24.3754
G01 X5.2288 Y24.3726
G01 X5.2473 Y24.3711
G01 X5.6595 Y24.3711
G01 X5.6595 Y23.4561
G01 X5.1664 Y23.4560
G01 X5.1535 Y23.4546
G01 X5.1409 Y23.4518
G01 X5.1287 Y23.4476
G01 X5.1170 Y23.4420
G01 X5.1060 Y23.4352
G01 X5.0959 Y23.4271
G01 X5.0868 Y23.4180
G01 X5.0787 Y23.4079
G01 X5.0719 Y23.3969
G01 X5.0663 Y23.3852
G01 X5.0621 Y23.3730
G01 X5.0593 Y23.3604
G01 X5.0578 Y23.3419
G01 X5.0578 Y22.3801
G01 X5.0593 Y22.3616
G01 X5.0621 Y22.3490
G01 X5.0663 Y22.3368
G01 X5.0719 Y22.3251
G01 X5.0787 Y22.3141
G01 X5.0868 Y22.3040
G01 X5.0959 Y22.2949
G01 X5.1060 Y22.2868
G01 X5.1170 Y22.2800
G01 X5.1287 Y22.2744
G01 X5.1409 Y22.2702
G01 X5.1535 Y22.2674
G01 X5.1720 Y22.2659
G01 X6.8838 Y22.2659
G01 X6.9023 Y22.2674
G01 X6.9149 Y22.2702
G01 X6.9271 Y22.2744
G01 X6.9388 Y22.2800
G01 X6.9498 Y22.2868
G01 X6.9599 Y22.2949
G01 X6.9690 Y22.3040
G01 X6.9771 Y22.3141
G01 X6.9839 Y22.3251
G01 X6.9895 Y22.3368
G01 X6.9937 Y22.3490
G01 X6.9965 Y22.3616
G01 X6.9980 Y22.3801
G01 X6.9980 Y23.3419
G01 X6.9965 Y23.3604
G01 X6.9937 Y23.3730
G01 X6.9895 Y23.3852
G01 X6.9839 Y23.3969
G01 X6.9771 Y23.4079
G01 X6.9690 Y23.4180
G01 X6.9599 Y23.4271
G01 X6.9498 Y23.4352
G01 X6.9388 Y23.4420
G01 X6.9271 Y23.4476
G01 X6.9149 Y23.4518
G01 X6.9023 Y23.4546
G01 X6.8838 Y23.4561
G01 X6.3963 Y23.4561
G01 X6.3963 Y24.3711
G01 X7.0682 Y24.3712
G00 Z2.5400
G00 X7.0652 Y24.4310
G01 F76.20
G01 Z-0.0508
G01 F76.20
G01 X7.0774 Y24.4330
G01 X7.0887 Y24.4376
G01 X7.0988 Y24.4447
G01 X7.1031 Y24.4491
G01 X7.1070 Y24.4539
G01 X7.1129 Y24.4647
G01 X7.1162 Y24.4765
G01 X7.1169 Y24.4853
G01 X7.1169 Y25.6499
G01 X7.1149 Y25.6647
G01 X7.1102 Y25.6761
G01 X7.1031 Y25.6861
G01 X7.0940 Y25.6943
G01 X7.0832 Y25.7002
G01 X7.0774 Y25.7022
G01 X7.0625 Y25.7043
G01 X5.2473 Y25.7043
G01 X5.2385 Y25.7036
G01 X5.2266 Y25.7002
G01 X5.2158 Y25.6943
G01 X5.2067 Y25.6861
G01 X5.2028 Y25.6813
G01 X5.1969 Y25.6705
G01 X5.1936 Y25.6587
G01 X5.1928 Y25.6499
G01 X5.1928 Y24.4853
G01 X5.1949 Y24.4705
G01 X5.1996 Y24.4591
G01 X5.2028 Y24.4539
G01 X5.2110 Y24.4447
G01 X5.2158 Y24.4409
G01 X5.2266 Y24.4350
G01 X5.2385 Y24.4316
G01 X5.2446 Y24.4310
G01 X5.7194 Y24.4309
G01 X5.7194 Y23.3963
G01 X5.1693 Y23.3962
G01 X5.1572 Y23.3942
G01 X5.1458 Y23.3896
G01 X5.1358 Y23.3825
G01 X5.1276 Y23.3733
G01 X5.1243 Y23.3681
G01 X5.1197 Y23.3567
G01 X5.1176 Y23.3419
G01 X5.1176 Y22.3801
G01 X5.1183 Y22.3713
G01 X5.1217 Y22.3595
G01 X5.1276 Y22.3487
G01 X5.1358 Y22.3395
G01 X5.1406 Y22.3357
G01 X5.1514 Y22.3298
G01 X5.1632 Y22.3264
G01 X5.1720 Y22.3257
G01 X6.8838 Y22.3257
G01 X6.8926 Y22.3264
G01 X6.9044 Y22.3298
G01 X6.9152 Y22.3357
G01 X6.9244 Y22.3439
G01 X6.9282 Y22.3487
G01 X6.9341 Y22.3595
G01 X6.9375 Y22.3713
G01 X6.9382 Y22.3801
G01 X6.9382 Y23.3419
G01 X6.9361 Y23.3567
G01 X6.9315 Y23.3681
G01 X6.9282 Y23.3733
G01 X6.9200 Y23.3825
G01 X6.9152 Y23.3863
G01 X6.9044 Y23.3922
G01 X6.8926 Y23.3956
G01 X6.8865 Y23.3962
G01 X6.3364 Y23.3963
G01 X6.3364 Y24.4309
G01 X7.0652 Y24.4310
G00 Z2.5400
G00 X8.5486 Y24.4474
G01 F76.20
G01 Z-0.0508
G01 F76.20
G01 X8.5563 Y24.4915
G01 X8.5890 Y24.6051
G01 X8.6316 Y24.7085
G01 X8.6372 Y24.7200
G01 X8.6914 Y24.8178
G01 X8.7560 Y24.9091
G01 X8.7640 Y24.9191
G01 X8.8386 Y25.0023
G01 X8.9218 Y25.0769
G01 X8.9318 Y25.0849
G01 X9.0231 Y25.1495
G01 X9.1209 Y25.2037
G01 X9.1324 Y25.2093
G01 X9.2358 Y25.2519
G01 X9.3494 Y25.2846
G01 X9.3935 Y25.2923
G01 X9.3935 Y25.3366
G01 X9.3691 Y25.3366
G01 X8.9724 Y25.1723
G01 X8.6686 Y24.8685
G01 X8.5043 Y24.4718
G01 X8.5043 Y24.4474
G01 X8.5486 Y24.4474
G00 Z2.5400
G00 X8.5991 Y24.3876
G01 F76.20
G01 Z-0.0508
G01 F76.20
G01 X8.6146 Y24.4782
G01 X8.6446 Y24.5825
G01 X8.6869 Y24.6856
G01 X8.7421 Y24.7859
G01 X8.8086 Y24.8792
G01 X8.8809 Y24.9600
G01 X8.9617 Y25.0323
G01 X9.0576 Y25.1004
G01 X9.1525 Y25.1527
G01 X9.2555 Y25.1954
G01 X9.3627 Y25.2263
G01 X9.4533 Y25.2418
G01 X9.4533 Y25.3964
G01 X9.3572 Y25.3964
G01 X8.9385 Y25.2230
G01 X8.6179 Y24.9024
G01 X8.4445 Y24.4837
G01 X8.4445 Y24.3876
G01 X8.5991 Y24.3876
G00 Z2.5400
G00 X8.5991 Y24.1264
G01 F76.20
G01 Z-0.0508
G01 F76.20
G01 X8.4445 Y24.1264
G01 X8.4445 Y24.0303
G01 X8.6179 Y23.6116
G01 X8.9385 Y23.2910
G01 X9.1498 Y23.2032
G01 X9.2048 Y23.1665
G01 X9.2132 Y23.1596
G01 X9.2200 Y23.1511
G01 X9.2531 Y23.1003
G01 X9.2581 Y23.0906
G01 X9.2611 Y23.0801
G01 X9.2717 Y23.0204
G01 X9.2725 Y23.0096
G01 X9.2712 Y22.9989
G01 X9.2578 Y22.9397
G01 X9.2543 Y22.9293
G01 X9.2488 Y22.9199
G01 X9.2133 Y22.8707
G01 X9.2040 Y22.8607
G01 X9.1534 Y22.8279
G01 X9.1449 Y22.8234
G01 X8.9097 Y22.7260
G01 X8.5749 Y22.3912
G01 X8.3937 Y21.9538
G01 X8.3937 Y21.4802
G01 X8.5749 Y21.0428
G01 X8.6394 Y20.9779
G01 X8.6762 Y20.9229
G01 X8.6812 Y20.9133
G01 X8.6843 Y20.9029
G01 X8.6954 Y20.8433
G01 X8.6963 Y20.8324
G01 X8.6950 Y20.8217
G01 X8.6820 Y20.7624
G01 X8.6786 Y20.7520
G01 X8.6732 Y20.7425
G01 X8.6348 Y20.6888
G01 X8.6269 Y20.6814
G01 X8.6224 Y20.6783
G01 X8.5648 Y20.6432
G01 X8.5518 Y20.6391
G01 X8.4943 Y20.6291
G01 X5.9974 Y20.6289
G01 X5.8214 Y20.5562
G01 X5.7525 Y20.5426
G01 X5.0682 Y20.5423
G01 X4.9216 Y20.3957
G01 X4.9216 Y19.2263
G01 X5.0682 Y19.0797
G01 X6.9875 Y19.0797
G01 X7.0650 Y19.1568
G01 X7.1200 Y19.1936
G01 X7.1294 Y19.1986
G01 X7.1396 Y19.2016
G01 X7.2020 Y19.2135
G01 X8.8241 Y19.2137
G01 X8.8349 Y19.2126
G01 X8.9013 Y19.1986
G01 X8.9140 Y19.1923
G01 X8.9665 Y19.1567
G01 X9.3101 Y18.8134
G01 X9.5701 Y18.7057
G01 X17.0730 Y18.7057
G01 X17.3330 Y18.8134
G01 X18.6873 Y20.1673
G01 X18.7423 Y20.2041
G01 X18.7519 Y20.2091
G01 X18.7623 Y20.2122
G01 X18.8219 Y20.2233
G01 X18.8328 Y20.2242
G01 X18.8435 Y20.2229
G01 X18.9028 Y20.2099
G01 X18.9132 Y20.2065
G01 X18.9227 Y20.2011
G01 X18.9721 Y20.1660
G01 X18.9803 Y20.1589
G01 X18.9869 Y20.1503
G01 X19.0188 Y20.0987
G01 X19.0244 Y20.0863
G01 X19.0355 Y20.0270
G01 X19.0363 Y20.0174
G01 X19.0363 Y5.5742
G01 X19.1440 Y5.3142
G01 X21.4891 Y2.9691
G01 X21.7491 Y2.8614
G01 X59.7423 Y2.8614
G01 X60.0023 Y2.9691
G01 X64.8455 Y7.8121
G01 X65.0721 Y8.0389
G01 X65.1797 Y8.2990
G01 X65.1523 Y33.1427
G01 X65.0444 Y33.4029
G01 X61.6737 Y36.7733
G01 X61.4137 Y36.8810
G01 X58.7007 Y36.8810
G01 X58.6898 Y36.8821
G01 X58.6304 Y36.8942
G01 X58.6201 Y36.8974
G01 X58.6105 Y36.9026
G01 X58.5605 Y36.9369
G01 X58.5522 Y36.9440
G01 X58.5455 Y36.9525
G01 X58.5128 Y37.0036
G01 X58.5075 Y37.0144
G01 X58.3487 Y37.0144
G01 X58.3487 Y36.5627
G01 X58.3480 Y36.5539
G01 X58.3447 Y36.5421
G01 X58.3420 Y36.5365
G01 X58.3388 Y36.5313
G01 X58.3306 Y36.5221
G01 X58.3258 Y36.5183
G01 X58.3150 Y36.5124
G01 X58.3031 Y36.5090
G01 X58.2943 Y36.5083
G01 X56.4791 Y36.5083
G01 X56.4642 Y36.5104
G01 X56.4529 Y36.5150
G01 X56.4476 Y36.5183
G01 X56.4428 Y36.5221
G01 X56.4346 Y36.5313
G01 X56.4287 Y36.5421
G01 X56.4267 Y36.5479
G01 X56.4247 Y36.5600
G01 X56.4246 Y37.0144
G01 X56.2655 Y37.0144
G01 X56.2631 Y37.0072
G01 X56.2579 Y36.9977
G01 X56.2236 Y36.9476
G01 X56.2166 Y36.9392
G01 X56.2080 Y36.9325
G01 X56.1569 Y36.8998
G01 X56.1443 Y36.8938
G01 X56.0776 Y36.8812
G01 X52.7803 Y36.8810
G01 X52.5203 Y36.7733
G01 X50.2520 Y34.5050
G01 X50.1443 Y34.2450
G01 X50.1443 Y31.5877
G01 X50.1432 Y31.5768
G01 X50.1298 Y31.5122
G01 X50.1279 Y31.5071
G01 X50.1227 Y31.4976
G01 X50.0884 Y31.4475
G01 X50.0814 Y31.4391
G01 X50.0773 Y31.4355
G01 X50.0156 Y31.3963
G01 X50.0023 Y31.3920
G01 X49.9474 Y31.3818
G01 X49.9375 Y31.3809
G01 X49.2055 Y31.3809
G01 X49.0588 Y31.2343
G01 X49.0588 Y30.9260
G01 X49.0577 Y30.9152
G01 X49.0444 Y30.8505
G01 X49.0401 Y30.8405
G01 X49.0373 Y30.8359
G01 X49.0030 Y30.7858
G01 X48.9960 Y30.7774
G01 X48.9874 Y30.7707
G01 X48.9363 Y30.7380
G01 X48.9266 Y30.7330
G01 X48.9161 Y30.7302
G01 X48.8509 Y30.7194
G01 X48.8455 Y30.7193
G01 X48.8347 Y30.7207
G01 X48.7692 Y30.7366
G01 X48.7571 Y30.7430
G01 X48.7094 Y30.7765
G01 X47.5929 Y31.8927
G01 X47.3329 Y32.0004
G01 X43.3521 Y32.0004
G01 X43.0921 Y31.8927
G01 X42.8384 Y31.6390
G01 X42.8300 Y31.6322
G01 X42.7795 Y31.5987
G01 X42.7748 Y31.5959
G01 X42.7647 Y31.5918
G01 X42.6927 Y31.5785
G01 X42.6786 Y31.5795
G01 X42.6227 Y31.5911
G01 X42.6130 Y31.5941
G01 X42.4101 Y31.6782
G01 X41.9127 Y31.6782
G01 X41.4531 Y31.4879
G01 X41.1013 Y31.1361
G01 X40.8974 Y30.6435
G01 X40.8922 Y30.6339
G01 X40.8550 Y30.5792
G01 X40.8473 Y30.5716
G01 X40.8429 Y30.5684
G01 X40.7920 Y30.5353
G01 X40.7823 Y30.5303
G01 X40.7718 Y30.5273
G01 X40.7121 Y30.5167
G01 X40.7013 Y30.5159
G01 X40.6958 Y30.5163
G01 X40.6314 Y30.5308
G01 X40.6255 Y30.5325
G01 X40.6146 Y30.5377
G01 X40.5733 Y30.5642
G01 X40.4872 Y30.6365
G01 X40.1577 Y30.8267
G01 X40.1419 Y30.8369
G01 X39.9111 Y31.0045
G01 X39.3857 Y31.2725
G01 X38.7970 Y31.6123
G01 X38.5300 Y31.7096
G01 X38.5098 Y31.7184
G01 X38.3468 Y31.8016
G01 X37.6948 Y32.0135
G01 X36.9631 Y32.2799
G01 X36.7808 Y32.3121
G01 X36.7565 Y32.3183
G01 X36.6772 Y32.3440
G01 X35.9045 Y32.4664
G01 X35.0411 Y32.6187
G01 X33.0895 Y32.6187
G01 X32.2261 Y32.4664
G01 X31.4534 Y32.3440
G01 X31.3741 Y32.3183
G01 X31.3498 Y32.3121
G01 X31.1675 Y32.2799
G01 X30.4358 Y32.0135
G01 X29.7838 Y31.8016
G01 X29.6208 Y31.7184
G01 X29.6006 Y31.7096
G01 X29.3336 Y31.6123
G01 X28.7449 Y31.2725
G01 X28.2195 Y31.0045
G01 X27.9911 Y30.8385
G01 X27.9753 Y30.8282
G01 X27.6434 Y30.6365
G01 X27.1983 Y30.2631
G01 X26.7992 Y29.9726
G01 X26.5293 Y29.7026
G01 X26.5178 Y29.6920
G01 X26.3536 Y29.5542
G01 X26.3446 Y29.5481
G01 X26.2864 Y29.5168
G01 X26.2813 Y29.5149
G01 X26.2706 Y29.5128
G01 X26.2102 Y29.5069
G01 X26.1993 Y29.5069
G01 X26.1886 Y29.5091
G01 X26.1308 Y29.5272
G01 X26.1208 Y29.5315
G01 X26.1119 Y29.5376
G01 X26.0656 Y29.5769
G01 X26.0580 Y29.5848
G01 X26.0522 Y29.5940
G01 X26.0228 Y29.6532
G01 X26.0199 Y29.6636
G01 X26.0193 Y29.6690
G01 X26.0153 Y29.7295
G01 X26.0158 Y29.7414
G01 X26.0295 Y29.7917
G01 X26.0890 Y29.9352
G01 X26.0890 Y29.9970
G01 X26.0596 Y29.9705
G01 X26.0385 Y29.9556
G01 X26.0132 Y29.9416
G01 X25.9865 Y29.9306
G01 X25.9587 Y29.9226
G01 X25.9303 Y29.9177
G01 X25.9109 Y29.9165
G01 X25.8846 Y29.8256
G01 X25.8406 Y29.7191
G01 X25.7822 Y29.6128
G01 X25.7118 Y29.5141
G01 X25.6350 Y29.4282
G01 X25.5491 Y29.3514
G01 X25.4504 Y29.2810
G01 X25.3441 Y29.2226
G01 X25.2347 Y29.1776
G01 X25.1240 Y29.1458
G01 X25.0200 Y29.1281
G01 X25.0200 Y28.9742
G01 X25.1280 Y28.9742
G01 X25.3180 Y29.0529
G01 X25.3284 Y29.0560
G01 X25.3879 Y29.0676
G01 X25.3987 Y29.0686
G01 X25.4041 Y29.0683
G01 X25.4689 Y29.0549
G01 X25.4793 Y29.0516
G01 X25.4888 Y29.0463
G01 X25.5428 Y29.0083
G01 X25.5468 Y29.0045
G01 X25.5535 Y28.9959
G01 X25.5858 Y28.9445
G01 X25.5906 Y28.9348
G01 X25.5923 Y28.9296
G01 X25.6031 Y28.8645
G01 X25.6036 Y28.8511
G01 X25.6008 Y28.8380
G01 X25.5718 Y28.7544
G01 X25.5698 Y28.7494
G01 X25.5644 Y28.7402
G01 X25.2673 Y28.3321
G01 X24.8939 Y27.8870
G01 X24.7037 Y27.5575
G01 X24.6935 Y27.5417
G01 X24.5783 Y27.3835
G01 X24.5298 Y27.3386
G01 X24.5210 Y27.3321
G01 X24.5112 Y27.3274
G01 X24.4540 Y27.3071
G01 X24.4435 Y27.3045
G01 X24.4327 Y27.3041
G01 X24.3722 Y27.3076
G01 X24.3614 Y27.3093
G01 X24.3511 Y27.3132
G01 X24.2967 Y27.3402
G01 X24.2875 Y27.3460
G01 X24.2796 Y27.3535
G01 X24.2401 Y27.3995
G01 X24.2332 Y27.4097
G01 X24.2288 Y27.4212
G01 X24.2094 Y27.4955
G01 X24.2076 Y27.5092
G01 X24.2076 Y27.9567
G01 X24.0173 Y28.4163
G01 X23.6655 Y28.7681
G01 X23.2059 Y28.9584
G01 X22.7085 Y28.9584
G01 X22.2489 Y28.7681
G01 X21.8971 Y28.4163
G01 X21.7068 Y27.9567
G01 X21.7068 Y27.4593
G01 X21.7584 Y27.3341
G01 X21.7713 Y27.2706
G01 X21.7723 Y27.2600
G01 X21.7723 Y10.7592
G01 X21.7712 Y10.6187
G01 X21.8248 Y10.4894
G01 X21.8779 Y10.3580
G01 X21.9781 Y10.2579
G01 X26.5646 Y5.5961
G01 X26.5722 Y5.5863
G01 X26.6921 Y5.4665
G01 X26.7902 Y5.3666
G01 X26.9211 Y5.3125
G01 X27.0502 Y5.2578
G01 X27.1917 Y5.2578
G01 X27.3596 Y5.2564
G01 X27.3719 Y5.2578
G01 X27.8970 Y5.2578
G01 X27.9079 Y5.2567
G01 X27.9673 Y5.2446
G01 X27.9776 Y5.2414
G01 X27.9871 Y5.2362
G01 X28.0372 Y5.2019
G01 X28.0456 Y5.1949
G01 X28.0523 Y5.1863
G01 X28.0884 Y5.1291
G01 X28.0927 Y5.1158
G01 X28.1036 Y5.0560
G01 X28.1038 Y4.9540
G01 X28.2504 Y4.8074
G01 X29.5637 Y4.8074
G01 X29.5746 Y4.8063
G01 X29.6340 Y4.7942
G01 X29.6443 Y4.7910
G01 X29.6539 Y4.7858
G01 X29.7039 Y4.7515
G01 X29.7122 Y4.7444
G01 X29.7189 Y4.7359
G01 X29.7550 Y4.6787
G01 X29.7593 Y4.6655
G01 X29.7703 Y4.6056
G01 X29.7705 Y4.4834
G01 X29.7694 Y4.4725
G01 X29.7573 Y4.4131
G01 X29.7541 Y4.4028
G01 X29.7489 Y4.3933
G01 X29.7146 Y4.3432
G01 X29.7075 Y4.3348
G01 X29.6990 Y4.3280
G01 X29.6479 Y4.2954
G01 X29.6353 Y4.2895
G01 X29.6286 Y4.2878
G01 X29.5737 Y4.2775
G01 X29.5637 Y4.2766
G01 X22.2687 Y4.2766
G01 X22.2579 Y4.2777
G01 X22.1984 Y4.2898
G01 X22.1850 Y4.2944
G01 X22.1305 Y4.3305
G01 X22.1224 Y4.3371
G01 X20.5120 Y5.9475
G01 X20.5051 Y5.9560
G01 X20.4716 Y6.0066
G01 X20.4666 Y6.0160
G01 X20.4636 Y6.0262
G01 X20.4525 Y6.0834
G01 X20.4515 Y6.0938
G01 X20.4515 Y27.6998
G01 X20.3438 Y27.9598
G01 X18.8747 Y29.4289
G01 X18.6147 Y29.5366
G01 X17.4328 Y29.5366
G01 X17.4219 Y29.5377
G01 X17.3573 Y29.5511
G01 X17.3473 Y29.5554
G01 X17.3427 Y29.5582
G01 X17.2926 Y29.5925
G01 X17.2842 Y29.5995
G01 X17.2775 Y29.6081
G01 X17.2414 Y29.6653
G01 X17.2371 Y29.6786
G01 X17.2262 Y29.7384
G01 X17.2260 Y29.8404
G01 X17.0794 Y29.9871
G01 X15.7072 Y29.9871
G01 X15.5606 Y29.8404
G01 X15.5603 Y29.0565
G01 X15.5474 Y28.9916
G01 X15.5428 Y28.9782
G01 X15.5036 Y28.9195
G01 X15.4823 Y28.8979
G01 X15.4320 Y28.7639
G01 X15.3787 Y28.6353
G01 X15.3834 Y28.4907
G01 X15.3831 Y27.3328
G01 X15.3702 Y27.2679
G01 X15.3683 Y27.2610
G01 X15.3620 Y27.2483
G01 X15.3264 Y27.1958
G01 X15.2406 Y27.1098
G01 X15.2406 Y26.3493
G01 X15.2713 Y26.3030
G01 X15.2763 Y26.2936
G01 X15.2793 Y26.2834
G01 X15.2912 Y26.2210
G01 X15.2914 Y25.9116
G01 X15.4366 Y25.9116
G01 X15.4366 Y26.0560
G01 X15.4387 Y26.0708
G01 X15.4433 Y26.0822
G01 X15.4466 Y26.0874
G01 X15.4548 Y26.0966
G01 X15.4596 Y26.1004
G01 X15.4704 Y26.1063
G01 X15.4762 Y26.1083
G01 X15.4910 Y26.1104
G01 X16.6910 Y26.1104
G01 X16.6998 Y26.1097
G01 X16.7116 Y26.1063
G01 X16.7172 Y26.1037
G01 X16.7272 Y26.0966
G01 X16.7354 Y26.0874
G01 X16.7413 Y26.0766
G01 X16.7433 Y26.0708
G01 X16.7454 Y26.0560
G01 X16.7454 Y25.9116
G01 X16.8906 Y25.9116
G01 X16.8909 Y26.2212
G01 X16.9057 Y26.2930
G01 X16.9120 Y26.3057
G01 X16.9414 Y26.3494
G01 X16.9414 Y27.1098
G01 X16.8555 Y27.1960
G01 X16.8187 Y27.2510
G01 X16.8137 Y27.2604
G01 X16.8120 Y27.2654
G01 X16.7996 Y27.3278
G01 X16.7986 Y27.3382
G01 X16.7989 Y27.4697
G01 X16.8118 Y27.5345
G01 X16.8150 Y27.5448
G01 X16.8202 Y27.5544
G01 X16.8545 Y27.6044
G01 X16.8616 Y27.6127
G01 X16.8701 Y27.6194
G01 X16.9273 Y27.6555
G01 X16.9405 Y27.6598
G01 X17.0004 Y27.6708
G01 X17.0794 Y27.6710
G01 X17.2260 Y27.8176
G01 X17.2263 Y27.9201
G01 X17.2392 Y27.9849
G01 X17.2424 Y27.9952
G01 X17.2476 Y28.0047
G01 X17.2819 Y28.0548
G01 X17.2889 Y28.0632
G01 X17.2975 Y28.0699
G01 X17.3486 Y28.1026
G01 X17.3612 Y28.1086
G01 X17.4229 Y28.1205
G01 X17.4328 Y28.1214
G01 X18.0951 Y28.1214
G01 X18.1059 Y28.1203
G01 X18.1654 Y28.1082
G01 X18.1788 Y28.1036
G01 X18.2333 Y28.0675
G01 X18.2414 Y28.0609
G01 X18.9758 Y27.3265
G01 X18.9827 Y27.3180
G01 X19.0162 Y27.2674
G01 X19.0212 Y27.2580
G01 X19.0242 Y27.2478
G01 X19.0361 Y27.1854
G01 X19.0360 Y25.0622
G01 X19.0231 Y24.9973
G01 X19.0199 Y24.9869
G01 X19.0147 Y24.9773
G01 X18.9804 Y24.9273
G01 X18.9733 Y24.9190
G01 X18.9648 Y24.9123
G01 X18.9137 Y24.8796
G01 X18.9040 Y24.8747
G01 X18.8935 Y24.8718
G01 X18.8337 Y24.8616
G01 X18.8229 Y24.8608
G01 X18.8120 Y24.8623
G01 X18.7530 Y24.8763
G01 X18.7465 Y24.8783
G01 X18.7345 Y24.8846
G01 X18.6906 Y24.9152
G01 X18.6832 Y24.9213
G01 X18.1127 Y25.4919
G01 X17.8527 Y25.5996
G01 X17.0974 Y25.5996
G01 X17.0865 Y25.6007
G01 X17.0271 Y25.6128
G01 X17.0168 Y25.6160
G01 X17.0073 Y25.6212
G01 X16.9646 Y25.6504
G01 X16.7454 Y25.6504
G01 X16.7454 Y25.5060
G01 X16.7433 Y25.4912
G01 X16.7413 Y25.4854
G01 X16.7354 Y25.4746
G01 X16.7272 Y25.4654
G01 X16.7172 Y25.4583
G01 X16.7116 Y25.4557
G01 X16.6998 Y25.4523
G01 X16.6910 Y25.4516
G01 X15.4910 Y25.4516
G01 X15.4762 Y25.4537
G01 X15.4704 Y25.4557
G01 X15.4596 Y25.4616
G01 X15.4548 Y25.4654
G01 X15.4466 Y25.4746
G01 X15.4433 Y25.4798
G01 X15.4387 Y25.4912
G01 X15.4366 Y25.5060
G01 X15.4366 Y25.6504
G01 X15.2914 Y25.6504
G01 X15.2911 Y25.3408
G01 X15.2763 Y25.2690
G01 X15.2700 Y25.2563
G01 X15.2406 Y25.2126
G01 X15.2406 Y24.4522
G01 X15.3872 Y24.3056
G01 X15.5354 Y24.3053
G01 X15.6072 Y24.2905
G01 X15.6199 Y24.2842
G01 X15.6682 Y24.2517
G01 X15.6763 Y24.2451
G01 X15.6902 Y24.2311
G01 X15.9502 Y24.1234
G01 X16.2318 Y24.1234
G01 X16.3460 Y24.1705
G01 X16.4095 Y24.1834
G01 X16.4201 Y24.1844
G01 X17.3110 Y24.1841
G01 X17.3758 Y24.1712
G01 X17.3861 Y24.1680
G01 X17.3956 Y24.1628
G01 X17.4457 Y24.1285
G01 X17.4541 Y24.1215
G01 X17.4608 Y24.1129
G01 X17.4935 Y24.0618
G01 X17.4969 Y24.0557
G01 X17.5012 Y24.0424
G01 X17.5114 Y23.9875
G01 X17.5123 Y23.9776
G01 X17.5123 Y21.0798
G01 X17.5112 Y21.0690
G01 X17.4991 Y21.0095
G01 X17.4972 Y21.0026
G01 X17.4909 Y20.9899
G01 X17.4584 Y20.9416
G01 X17.4518 Y20.9335
G01 X16.6997 Y20.1814
G01 X16.6912 Y20.1745
G01 X16.6360 Y20.1383
G01 X16.6312 Y20.1360
G01 X16.6210 Y20.1330
G01 X16.5638 Y20.1219
G01 X16.5534 Y20.1209
G01 X10.0897 Y20.1209
G01 X10.0789 Y20.1220
G01 X10.0125 Y20.1360
G01 X9.9998 Y20.1423
G01 X9.9515 Y20.1748
G01 X9.9434 Y20.1814
G01 X9.8785 Y20.2468
G01 X9.8390 Y20.3065
G01 X9.8367 Y20.3114
G01 X9.8336 Y20.3218
G01 X9.8225 Y20.3814
G01 X9.8216 Y20.3923
G01 X9.8229 Y20.4030
G01 X9.8359 Y20.4623
G01 X9.8393 Y20.4727
G01 X9.8447 Y20.4822
G01 X9.8841 Y20.5369
G01 X9.8945 Y20.5458
G01 X9.9404 Y20.5755
G01 X9.9492 Y20.5801
G01 X10.2581 Y20.7080
G01 X10.5929 Y21.0428
G01 X10.6840 Y21.2627
G01 X10.6892 Y21.2723
G01 X10.7231 Y21.3226
G01 X10.7300 Y21.3310
G01 X10.7341 Y21.3346
G01 X10.7893 Y21.3709
G01 X10.8020 Y21.3770
G01 X10.8088 Y21.3787
G01 X10.8649 Y21.3894
G01 X10.8751 Y21.3904
G01 X11.3870 Y21.3904
G01 X11.3979 Y21.3893
G01 X11.4573 Y21.3772
G01 X11.4676 Y21.3740
G01 X11.4771 Y21.3688
G01 X11.5272 Y21.3345
G01 X11.5356 Y21.3275
G01 X11.5423 Y21.3189
G01 X11.5784 Y21.2617
G01 X11.5827 Y21.2484
G01 X11.5936 Y21.1886
G01 X11.5938 Y21.0866
G01 X11.7404 Y20.9400
G01 X13.1126 Y20.9400
G01 X13.2592 Y21.0866
G01 X13.2592 Y21.5509
G01 X13.2603 Y21.5617
G01 X13.2743 Y21.6281
G01 X13.2806 Y21.6408
G01 X13.3131 Y21.6891
G01 X13.3197 Y21.6972
G01 X13.3725 Y21.7499
G01 X13.4753 Y21.8438
G01 X13.4813 Y21.8524
G01 X13.5315 Y21.9738
G01 X13.5912 Y22.1014
G01 X13.5935 Y22.1116
G01 X13.5935 Y22.2446
G01 X13.5998 Y22.3837
G01 X13.5943 Y22.4147
G01 X13.5935 Y22.4241
G01 X13.5935 Y23.9308
G01 X13.5946 Y23.9417
G01 X13.6080 Y24.0063
G01 X13.6099 Y24.0114
G01 X13.6151 Y24.0209
G01 X13.6494 Y24.0710
G01 X13.6588 Y24.0815
G01 X13.7166 Y24.1197
G01 X13.8256 Y24.1651
G01 X13.9096 Y24.2487
G01 X13.9646 Y24.2855
G01 X13.9740 Y24.2905
G01 X13.9842 Y24.2935
G01 X14.0466 Y24.3054
G01 X14.1946 Y24.3056
G01 X14.3412 Y24.4522
G01 X14.3412 Y25.2098
G01 X14.1946 Y25.3564
G01 X14.0464 Y25.3567
G01 X13.9746 Y25.3715
G01 X13.9619 Y25.3778
G01 X13.9136 Y25.4103
G01 X13.9055 Y25.4169
G01 X13.8916 Y25.4309
G01 X13.6316 Y25.5386
G01 X13.3500 Y25.5386
G01 X13.2237 Y25.4865
G01 X13.1549 Y25.4729
G01 X12.7451 Y25.4726
G01 X12.4851 Y25.3649
G01 X12.2860 Y25.1658
G01 X12.1783 Y24.9058
G01 X12.1783 Y23.4629
G01 X12.1772 Y23.4521
G01 X12.1651 Y23.3926
G01 X12.1619 Y23.3822
G01 X12.1567 Y23.3726
G01 X12.1224 Y23.3226
G01 X12.1153 Y23.3143
G01 X12.1068 Y23.3076
G01 X12.0557 Y23.2749
G01 X12.0431 Y23.2689
G01 X11.9814 Y23.2570
G01 X11.9715 Y23.2561
G01 X11.7404 Y23.2561
G01 X11.5938 Y23.1094
G01 X11.5935 Y23.0069
G01 X11.5806 Y22.9421
G01 X11.5774 Y22.9318
G01 X11.5722 Y22.9223
G01 X11.5379 Y22.8722
G01 X11.5309 Y22.8638
G01 X11.5223 Y22.8571
G01 X11.4712 Y22.8244
G01 X11.4651 Y22.8210
G01 X11.4518 Y22.8167
G01 X11.3969 Y22.8065
G01 X11.3870 Y22.8056
G01 X10.1018 Y22.8059
G01 X10.0328 Y22.8196
G01 X10.0226 Y22.8235
G01 X10.0133 Y22.8286
G01 X9.9630 Y22.8625
G01 X9.9546 Y22.8694
G01 X9.9478 Y22.8779
G01 X9.9120 Y22.9334
G01 X9.9097 Y22.9384
G01 X9.9067 Y22.9489
G01 X9.8961 Y23.0087
G01 X9.8953 Y23.0195
G01 X9.8966 Y23.0302
G01 X9.9100 Y23.0893
G01 X9.9135 Y23.0997
G01 X9.9190 Y23.1091
G01 X9.9588 Y23.1636
G01 X9.9693 Y23.1723
G01 X10.0186 Y23.2035
G01 X10.2293 Y23.2910
G01 X10.5499 Y23.6116
G01 X10.7233 Y24.0303
G01 X10.7233 Y24.1264
G01 X10.5687 Y24.1264
G01 X10.5532 Y24.0358
G01 X10.5223 Y23.9286
G01 X10.4796 Y23.8256
G01 X10.4273 Y23.7307
G01 X10.3592 Y23.6348
G01 X10.2869 Y23.5540
G01 X10.2038 Y23.4797
G01 X10.1128 Y23.4152
G01 X10.0180 Y23.3627
G01 X9.9123 Y23.3186
G01 X9.8051 Y23.2877
G01 X9.6982 Y23.2695
G01 X9.5839 Y23.2628
G01 X9.4696 Y23.2695
G01 X9.3627 Y23.2877
G01 X9.2555 Y23.3186
G01 X9.1525 Y23.3613
G01 X9.0576 Y23.4136
G01 X8.9617 Y23.4817
G01 X8.8809 Y23.5540
G01 X8.8086 Y23.6348
G01 X8.7405 Y23.7307
G01 X8.6882 Y23.8256
G01 X8.6455 Y23.9286
G01 X8.6146 Y24.0358
G01 X8.5991 Y24.1264
G00 Z2.5400
G00 X8.5486 Y24.0666
G01 F76.20
G01 Z-0.0508
G01 F76.20
G01 X8.5043 Y24.0666
G01 X8.5043 Y24.0422
G01 X8.6686 Y23.6455
G01 X8.9724 Y23.3418
G01 X9.1678 Y23.2609
G01 X9.1781 Y23.2559
G01 X9.2382 Y23.2161
G01 X9.2474 Y23.2093
G01 X9.2558 Y23.2015
G01 X9.2634 Y23.1930
G01 X9.2701 Y23.1838
G01 X9.3032 Y23.1330
G01 X9.3090 Y23.1231
G01 X9.3137 Y23.1126
G01 X9.3174 Y23.1017
G01 X9.3200 Y23.0906
G01 X9.3320 Y23.0196
G01 X9.3323 Y23.0082
G01 X9.3315 Y22.9969
G01 X9.3295 Y22.9857
G01 X9.3161 Y22.9265
G01 X9.3130 Y22.9154
G01 X9.3088 Y22.9047
G01 X9.3036 Y22.8945
G01 X9.2973 Y22.8849
G01 X9.2618 Y22.8357
G01 X9.2527 Y22.8246
G01 X9.2423 Y22.8147
G01 X9.2307 Y22.8062
G01 X9.1769 Y22.7724
G01 X8.9436 Y22.6753
G01 X8.6256 Y22.3573
G01 X8.4535 Y21.9419
G01 X8.4535 Y21.4921
G01 X8.6256 Y21.0767
G01 X8.6858 Y21.0158
G01 X8.7261 Y20.9560
G01 X8.7319 Y20.9461
G01 X8.7367 Y20.9357
G01 X8.7405 Y20.9249
G01 X8.7542 Y20.8542
G01 X8.7557 Y20.8429
G01 X8.7561 Y20.8315
G01 X8.7554 Y20.8201
G01 X8.7405 Y20.7495
G01 X8.7375 Y20.7385
G01 X8.7334 Y20.7278
G01 X8.7282 Y20.7175
G01 X8.7220 Y20.7078
G01 X8.6799 Y20.6495
G01 X8.6720 Y20.6413
G01 X8.6633 Y20.6339
G01 X8.6539 Y20.6274
G01 X8.6023 Y20.5955
G01 X8.5896 Y20.5888
G01 X8.5762 Y20.5836
G01 X8.5623 Y20.5802
G01 X8.4996 Y20.5695
G01 X6.0093 Y20.5691
G01 X5.8493 Y20.5028
G01 X5.8388 Y20.4990
G01 X5.8279 Y20.4962
G01 X5.7584 Y20.4830
G01 X5.7472 Y20.4825
G01 X5.0930 Y20.4825
G01 X4.9814 Y20.3709
G01 X4.9814 Y19.2511
G01 X5.0930 Y19.1395
G01 X6.9627 Y19.1395
G01 X7.0186 Y19.1954
G01 X7.0271 Y19.2031
G01 X7.0363 Y19.2100
G01 X7.0966 Y19.2492
G01 X7.1068 Y19.2539
G01 X7.1173 Y19.2577
G01 X7.1282 Y19.2603
G01 X7.1963 Y19.2730
G01 X7.2072 Y19.2735
G01 X8.8241 Y19.2735
G01 X8.8355 Y19.2730
G01 X8.8469 Y19.2712
G01 X8.9064 Y19.2591
G01 X8.9207 Y19.2552
G01 X8.9345 Y19.2495
G01 X8.9474 Y19.2420
G01 X9.0045 Y19.2029
G01 X9.0127 Y19.1955
G01 X9.3440 Y18.8641
G01 X9.5820 Y18.7655
G01 X17.0611 Y18.7655
G01 X17.2991 Y18.8641
G01 X18.6409 Y20.2060
G01 X18.6494 Y20.2137
G01 X18.6586 Y20.2205
G01 X18.7191 Y20.2598
G01 X18.7295 Y20.2646
G01 X18.7403 Y20.2684
G01 X18.8110 Y20.2821
G01 X18.8223 Y20.2836
G01 X18.8337 Y20.2840
G01 X18.8451 Y20.2833
G01 X18.9157 Y20.2684
G01 X18.9267 Y20.2654
G01 X18.9374 Y20.2613
G01 X18.9477 Y20.2561
G01 X18.9574 Y20.2499
G01 X19.0157 Y20.2078
G01 X19.0239 Y20.1999
G01 X19.0313 Y20.1912
G01 X19.0378 Y20.1818
G01 X19.0697 Y20.1302
G01 X19.0764 Y20.1175
G01 X19.0816 Y20.1041
G01 X19.0850 Y20.0902
G01 X19.0944 Y20.0375
G01 X19.0961 Y20.0174
G01 X19.0961 Y5.5861
G01 X19.1947 Y5.3481
G01 X21.5230 Y3.0198
G01 X21.7610 Y2.9212
G01 X59.7304 Y2.9212
G01 X59.9684 Y3.0198
G01 X64.8032 Y7.8544
G01 X65.0213 Y8.0728
G01 X65.1198 Y8.3109
G01 X65.0925 Y33.1308
G01 X64.9937 Y33.3689
G01 X61.6398 Y36.7226
G01 X61.4018 Y36.8212
G01 X58.7007 Y36.8212
G01 X58.6892 Y36.8217
G01 X58.6779 Y36.8235
G01 X58.6185 Y36.8356
G01 X58.6074 Y36.8384
G01 X58.5967 Y36.8423
G01 X58.5864 Y36.8473
G01 X58.5267 Y36.8876
G01 X58.5176 Y36.8945
G01 X58.5092 Y36.9023
G01 X58.5017 Y36.9109
G01 X58.4951 Y36.9202
G01 X58.4731 Y36.9546
G01 X58.4086 Y36.9546
G01 X58.4086 Y36.5627
G01 X58.4065 Y36.5418
G01 X61.2729 Y36.5418
G01 X61.3141 Y36.5395
G01 X61.3549 Y36.5325
G01 X61.3946 Y36.5211
G01 X61.4269 Y36.5079
G01 X61.4384 Y36.5023
G01 X61.4689 Y36.4853
G01 X61.4975 Y36.4653
G01 X61.5075 Y36.4573
G01 X61.5334 Y36.4339
G01 X64.7052 Y33.2621
G01 X64.7283 Y33.2365
G01 X64.7366 Y33.2262
G01 X64.7564 Y33.1979
G01 X64.7735 Y33.1675
G01 X64.7792 Y33.1556
G01 X64.7923 Y33.1236
G01 X64.8038 Y33.0839
G01 X64.8107 Y33.0432
G01 X64.8131 Y33.0020
G01 X64.8401 Y8.4330
G01 X64.8380 Y8.3982
G01 X64.8311 Y8.3578
G01 X64.8197 Y8.3181
G01 X64.8066 Y8.2858
G01 X64.8008 Y8.2739
G01 X64.7873 Y8.2493
G01 X64.7802 Y8.2381
G01 X64.7599 Y8.2097
G01 X64.7327 Y8.1792
G01 X59.8620 Y3.3085
G01 X59.8312 Y3.2810
G01 X59.8028 Y3.2607
G01 X59.7920 Y3.2538
G01 X59.7613 Y3.2371
G01 X59.7292 Y3.2236
G01 X59.7171 Y3.2194
G01 X59.6835 Y3.2099
G01 X59.6427 Y3.2029
G01 X59.6015 Y3.2006
G01 X21.8899 Y3.2006
G01 X21.8487 Y3.2029
G01 X21.8079 Y3.2099
G01 X21.7682 Y3.2213
G01 X21.7359 Y3.2345
G01 X21.7244 Y3.2401
G01 X21.6939 Y3.2571
G01 X21.6653 Y3.2771
G01 X21.6553 Y3.2851
G01 X21.6294 Y3.3085
G01 X19.4812 Y5.4568
G01 X19.4559 Y5.4853
G01 X19.4356 Y5.5137
G01 X19.4287 Y5.5245
G01 X19.4120 Y5.5552
G01 X19.3985 Y5.5873
G01 X19.3943 Y5.5994
G01 X19.3848 Y5.6330
G01 X19.3778 Y5.6738
G01 X19.3755 Y5.7150
G01 X19.3755 Y27.4064
G01 X18.3213 Y28.4606
G01 X17.0898 Y28.4606
G01 X17.0897 Y27.9157
G01 X17.0883 Y27.9029
G01 X17.0855 Y27.8903
G01 X17.0813 Y27.8780
G01 X17.0757 Y27.8664
G01 X17.0689 Y27.8554
G01 X17.0608 Y27.8453
G01 X17.0517 Y27.8361
G01 X17.0416 Y27.8281
G01 X17.0306 Y27.8212
G01 X17.0189 Y27.8156
G01 X17.0067 Y27.8114
G01 X16.9941 Y27.8086
G01 X16.9812 Y27.8072
G01 X16.4594 Y27.8071
G01 X16.4594 Y27.1202
G01 X16.6910 Y27.1202
G01 X16.7095 Y27.1187
G01 X16.7221 Y27.1159
G01 X16.7343 Y27.1117
G01 X16.7460 Y27.1061
G01 X16.7570 Y27.0993
G01 X16.7671 Y27.0912
G01 X16.7762 Y27.0821
G01 X16.7843 Y27.0720
G01 X16.7911 Y27.0610
G01 X16.7967 Y27.0493
G01 X16.8009 Y27.0371
G01 X16.8037 Y27.0245
G01 X16.8052 Y27.0060
G01 X16.8051 Y26.4504
G01 X16.8037 Y26.4375
G01 X16.8009 Y26.4249
G01 X16.7967 Y26.4127
G01 X16.7911 Y26.4010
G01 X16.7843 Y26.3900
G01 X16.7762 Y26.3799
G01 X16.7671 Y26.3708
G01 X16.7570 Y26.3627
G01 X16.7460 Y26.3559
G01 X16.7343 Y26.3503
G01 X16.7221 Y26.3461
G01 X16.7095 Y26.3433
G01 X16.6910 Y26.3418
G01 X15.4910 Y26.3418
G01 X15.4725 Y26.3433
G01 X15.4599 Y26.3461
G01 X15.4477 Y26.3503
G01 X15.4360 Y26.3559
G01 X15.4250 Y26.3627
G01 X15.4149 Y26.3708
G01 X15.4058 Y26.3799
G01 X15.3977 Y26.3900
G01 X15.3909 Y26.4010
G01 X15.3853 Y26.4127
G01 X15.3811 Y26.4249
G01 X15.3783 Y26.4375
G01 X15.3768 Y26.4560
G01 X15.3769 Y27.0116
G01 X15.3783 Y27.0245
G01 X15.3811 Y27.0371
G01 X15.3853 Y27.0493
G01 X15.3909 Y27.0610
G01 X15.3977 Y27.0720
G01 X15.4058 Y27.0821
G01 X15.4149 Y27.0912
G01 X15.4250 Y27.0993
G01 X15.4360 Y27.1061
G01 X15.4477 Y27.1117
G01 X15.4599 Y27.1159
G01 X15.4725 Y27.1187
G01 X15.4910 Y27.1202
G01 X15.7226 Y27.1202
G01 X15.7226 Y27.8492
G01 X15.7177 Y27.8554
G01 X15.7109 Y27.8664
G01 X15.7053 Y27.8780
G01 X15.7011 Y27.8903
G01 X15.6983 Y27.9029
G01 X15.6968 Y27.9214
G01 X15.6969 Y29.7423
G01 X15.6983 Y29.7551
G01 X15.7011 Y29.7677
G01 X15.7053 Y29.7800
G01 X15.7109 Y29.7916
G01 X15.7177 Y29.8026
G01 X15.7258 Y29.8127
G01 X15.7349 Y29.8219
G01 X15.7450 Y29.8299
G01 X15.7560 Y29.8368
G01 X15.7677 Y29.8424
G01 X15.7799 Y29.8466
G01 X15.7925 Y29.8494
G01 X15.8110 Y29.8509
G01 X16.9756 Y29.8509
G01 X16.9941 Y29.8494
G01 X17.0067 Y29.8466
G01 X17.0189 Y29.8424
G01 X17.0306 Y29.8368
G01 X17.0416 Y29.8299
G01 X17.0517 Y29.8219
G01 X17.0608 Y29.8127
G01 X17.0689 Y29.8026
G01 X17.0757 Y29.7916
G01 X17.0813 Y29.7800
G01 X17.0855 Y29.7677
G01 X17.0883 Y29.7551
G01 X17.0897 Y29.7423
G01 X17.0898 Y29.1974
G01 X18.4771 Y29.1973
G01 X18.5151 Y29.1951
G01 X18.5559 Y29.1881
G01 X18.5956 Y29.1767
G01 X18.6337 Y29.1609
G01 X18.6644 Y29.1442
G01 X18.6752 Y29.1373
G01 X18.7036 Y29.1170
G01 X18.7344 Y29.0895
G01 X20.0044 Y27.8195
G01 X20.0319 Y27.7887
G01 X20.0558 Y27.7550
G01 X20.0758 Y27.7188
G01 X20.0893 Y27.6867
G01 X20.0935 Y27.6746
G01 X20.1030 Y27.6410
G01 X20.1091 Y27.6066
G01 X20.1105 Y27.5939
G01 X20.1123 Y27.5590
G01 X20.1123 Y5.8676
G01 X22.0425 Y3.9374
G01 X30.1097 Y3.9374
G01 X30.1097 Y8.9111
G01 X30.0419 Y9.0070
G01 X29.9815 Y9.1163
G01 X29.9337 Y9.2318
G01 X29.9007 Y9.3457
G01 X29.8978 Y9.3581
G01 X29.8791 Y9.4687
G01 X29.8776 Y9.4814
G01 X29.8712 Y9.5998
G01 X29.8782 Y9.7246
G01 X29.8991 Y9.8477
G01 X29.9317 Y9.9617
G01 X29.9360 Y9.9738
G01 X29.9789 Y10.0774
G01 X29.9844 Y10.0889
G01 X30.0419 Y10.1926
G01 X30.1143 Y10.2945
G01 X30.1975 Y10.3877
G01 X30.2858 Y10.4668
G01 X30.2958 Y10.4748
G01 X30.3873 Y10.5397
G01 X30.3981 Y10.5465
G01 X30.5020 Y10.6037
G01 X30.6174 Y10.6515
G01 X30.7313 Y10.6845
G01 X30.7437 Y10.6874
G01 X30.8606 Y10.7070
G01 X30.9854 Y10.7140
G01 X31.1102 Y10.7070
G01 X31.2333 Y10.6861
G01 X31.3534 Y10.6515
G01 X31.4630 Y10.6063
G01 X31.4745 Y10.6008
G01 X31.5727 Y10.5465
G01 X31.5835 Y10.5397
G01 X31.6801 Y10.4709
G01 X31.7733 Y10.3877
G01 X31.8565 Y10.2945
G01 X31.9289 Y10.1926
G01 X31.9893 Y10.0833
G01 X32.0348 Y9.9738
G01 X32.0391 Y9.9617
G01 X32.0701 Y9.8539
G01 X32.0730 Y9.8415
G01 X32.0926 Y9.7246
G01 X32.0996 Y9.5998
G01 X32.0926 Y9.4750
G01 X32.0717 Y9.3519
G01 X32.0371 Y9.2318
G01 X31.9893 Y9.1163
G01 X31.9289 Y9.0070
G01 X31.8565 Y8.9051
G01 X31.7733 Y8.8119
G01 X31.6850 Y8.7328
G01 X31.6750 Y8.7248
G01 X31.5782 Y8.6563
G01 X31.4689 Y8.5959
G01 X31.3534 Y8.5481
G01 X31.2395 Y8.5151
G01 X31.2271 Y8.5122
G01 X31.1102 Y8.4926
G01 X30.9918 Y8.4857
G01 X30.9790 Y8.4857
G01 X30.8670 Y8.4920
G01 X30.8465 Y8.4948
G01 X30.8465 Y3.9374
G01 X59.4489 Y3.9374
G01 X64.1034 Y8.5918
G01 X64.0765 Y32.8488
G01 X61.1203 Y35.8050
G01 X53.0737 Y35.8050
G01 X51.2203 Y33.9516
G01 X51.2203 Y31.1926
G01 X51.2247 Y31.1855
G01 X51.2303 Y31.1738
G01 X51.2345 Y31.1616
G01 X51.2373 Y31.1490
G01 X51.2388 Y31.1305
G01 X51.2388 Y29.9659
G01 X51.2373 Y29.9474
G01 X51.2345 Y29.9348
G01 X51.2303 Y29.9226
G01 X51.2247 Y29.9109
G01 X51.2178 Y29.8999
G01 X51.2098 Y29.8898
G01 X51.2006 Y29.8807
G01 X51.1905 Y29.8726
G01 X51.1795 Y29.8658
G01 X51.1679 Y29.8602
G01 X51.1556 Y29.8560
G01 X51.1430 Y29.8532
G01 X51.1245 Y29.8517
G01 X49.3036 Y29.8518
G01 X49.2908 Y29.8532
G01 X49.2782 Y29.8560
G01 X49.2659 Y29.8602
G01 X49.2543 Y29.8658
G01 X49.2433 Y29.8726
G01 X49.2332 Y29.8807
G01 X49.2240 Y29.8898
G01 X49.2160 Y29.8999
G01 X49.2091 Y29.9109
G01 X49.2035 Y29.9226
G01 X49.1993 Y29.9348
G01 X49.1965 Y29.9474
G01 X49.1950 Y29.9659
G01 X49.1950 Y31.1305
G01 X49.1965 Y31.1490
G01 X49.1993 Y31.1616
G01 X49.2035 Y31.1738
G01 X49.2091 Y31.1855
G01 X49.2160 Y31.1965
G01 X49.2240 Y31.2066
G01 X49.2332 Y31.2157
G01 X49.2433 Y31.2238
G01 X49.2543 Y31.2306
G01 X49.2659 Y31.2362
G01 X49.2782 Y31.2404
G01 X49.2908 Y31.2432
G01 X49.3036 Y31.2446
G01 X50.3925 Y31.2447
G01 X50.4835 Y31.3358
G01 X50.4836 Y34.1074
G01 X50.4858 Y34.1454
G01 X50.4915 Y34.1799
G01 X50.4944 Y34.1924
G01 X50.5042 Y34.2259
G01 X50.5174 Y34.2582
G01 X50.5230 Y34.2697
G01 X50.5400 Y34.3002
G01 X50.5600 Y34.3288
G01 X50.5680 Y34.3388
G01 X50.5914 Y34.3647
G01 X52.6606 Y36.4339
G01 X52.6914 Y36.4614
G01 X52.7198 Y36.4817
G01 X52.7306 Y36.4886
G01 X52.7613 Y36.5053
G01 X52.7994 Y36.5211
G01 X52.8391 Y36.5325
G01 X52.8799 Y36.5395
G01 X52.9211 Y36.5418
G01 X56.3669 Y36.5418
G01 X56.3648 Y36.5627
G01 X56.3648 Y36.9546
G01 X56.3009 Y36.9546
G01 X56.2730 Y36.9138
G01 X56.2660 Y36.9046
G01 X56.2582 Y36.8963
G01 X56.2496 Y36.8887
G01 X56.2403 Y36.8821
G01 X56.1892 Y36.8494
G01 X56.1763 Y36.8423
G01 X56.1627 Y36.8369
G01 X56.1484 Y36.8333
G01 X56.0831 Y36.8216
G01 X52.7922 Y36.8212
G01 X52.5542 Y36.7226
G01 X50.3027 Y34.4711
G01 X50.2041 Y34.2331
G01 X50.2041 Y31.5877
G01 X50.2036 Y31.5762
G01 X50.2018 Y31.5649
G01 X50.1869 Y31.4945
G01 X50.1830 Y31.4837
G01 X50.1780 Y31.4735
G01 X50.1378 Y31.4137
G01 X50.1308 Y31.4045
G01 X50.1230 Y31.3962
G01 X50.1144 Y31.3886
G01 X50.0540 Y31.3493
G01 X50.0411 Y31.3422
G01 X50.0275 Y31.3368
G01 X50.0133 Y31.3332
G01 X49.9584 Y31.3230
G01 X49.9375 Y31.3211
G01 X49.2303 Y31.3211
G01 X49.1186 Y31.2095
G01 X49.1186 Y30.9260
G01 X49.1181 Y30.9146
G01 X49.1044 Y30.8440
G01 X49.1016 Y30.8329
G01 X49.0976 Y30.8221
G01 X49.0927 Y30.8118
G01 X49.0867 Y30.8021
G01 X49.0524 Y30.7520
G01 X49.0454 Y30.7428
G01 X49.0376 Y30.7345
G01 X49.0290 Y30.7269
G01 X49.0197 Y30.7203
G01 X48.9686 Y30.6876
G01 X48.9586 Y30.6819
G01 X48.9481 Y30.6772
G01 X48.9372 Y30.6736
G01 X48.9260 Y30.6712
G01 X48.8549 Y30.6597
G01 X48.8435 Y30.6595
G01 X48.8322 Y30.6604
G01 X48.8210 Y30.6625
G01 X48.7620 Y30.6764
G01 X48.7483 Y30.6806
G01 X48.7351 Y30.6864
G01 X48.7229 Y30.6939
G01 X48.6710 Y30.7306
G01 X47.5590 Y31.8420
G01 X47.3210 Y31.9406
G01 X43.3640 Y31.9406
G01 X43.1260 Y31.8420
G01 X42.8807 Y31.5967
G01 X42.8722 Y31.5891
G01 X42.8126 Y31.5488
G01 X42.8027 Y31.5430
G01 X42.7924 Y31.5381
G01 X42.7816 Y31.5344
G01 X42.7108 Y31.5205
G01 X42.6960 Y31.5187
G01 X42.6812 Y31.5189
G01 X42.6665 Y31.5209
G01 X42.6106 Y31.5325
G01 X42.6002 Y31.5352
G01 X42.5901 Y31.5389
G01 X42.3982 Y31.6184
G01 X41.9246 Y31.6184
G01 X41.4870 Y31.4371
G01 X41.1521 Y31.1022
G01 X40.9527 Y30.6206
G01 X40.9477 Y30.6103
G01 X40.9418 Y30.6005
G01 X40.9011 Y30.5410
G01 X40.8933 Y30.5326
G01 X40.8848 Y30.5249
G01 X40.8755 Y30.5182
G01 X40.8246 Y30.4851
G01 X40.8147 Y30.4794
G01 X40.8043 Y30.4746
G01 X40.7934 Y30.4710
G01 X40.7823 Y30.4684
G01 X40.7226 Y30.4578
G01 X40.7112 Y30.4564
G01 X40.6998 Y30.4561
G01 X40.6884 Y30.4569
G01 X40.6181 Y30.4724
G01 X40.6058 Y30.4760
G01 X40.5940 Y30.4809
G01 X40.5828 Y30.4870
G01 X40.5476 Y30.5091
G01 X40.5349 Y30.5184
G01 X40.4527 Y30.5873
G01 X40.1278 Y30.7749
G01 X40.1093 Y30.7867
G01 X39.8797 Y30.9533
G01 X39.3572 Y31.2199
G01 X38.7716 Y31.5579
G01 X38.5062 Y31.6547
G01 X38.4826 Y31.6651
G01 X38.3238 Y31.7461
G01 X37.6755 Y31.9568
G01 X36.9475 Y32.2218
G01 X36.7664 Y32.2540
G01 X36.7380 Y32.2614
G01 X36.6631 Y32.2857
G01 X35.8941 Y32.4075
G01 X35.0359 Y32.5589
G01 X33.0947 Y32.5589
G01 X32.2365 Y32.4075
G01 X31.4675 Y32.2857
G01 X31.3926 Y32.2614
G01 X31.3642 Y32.2540
G01 X31.1831 Y32.2218
G01 X30.4551 Y31.9568
G01 X29.8068 Y31.7461
G01 X29.6480 Y31.6651
G01 X29.6244 Y31.6547
G01 X29.3590 Y31.5579
G01 X28.7734 Y31.2199
G01 X28.2509 Y30.9533
G01 X28.0263 Y30.7901
G01 X28.0079 Y30.7780
G01 X27.6779 Y30.5873
G01 X27.2352 Y30.2160
G01 X26.8382 Y29.9270
G01 X26.5716 Y29.6603
G01 X26.5583 Y29.6480
G01 X26.3920 Y29.5084
G01 X26.3829 Y29.5015
G01 X26.3199 Y29.4666
G01 X26.3096 Y29.4616
G01 X26.2988 Y29.4577
G01 X26.2877 Y29.4549
G01 X26.2160 Y29.4473
G01 X26.2046 Y29.4468
G01 X26.1931 Y29.4474
G01 X26.1818 Y29.4491
G01 X26.1708 Y29.4520
G01 X26.1130 Y29.4701
G01 X26.1022 Y29.4740
G01 X26.0920 Y29.4790
G01 X26.0822 Y29.4851
G01 X26.0732 Y29.4920
G01 X26.0185 Y29.5392
G01 X26.0110 Y29.5478
G01 X26.0044 Y29.5572
G01 X25.9987 Y29.5672
G01 X25.9669 Y29.6318
G01 X25.9634 Y29.6426
G01 X25.9609 Y29.6537
G01 X25.9556 Y29.7256
G01 X25.9555 Y29.7381
G01 X25.9567 Y29.7506
G01 X25.9593 Y29.7629
G01 X25.9695 Y29.8007
G01 X25.9743 Y29.8146
G01 X25.9978 Y29.8714
G01 X25.9721 Y29.8642
G01 X25.9574 Y29.8615
G01 X25.9411 Y29.8058
G01 X25.8959 Y29.6962
G01 X25.8904 Y29.6847
G01 X25.8329 Y29.5810
G01 X25.7644 Y29.4842
G01 X25.7564 Y29.4742
G01 X25.6773 Y29.3859
G01 X25.5890 Y29.3068
G01 X25.5790 Y29.2988
G01 X25.4822 Y29.2303
G01 X25.3729 Y29.1699
G01 X25.2634 Y29.1244
G01 X25.2513 Y29.1201
G01 X25.1373 Y29.0875
G01 X25.0798 Y29.0775
G01 X25.0798 Y29.0340
G01 X25.1161 Y29.0340
G01 X25.2951 Y29.1082
G01 X25.3059 Y29.1120
G01 X25.3764 Y29.1263
G01 X25.3877 Y29.1280
G01 X25.3991 Y29.1284
G01 X25.4105 Y29.1278
G01 X25.4812 Y29.1135
G01 X25.4923 Y29.1106
G01 X25.5031 Y29.1065
G01 X25.5134 Y29.1015
G01 X25.5231 Y29.0954
G01 X25.5728 Y29.0607
G01 X25.5818 Y29.0537
G01 X25.5901 Y29.0458
G01 X25.5976 Y29.0371
G01 X25.6041 Y29.0278
G01 X25.6420 Y28.9664
G01 X25.6466 Y28.9559
G01 X25.6501 Y28.9451
G01 X25.6622 Y28.8741
G01 X25.6636 Y28.8600
G01 X25.6632 Y28.8459
G01 X25.6611 Y28.8320
G01 X25.6573 Y28.8184
G01 X25.6283 Y28.7348
G01 X25.6241 Y28.7244
G01 X25.6190 Y28.7144
G01 X25.6128 Y28.7050
G01 X25.3234 Y28.3067
G01 X25.3120 Y28.2922
G01 X24.9431 Y27.8525
G01 X24.7524 Y27.5225
G01 X24.7403 Y27.5041
G01 X24.6301 Y27.3525
G01 X24.6229 Y27.3436
G01 X24.6149 Y27.3355
G01 X24.5614 Y27.2872
G01 X24.5519 Y27.2808
G01 X24.5418 Y27.2754
G01 X24.5312 Y27.2710
G01 X24.4740 Y27.2507
G01 X24.4631 Y27.2475
G01 X24.4519 Y27.2453
G01 X24.4406 Y27.2443
G01 X24.4292 Y27.2444
G01 X24.3687 Y27.2479
G01 X24.3573 Y27.2491
G01 X24.3460 Y27.2515
G01 X24.3351 Y27.2550
G01 X24.3245 Y27.2596
G01 X24.2701 Y27.2866
G01 X24.2601 Y27.2922
G01 X24.2508 Y27.2987
G01 X24.2421 Y27.3062
G01 X24.2342 Y27.3145
G01 X24.1947 Y27.3605
G01 X24.1869 Y27.3708
G01 X24.1802 Y27.3819
G01 X24.1748 Y27.3937
G01 X24.1709 Y27.4060
G01 X24.1515 Y27.4803
G01 X24.1487 Y27.4947
G01 X24.1478 Y27.5092
G01 X24.1478 Y27.9448
G01 X23.9665 Y28.3824
G01 X23.6316 Y28.7173
G01 X23.1940 Y28.8986
G01 X22.7204 Y28.8986
G01 X22.2828 Y28.7173
G01 X21.9479 Y28.3824
G01 X21.7666 Y27.9448
G01 X21.7666 Y27.4712
G01 X21.8119 Y27.3620
G01 X21.8156 Y27.3515
G01 X21.8299 Y27.2823
G01 X21.8316 Y27.2712
G01 X21.8321 Y27.2600
G01 X21.8321 Y10.7592
G01 X21.8311 Y10.6304
G01 X21.8800 Y10.5123
G01 X21.9288 Y10.3917
G01 X22.0207 Y10.2998
G01 X26.6072 Y5.6380
G01 X26.6179 Y5.6252
G01 X26.7348 Y5.5085
G01 X26.8244 Y5.4173
G01 X26.9445 Y5.3676
G01 X27.0623 Y5.3176
G01 X27.1922 Y5.3176
G01 X27.3554 Y5.3163
G01 X27.3719 Y5.3176
G01 X27.8970 Y5.3176
G01 X27.9085 Y5.3171
G01 X27.9198 Y5.3153
G01 X27.9792 Y5.3032
G01 X27.9902 Y5.3004
G01 X28.0010 Y5.2965
G01 X28.0112 Y5.2915
G01 X28.0209 Y5.2856
G01 X28.0710 Y5.2513
G01 X28.0802 Y5.2443
G01 X28.0885 Y5.2365
G01 X28.0961 Y5.2279
G01 X28.1027 Y5.2186
G01 X28.1354 Y5.1675
G01 X28.1425 Y5.1546
G01 X28.1479 Y5.1410
G01 X28.1515 Y5.1268
G01 X28.1617 Y5.0719
G01 X28.1636 Y5.0510
G01 X28.1636 Y4.9788
G01 X28.2752 Y4.8672
G01 X29.5637 Y4.8672
G01 X29.5752 Y4.8667
G01 X29.5865 Y4.8649
G01 X29.6459 Y4.8528
G01 X29.6570 Y4.8500
G01 X29.6677 Y4.8461
G01 X29.6780 Y4.8411
G01 X29.6877 Y4.8351
G01 X29.7377 Y4.8008
G01 X29.7468 Y4.7939
G01 X29.7552 Y4.7861
G01 X29.7627 Y4.7775
G01 X29.7693 Y4.7682
G01 X29.8020 Y4.7171
G01 X29.8091 Y4.7043
G01 X29.8145 Y4.6907
G01 X29.8181 Y4.6766
G01 X29.8298 Y4.6112
G01 X29.8303 Y4.4834
G01 X29.8298 Y4.4719
G01 X29.8280 Y4.4606
G01 X29.8159 Y4.4012
G01 X29.8131 Y4.3902
G01 X29.8092 Y4.3794
G01 X29.8042 Y4.3692
G01 X29.7983 Y4.3595
G01 X29.7640 Y4.3094
G01 X29.7570 Y4.3002
G01 X29.7492 Y4.2918
G01 X29.7405 Y4.2843
G01 X29.7311 Y4.2776
G01 X29.6800 Y4.2450
G01 X29.6673 Y4.2380
G01 X29.6538 Y4.2326
G01 X29.6397 Y4.2290
G01 X29.5848 Y4.2187
G01 X29.5637 Y4.2168
G01 X22.2687 Y4.2168
G01 X22.2573 Y4.2173
G01 X22.2459 Y4.2191
G01 X22.1864 Y4.2312
G01 X22.1721 Y4.2351
G01 X22.1583 Y4.2408
G01 X22.1454 Y4.2483
G01 X22.0971 Y4.2808
G01 X22.0883 Y4.2874
G01 X22.0801 Y4.2948
G01 X20.4697 Y5.9052
G01 X20.4620 Y5.9137
G01 X20.4552 Y5.9229
G01 X20.4217 Y5.9735
G01 X20.4160 Y5.9832
G01 X20.4113 Y5.9934
G01 X20.4075 Y6.0039
G01 X20.4049 Y6.0148
G01 X20.3938 Y6.0720
G01 X20.3922 Y6.0829
G01 X20.3917 Y6.0938
G01 X20.3917 Y27.6879
G01 X20.2931 Y27.9259
G01 X18.8408 Y29.3782
G01 X18.6028 Y29.4768
G01 X17.4328 Y29.4768
G01 X17.4213 Y29.4773
G01 X17.4100 Y29.4791
G01 X17.3396 Y29.4940
G01 X17.3288 Y29.4979
G01 X17.3186 Y29.5029
G01 X17.2588 Y29.5431
G01 X17.2496 Y29.5501
G01 X17.2413 Y29.5579
G01 X17.2337 Y29.5665
G01 X17.2271 Y29.5758
G01 X17.1944 Y29.6269
G01 X17.1873 Y29.6398
G01 X17.1819 Y29.6534
G01 X17.1783 Y29.6676
G01 X17.1666 Y29.7329
G01 X17.1662 Y29.8156
G01 X17.0546 Y29.9273
G01 X15.7320 Y29.9273
G01 X15.6204 Y29.8156
G01 X15.6204 Y29.0619
G01 X15.6199 Y29.0505
G01 X15.6181 Y29.0391
G01 X15.6060 Y28.9796
G01 X15.6021 Y28.9653
G01 X15.5964 Y28.9515
G01 X15.5889 Y28.9386
G01 X15.5564 Y28.8903
G01 X15.5498 Y28.8815
G01 X15.5338 Y28.8647
G01 X15.4879 Y28.7425
G01 X15.4390 Y28.6244
G01 X15.4432 Y28.4907
G01 X15.4432 Y27.3382
G01 X15.4427 Y27.3268
G01 X15.4288 Y27.2559
G01 X15.4249 Y27.2416
G01 X15.4192 Y27.2278
G01 X15.4117 Y27.2149
G01 X15.3726 Y27.1578
G01 X15.3004 Y27.0849
G01 X15.3004 Y26.3674
G01 X15.3212 Y26.3361
G01 X15.3269 Y26.3264
G01 X15.3316 Y26.3162
G01 X15.3354 Y26.3057
G01 X15.3380 Y26.2948
G01 X15.3507 Y26.2267
G01 X15.3512 Y26.2158
G01 X15.3512 Y25.9714
G01 X15.3768 Y25.9714
G01 X15.3768 Y26.0560
G01 X15.3783 Y26.0745
G01 X15.3811 Y26.0871
G01 X15.3853 Y26.0993
G01 X15.3909 Y26.1110
G01 X15.3977 Y26.1220
G01 X15.4058 Y26.1321
G01 X15.4149 Y26.1412
G01 X15.4250 Y26.1493
G01 X15.4360 Y26.1561
G01 X15.4477 Y26.1617
G01 X15.4599 Y26.1659
G01 X15.4725 Y26.1687
G01 X15.4910 Y26.1702
G01 X16.6910 Y26.1702
G01 X16.7095 Y26.1687
G01 X16.7221 Y26.1659
G01 X16.7343 Y26.1617
G01 X16.7460 Y26.1561
G01 X16.7570 Y26.1493
G01 X16.7671 Y26.1412
G01 X16.7762 Y26.1321
G01 X16.7843 Y26.1220
G01 X16.7911 Y26.1110
G01 X16.7967 Y26.0993
G01 X16.8009 Y26.0871
G01 X16.8037 Y26.0745
G01 X16.8051 Y26.0616
G01 X16.8052 Y25.9714
G01 X16.8308 Y25.9714
G01 X16.8308 Y26.2158
G01 X16.8313 Y26.2272
G01 X16.8452 Y26.2981
G01 X16.8491 Y26.3124
G01 X16.8548 Y26.3262
G01 X16.8623 Y26.3391
G01 X16.8816 Y26.3677
G01 X16.8816 Y27.0849
G01 X16.8169 Y27.1496
G01 X16.8092 Y27.1581
G01 X16.7688 Y27.2179
G01 X16.7631 Y27.2276
G01 X16.7584 Y27.2378
G01 X16.7546 Y27.2483
G01 X16.7409 Y27.3164
G01 X16.7393 Y27.3273
G01 X16.7388 Y27.3382
G01 X16.7388 Y27.4642
G01 X16.7393 Y27.4757
G01 X16.7532 Y27.5464
G01 X16.7560 Y27.5575
G01 X16.7599 Y27.5682
G01 X16.7649 Y27.5785
G01 X16.7709 Y27.5882
G01 X16.8121 Y27.6473
G01 X16.8199 Y27.6557
G01 X16.8285 Y27.6632
G01 X16.8889 Y27.7025
G01 X16.9017 Y27.7096
G01 X16.9153 Y27.7150
G01 X16.9294 Y27.7186
G01 X16.9948 Y27.7303
G01 X17.0546 Y27.7308
G01 X17.1662 Y27.8424
G01 X17.1667 Y27.9261
G01 X17.1806 Y27.9968
G01 X17.1834 Y28.0078
G01 X17.1873 Y28.0186
G01 X17.1923 Y28.0288
G01 X17.2325 Y28.0886
G01 X17.2395 Y28.0978
G01 X17.2473 Y28.1061
G01 X17.2559 Y28.1137
G01 X17.2652 Y28.1203
G01 X17.3163 Y28.1530
G01 X17.3292 Y28.1601
G01 X17.3428 Y28.1655
G01 X17.3570 Y28.1691
G01 X17.4119 Y28.1793
G01 X17.4328 Y28.1812
G01 X18.0951 Y28.1812
G01 X18.1065 Y28.1807
G01 X18.1179 Y28.1789
G01 X18.1774 Y28.1668
G01 X18.1917 Y28.1629
G01 X18.2055 Y28.1572
G01 X18.2184 Y28.1497
G01 X18.2667 Y28.1172
G01 X18.2755 Y28.1106
G01 X18.2837 Y28.1032
G01 X19.0181 Y27.3688
G01 X19.0258 Y27.3603
G01 X19.0326 Y27.3511
G01 X19.0661 Y27.3005
G01 X19.0718 Y27.2908
G01 X19.0765 Y27.2806
G01 X19.0803 Y27.2701
G01 X19.0829 Y27.2592
G01 X19.0956 Y27.1911
G01 X19.0961 Y27.1802
G01 X19.0961 Y25.0676
G01 X19.0956 Y25.0562
G01 X19.0817 Y24.9853
G01 X19.0789 Y24.9743
G01 X19.0750 Y24.9635
G01 X19.0700 Y24.9532
G01 X19.0640 Y24.9435
G01 X19.0297 Y24.8935
G01 X19.0228 Y24.8844
G01 X19.0150 Y24.8760
G01 X19.0064 Y24.8685
G01 X18.9460 Y24.8292
G01 X18.9361 Y24.8235
G01 X18.9256 Y24.8189
G01 X18.9148 Y24.8153
G01 X18.9036 Y24.8128
G01 X18.8438 Y24.8026
G01 X18.8324 Y24.8012
G01 X18.8209 Y24.8010
G01 X18.8095 Y24.8020
G01 X18.7982 Y24.8040
G01 X18.7392 Y24.8180
G01 X18.7255 Y24.8222
G01 X18.7125 Y24.8281
G01 X18.7003 Y24.8355
G01 X18.6564 Y24.8661
G01 X18.6409 Y24.8790
G01 X18.0788 Y25.4412
G01 X17.8408 Y25.5398
G01 X17.0974 Y25.5398
G01 X17.0859 Y25.5403
G01 X17.0746 Y25.5421
G01 X17.0042 Y25.5570
G01 X16.9934 Y25.5609
G01 X16.9832 Y25.5659
G01 X16.9461 Y25.5906
G01 X16.8052 Y25.5906
G01 X16.8051 Y25.5004
G01 X16.8037 Y25.4875
G01 X16.8009 Y25.4749
G01 X16.7967 Y25.4627
G01 X16.7911 Y25.4510
G01 X16.7843 Y25.4400
G01 X16.7762 Y25.4299
G01 X16.7671 Y25.4208
G01 X16.7570 Y25.4127
G01 X16.7460 Y25.4059
G01 X16.7343 Y25.4003
G01 X16.7221 Y25.3961
G01 X16.7095 Y25.3933
G01 X16.6910 Y25.3918
G01 X15.4910 Y25.3918
G01 X15.4725 Y25.3933
G01 X15.4599 Y25.3961
G01 X15.4477 Y25.4003
G01 X15.4360 Y25.4059
G01 X15.4250 Y25.4127
G01 X15.4149 Y25.4208
G01 X15.4058 Y25.4299
G01 X15.3977 Y25.4400
G01 X15.3909 Y25.4510
G01 X15.3853 Y25.4627
G01 X15.3811 Y25.4749
G01 X15.3783 Y25.4875
G01 X15.3768 Y25.5060
G01 X15.3768 Y25.5906
G01 X15.3512 Y25.5906
G01 X15.3512 Y25.3462
G01 X15.3507 Y25.3348
G01 X15.3368 Y25.2639
G01 X15.3329 Y25.2496
G01 X15.3272 Y25.2358
G01 X15.3197 Y25.2229
G01 X15.3004 Y25.1943
G01 X15.3004 Y24.4770
G01 X15.4120 Y24.3654
G01 X15.5300 Y24.3654
G01 X15.5414 Y24.3649
G01 X15.6123 Y24.3510
G01 X15.6266 Y24.3471
G01 X15.6404 Y24.3414
G01 X15.6533 Y24.3339
G01 X15.7016 Y24.3014
G01 X15.7104 Y24.2948
G01 X15.7241 Y24.2818
G01 X15.9621 Y24.1832
G01 X16.2199 Y24.1832
G01 X16.3286 Y24.2277
G01 X16.3978 Y24.2420
G01 X16.4089 Y24.2437
G01 X16.4201 Y24.2442
G01 X17.3055 Y24.2442
G01 X17.3170 Y24.2437
G01 X17.3877 Y24.2298
G01 X17.3987 Y24.2270
G01 X17.4095 Y24.2231
G01 X17.4197 Y24.2181
G01 X17.4294 Y24.2122
G01 X17.4887 Y24.1709
G01 X17.4970 Y24.1631
G01 X17.5046 Y24.1545
G01 X17.5439 Y24.0941
G01 X17.5510 Y24.0812
G01 X17.5564 Y24.0676
G01 X17.5600 Y24.0534
G01 X17.5702 Y23.9985
G01 X17.5721 Y23.9776
G01 X17.5721 Y21.0798
G01 X17.5716 Y21.0684
G01 X17.5698 Y21.0570
G01 X17.5577 Y20.9975
G01 X17.5538 Y20.9832
G01 X17.5481 Y20.9694
G01 X17.5406 Y20.9565
G01 X17.5081 Y20.9082
G01 X17.5015 Y20.8994
G01 X17.4941 Y20.8912
G01 X16.7420 Y20.1391
G01 X16.7335 Y20.1314
G01 X16.7243 Y20.1246
G01 X16.6640 Y20.0854
G01 X16.6538 Y20.0807
G01 X16.6433 Y20.0769
G01 X16.6324 Y20.0743
G01 X16.5752 Y20.0632
G01 X16.5643 Y20.0616
G01 X16.5534 Y20.0611
G01 X10.0897 Y20.0611
G01 X10.0783 Y20.0616
G01 X10.0669 Y20.0634
G01 X10.0074 Y20.0755
G01 X9.9931 Y20.0794
G01 X9.9793 Y20.0851
G01 X9.9664 Y20.0926
G01 X9.9181 Y20.1251
G01 X9.9093 Y20.1317
G01 X9.9011 Y20.1391
G01 X9.8398 Y20.2004
G01 X9.8321 Y20.2089
G01 X9.8253 Y20.2181
G01 X9.7860 Y20.2786
G01 X9.7812 Y20.2890
G01 X9.7774 Y20.2998
G01 X9.7637 Y20.3705
G01 X9.7622 Y20.3818
G01 X9.7618 Y20.3932
G01 X9.7625 Y20.4046
G01 X9.7644 Y20.4159
G01 X9.7774 Y20.4752
G01 X9.7804 Y20.4862
G01 X9.7845 Y20.4969
G01 X9.7897 Y20.5072
G01 X9.7959 Y20.5169
G01 X9.8310 Y20.5663
G01 X9.8400 Y20.5775
G01 X9.8505 Y20.5874
G01 X9.8620 Y20.5960
G01 X9.9169 Y20.6309
G01 X10.2242 Y20.7587
G01 X10.5422 Y21.0767
G01 X10.6288 Y21.2856
G01 X10.6337 Y21.2960
G01 X10.6735 Y21.3560
G01 X10.6803 Y21.3652
G01 X10.6881 Y21.3736
G01 X10.6966 Y21.3812
G01 X10.7566 Y21.4210
G01 X10.7695 Y21.4283
G01 X10.7833 Y21.4338
G01 X10.7976 Y21.4375
G01 X10.8537 Y21.4482
G01 X10.8644 Y21.4497
G01 X10.8751 Y21.4502
G01 X11.3870 Y21.4502
G01 X11.3985 Y21.4497
G01 X11.4098 Y21.4479
G01 X11.4692 Y21.4358
G01 X11.4802 Y21.4330
G01 X11.4910 Y21.4291
G01 X11.5012 Y21.4241
G01 X11.5109 Y21.4182
G01 X11.5610 Y21.3839
G01 X11.5702 Y21.3769
G01 X11.5785 Y21.3691
G01 X11.5861 Y21.3605
G01 X11.5927 Y21.3512
G01 X11.6254 Y21.3001
G01 X11.6325 Y21.2872
G01 X11.6379 Y21.2736
G01 X11.6415 Y21.2594
G01 X11.6517 Y21.2045
G01 X11.6536 Y21.1836
G01 X11.6536 Y21.1114
G01 X11.7652 Y20.9998
G01 X13.0878 Y20.9998
G01 X13.1994 Y21.1114
G01 X13.1994 Y21.5509
G01 X13.1999 Y21.5623
G01 X13.2017 Y21.5737
G01 X13.2138 Y21.6332
G01 X13.2177 Y21.6475
G01 X13.2234 Y21.6613
G01 X13.2309 Y21.6742
G01 X13.2700 Y21.7313
G01 X13.3315 Y21.7935
G01 X13.4291 Y21.8827
G01 X13.4777 Y22.0002
G01 X13.5337 Y22.1196
G01 X13.5337 Y22.2463
G01 X13.5397 Y22.3798
G01 X13.5354 Y22.4043
G01 X13.5337 Y22.4241
G01 X13.5337 Y23.9308
G01 X13.5342 Y23.9423
G01 X13.5360 Y23.9536
G01 X13.5481 Y24.0130
G01 X13.5509 Y24.0240
G01 X13.5548 Y24.0348
G01 X13.5598 Y24.0450
G01 X13.5657 Y24.0547
G01 X13.6000 Y24.1048
G01 X13.6092 Y24.1165
G01 X13.6198 Y24.1269
G01 X13.6316 Y24.1358
G01 X13.6886 Y24.1726
G01 X13.7917 Y24.2158
G01 X13.8632 Y24.2874
G01 X13.8717 Y24.2951
G01 X13.9315 Y24.3354
G01 X13.9412 Y24.3411
G01 X13.9514 Y24.3458
G01 X13.9619 Y24.3496
G01 X13.9728 Y24.3522
G01 X14.0409 Y24.3649
G01 X14.1698 Y24.3654
G01 X14.2814 Y24.4770
G01 X14.2814 Y25.1850
G01 X14.1698 Y25.2966
G01 X14.0518 Y25.2966
G01 X14.0404 Y25.2971
G01 X13.9695 Y25.3110
G01 X13.9552 Y25.3149
G01 X13.9414 Y25.3206
G01 X13.9285 Y25.3281
G01 X13.8802 Y25.3606
G01 X13.8714 Y25.3672
G01 X13.8577 Y25.3802
G01 X13.6197 Y25.4788
G01 X13.3619 Y25.4788
G01 X13.2516 Y25.4331
G01 X13.2411 Y25.4293
G01 X13.1719 Y25.4150
G01 X13.1608 Y25.4133
G01 X13.1496 Y25.4128
G01 X12.7570 Y25.4128
G01 X12.5190 Y25.3142
G01 X12.3367 Y25.1319
G01 X12.2381 Y24.8939
G01 X12.2381 Y23.4629
G01 X12.2376 Y23.4515
G01 X12.2358 Y23.4401
G01 X12.2237 Y23.3806
G01 X12.2209 Y23.3696
G01 X12.2170 Y23.3588
G01 X12.2120 Y23.3485
G01 X12.2060 Y23.3388
G01 X12.1717 Y23.2888
G01 X12.1648 Y23.2797
G01 X12.1570 Y23.2713
G01 X12.1484 Y23.2638
G01 X12.1391 Y23.2572
G01 X12.0880 Y23.2245
G01 X12.0751 Y23.2174
G01 X12.0615 Y23.2120
G01 X12.0473 Y23.2084
G01 X11.9820 Y23.1967
G01 X11.7652 Y23.1963
G01 X11.6536 Y23.0846
G01 X11.6531 Y23.0009
G01 X11.6513 Y22.9896
G01 X11.6364 Y22.9192
G01 X11.6325 Y22.9084
G01 X11.6275 Y22.8982
G01 X11.5873 Y22.8384
G01 X11.5803 Y22.8292
G01 X11.5725 Y22.8209
G01 X11.5639 Y22.8133
G01 X11.5546 Y22.8067
G01 X11.5035 Y22.7740
G01 X11.4906 Y22.7669
G01 X11.4770 Y22.7615
G01 X11.4628 Y22.7579
G01 X11.4079 Y22.7477
G01 X11.3870 Y22.7458
G01 X10.1071 Y22.7458
G01 X10.0959 Y22.7463
G01 X10.0264 Y22.7595
G01 X10.0153 Y22.7624
G01 X9.9995 Y22.7684
G01 X9.9894 Y22.7732
G01 X9.9799 Y22.7790
G01 X9.9296 Y22.8129
G01 X9.9204 Y22.8197
G01 X9.9120 Y22.8275
G01 X9.9044 Y22.8360
G01 X9.8977 Y22.8452
G01 X9.8646 Y22.8960
G01 X9.8588 Y22.9060
G01 X9.8541 Y22.9164
G01 X9.8504 Y22.9273
G01 X9.8372 Y22.9983
G01 X9.8358 Y23.0095
G01 X9.8355 Y23.0209
G01 X9.8363 Y23.0323
G01 X9.8383 Y23.0435
G01 X9.8548 Y23.1136
G01 X9.8590 Y23.1243
G01 X9.8642 Y23.1345
G01 X9.8705 Y23.1441
G01 X9.9060 Y23.1933
G01 X9.9151 Y23.2044
G01 X9.9255 Y23.2143
G01 X9.9371 Y23.2228
G01 X9.9822 Y23.2516
G01 X10.0000 Y23.2609
G01 X10.1954 Y23.3418
G01 X10.4992 Y23.6455
G01 X10.6635 Y24.0422
G01 X10.6635 Y24.0666
G01 X10.6192 Y24.0666
G01 X10.6128 Y24.0287
G01 X10.6099 Y24.0162
G01 X10.5807 Y23.9150
G01 X10.5765 Y23.9029
G01 X10.5336 Y23.7997
G01 X10.4764 Y23.6962
G01 X10.4118 Y23.6049
G01 X10.4038 Y23.5949
G01 X10.3292 Y23.5117
G01 X10.2411 Y23.4329
G01 X10.1447 Y23.3645
G01 X10.0469 Y23.3103
G01 X10.0354 Y23.3047
G01 X9.9320 Y23.2621
G01 X9.8184 Y23.2294
G01 X9.7083 Y23.2105
G01 X9.6955 Y23.2090
G01 X9.5839 Y23.2030
G01 X9.4723 Y23.2090
G01 X9.4595 Y23.2105
G01 X9.3494 Y23.2294
G01 X9.2358 Y23.2621
G01 X9.1324 Y23.3047
G01 X9.1209 Y23.3103
G01 X9.0231 Y23.3645
G01 X8.9267 Y23.4329
G01 X8.8386 Y23.5117
G01 X8.7640 Y23.5949
G01 X8.7560 Y23.6049
G01 X8.6914 Y23.6962
G01 X8.6342 Y23.7997
G01 X8.5913 Y23.9029
G01 X8.5871 Y23.9150
G01 X8.5579 Y24.0162
G01 X8.5550 Y24.0287
G01 X8.5486 Y24.0666
G00 Z2.5400
G00 X9.4271 Y22.8794
G01 F76.20
G01 Z-0.0508
G01 F76.20
G01 X9.4525 Y22.8833
G01 X9.4656 Y22.8844
G01 X9.5839 Y22.8907
G01 X9.7022 Y22.8844
G01 X9.7153 Y22.8833
G01 X9.7404 Y22.8795
G01 X9.7352 Y22.8947
G01 X9.7300 Y22.9176
G01 X9.7194 Y22.9774
G01 X9.7165 Y23.0005
G01 X9.7158 Y23.0238
G01 X9.7176 Y23.0470
G01 X9.7216 Y23.0699
G01 X9.7266 Y23.0923
G01 X9.7022 Y23.0896
G01 X9.5839 Y23.0833
G01 X9.4656 Y23.0896
G01 X9.4412 Y23.0922
G01 X9.4484 Y23.0518
G01 X9.4513 Y23.0287
G01 X9.4520 Y23.0054
G01 X9.4503 Y22.9822
G01 X9.4462 Y22.9593
G01 X9.4328 Y22.9001
G01 X9.4271 Y22.8794
G00 Z2.5400
G00 X9.3052 Y22.7944
G01 F76.20
G01 Z-0.0508
G01 F76.20
G01 X9.3266 Y22.8005
G01 X9.3456 Y22.8049
G01 X9.4592 Y22.8239
G01 X9.5839 Y22.8309
G01 X9.7086 Y22.8239
G01 X9.8222 Y22.8049
G01 X9.8412 Y22.8005
G01 X9.8610 Y22.7948
G01 X9.8475 Y22.8126
G01 X9.8144 Y22.8634
G01 X9.8056 Y22.8785
G01 X9.7984 Y22.8944
G01 X9.7928 Y22.9110
G01 X9.7889 Y22.9280
G01 X9.7783 Y22.9878
G01 X9.7761 Y23.0050
G01 X9.7757 Y23.0223
G01 X9.7769 Y23.0396
G01 X9.7799 Y23.0567
G01 X9.7933 Y23.1158
G01 X9.7980 Y23.1326
G01 X9.8044 Y23.1489
G01 X9.8146 Y23.1679
G01 X9.7086 Y23.1501
G01 X9.5839 Y23.1431
G01 X9.4592 Y23.1501
G01 X9.3517 Y23.1681
G01 X9.3621 Y23.1505
G01 X9.3694 Y23.1346
G01 X9.3750 Y23.1181
G01 X9.3789 Y23.1010
G01 X9.3895 Y23.0413
G01 X9.3917 Y23.0241
G01 X9.3921 Y23.0068
G01 X9.3909 Y22.9895
G01 X9.3879 Y22.9725
G01 X9.3745 Y22.9133
G01 X9.3698 Y22.8964
G01 X9.3634 Y22.8801
G01 X9.3554 Y22.8645
G01 X9.3459 Y22.8498
G01 X9.3052 Y22.7944
G00 Z2.5400
G00 X9.6641 Y22.9465
G01 F76.20
G01 Z-0.0508
G01 F76.20
G01 X9.6604 Y22.9669
G01 X9.6568 Y22.9959
G01 X9.6562 Y23.0270
G01 X9.5839 Y23.0234
G01 X9.5112 Y23.0271
G01 X9.5118 Y23.0040
G01 X9.5096 Y22.9749
G01 X9.5047 Y22.9466
G01 X9.5839 Y22.9506
G01 X9.6641 Y22.9465
G00 Z2.5400
G00 X10.1305 Y22.6859
G01 F76.20
G01 Z-0.0508
G01 F76.20
G01 X10.1765 Y22.6601
G01 X10.2706 Y22.5937
G01 X10.2859 Y22.5816
G01 X10.3478 Y22.5262
G01 X11.6701 Y22.5262
G01 X11.6701 Y22.8535
G01 X11.6366 Y22.8046
G01 X11.6261 Y22.7907
G01 X11.6142 Y22.7779
G01 X11.6010 Y22.7664
G01 X11.5868 Y22.7563
G01 X11.5357 Y22.7236
G01 X11.5162 Y22.7128
G01 X11.4954 Y22.7045
G01 X11.4737 Y22.6990
G01 X11.4188 Y22.6888
G01 X11.4030 Y22.6867
G01 X11.3870 Y22.6859
G01 X10.1305 Y22.6859
G00 Z2.5400
G00 X10.3258 Y22.6261
G01 F76.20
G01 Z-0.0508
G01 F76.20
G01 X10.3706 Y22.5860
G01 X11.6103 Y22.5860
G01 X11.6103 Y22.7002
G01 X11.5680 Y22.6732
G01 X11.5417 Y22.6586
G01 X11.5138 Y22.6476
G01 X11.4846 Y22.6402
G01 X11.4297 Y22.6300
G01 X11.4085 Y22.6271
G01 X11.3870 Y22.6261
G01 X10.3258 Y22.6261
G00 Z2.5400
G00 X10.3249 Y22.4664
G01 F76.20
G01 Z-0.0508
G01 F76.20
G01 X10.2411 Y22.5411
G01 X10.1447 Y22.6095
G01 X10.0412 Y22.6667
G01 X9.9380 Y22.7096
G01 X9.9259 Y22.7138
G01 X9.8247 Y22.7430
G01 X9.8122 Y22.7459
G01 X9.7019 Y22.7644
G01 X9.5839 Y22.7710
G01 X9.4659 Y22.7644
G01 X9.3556 Y22.7459
G01 X9.3431 Y22.7430
G01 X9.2419 Y22.7138
G01 X9.2298 Y22.7096
G01 X9.1266 Y22.6667
G01 X9.0231 Y22.6095
G01 X8.9267 Y22.5411
G01 X8.8386 Y22.4623
G01 X8.7598 Y22.3742
G01 X8.6950 Y22.2831
G01 X8.6882 Y22.2723
G01 X8.6372 Y22.1800
G01 X8.6316 Y22.1685
G01 X8.5890 Y22.0651
G01 X8.5563 Y21.9515
G01 X8.5365 Y21.8350
G01 X8.5299 Y21.7170
G01 X8.5365 Y21.5990
G01 X8.5563 Y21.4825
G01 X8.5890 Y21.3689
G01 X8.6316 Y21.2655
G01 X8.6372 Y21.2540
G01 X8.6882 Y21.1617
G01 X8.6950 Y21.1509
G01 X8.7598 Y21.0598
G01 X8.8386 Y20.9717
G01 X8.9218 Y20.8971
G01 X8.9318 Y20.8891
G01 X9.0231 Y20.8245
G01 X9.1209 Y20.7703
G01 X9.1324 Y20.7647
G01 X9.2358 Y20.7221
G01 X9.3431 Y20.6910
G01 X9.3556 Y20.6881
G01 X9.4659 Y20.6696
G01 X9.5775 Y20.6631
G01 X9.5903 Y20.6631
G01 X9.7019 Y20.6696
G01 X9.8122 Y20.6881
G01 X9.8247 Y20.6910
G01 X9.9320 Y20.7221
G01 X10.0354 Y20.7647
G01 X10.0469 Y20.7703
G01 X10.1447 Y20.8245
G01 X10.2360 Y20.8891
G01 X10.2460 Y20.8971
G01 X10.3292 Y20.9717
G01 X10.4038 Y21.0549
G01 X10.4118 Y21.0649
G01 X10.4764 Y21.1562
G01 X10.5306 Y21.2540
G01 X10.5362 Y21.2655
G01 X10.5788 Y21.3689
G01 X10.6099 Y21.4762
G01 X10.6128 Y21.4887
G01 X10.6313 Y21.5990
G01 X10.6378 Y21.7106
G01 X10.6374 Y21.7296
G01 X11.7300 Y21.7296
G01 X11.7300 Y21.1903
G01 X11.7315 Y21.1719
G01 X11.7343 Y21.1593
G01 X11.7385 Y21.1470
G01 X11.7441 Y21.1354
G01 X11.7509 Y21.1244
G01 X11.7590 Y21.1143
G01 X11.7681 Y21.1051
G01 X11.7782 Y21.0971
G01 X11.7892 Y21.0902
G01 X11.8009 Y21.0846
G01 X11.8131 Y21.0804
G01 X11.8257 Y21.0776
G01 X11.8442 Y21.0761
G01 X13.0088 Y21.0761
G01 X13.0273 Y21.0776
G01 X13.0399 Y21.0804
G01 X13.0521 Y21.0846
G01 X13.0638 Y21.0902
G01 X13.0748 Y21.0971
G01 X13.0849 Y21.1051
G01 X13.0940 Y21.1143
G01 X13.1021 Y21.1244
G01 X13.1089 Y21.1354
G01 X13.1145 Y21.1470
G01 X13.1187 Y21.1593
G01 X13.1215 Y21.1719
G01 X13.1229 Y21.1847
G01 X13.1230 Y21.9823
G01 X13.1481 Y22.0052
G01 X13.1752 Y22.0359
G01 X13.1987 Y22.0695
G01 X13.2184 Y22.1054
G01 X13.2339 Y22.1433
G01 X13.2452 Y22.1827
G01 X13.2520 Y22.2231
G01 X13.2541 Y22.2576
G01 X13.2543 Y24.3966
G01 X13.4248 Y24.3966
G01 X13.4660 Y24.3989
G01 X13.5068 Y24.4059
G01 X13.5404 Y24.4154
G01 X13.5788 Y24.4305
G01 X13.6006 Y24.4418
G01 X14.0964 Y24.4419
G01 X14.1093 Y24.4433
G01 X14.1219 Y24.4461
G01 X14.1341 Y24.4503
G01 X14.1458 Y24.4559
G01 X14.1568 Y24.4627
G01 X14.1669 Y24.4708
G01 X14.1760 Y24.4799
G01 X14.1841 Y24.4900
G01 X14.1909 Y24.5010
G01 X14.1965 Y24.5127
G01 X14.2007 Y24.5249
G01 X14.2035 Y24.5375
G01 X14.2050 Y24.5560
G01 X14.2049 Y25.1116
G01 X14.2035 Y25.1245
G01 X14.2007 Y25.1371
G01 X14.1965 Y25.1493
G01 X14.1909 Y25.1610
G01 X14.1841 Y25.1720
G01 X14.1760 Y25.1821
G01 X14.1669 Y25.1912
G01 X14.1568 Y25.1993
G01 X14.1458 Y25.2061
G01 X14.1341 Y25.2117
G01 X14.1219 Y25.2159
G01 X14.1093 Y25.2187
G01 X14.0964 Y25.2201
G01 X12.8852 Y25.2201
G01 X12.8723 Y25.2187
G01 X12.8597 Y25.2159
G01 X12.8475 Y25.2117
G01 X12.8358 Y25.2061
G01 X12.8248 Y25.1993
G01 X12.8147 Y25.1912
G01 X12.8056 Y25.1821
G01 X12.7975 Y25.1720
G01 X12.7907 Y25.1610
G01 X12.7851 Y25.1493
G01 X12.7809 Y25.1371
G01 X12.7781 Y25.1245
G01 X12.7772 Y25.1166
G01 X12.7582 Y25.1104
G01 X12.7261 Y25.0969
G01 X12.6899 Y25.0769
G01 X12.6562 Y25.0530
G01 X12.6301 Y25.0299
G01 X12.6210 Y25.0208
G01 X12.5979 Y24.9947
G01 X12.5740 Y24.9610
G01 X12.5540 Y24.9248
G01 X12.5405 Y24.8927
G01 X12.5284 Y24.8532
G01 X12.5255 Y24.8407
G01 X12.5198 Y24.8062
G01 X12.5177 Y24.7714
G01 X12.5175 Y23.1199
G01 X11.8386 Y23.1198
G01 X11.8257 Y23.1184
G01 X11.8131 Y23.1156
G01 X11.8009 Y23.1114
G01 X11.7892 Y23.1058
G01 X11.7782 Y23.0989
G01 X11.7681 Y23.0909
G01 X11.7590 Y23.0817
G01 X11.7509 Y23.0716
G01 X11.7441 Y23.0606
G01 X11.7385 Y23.0490
G01 X11.7343 Y23.0367
G01 X11.7315 Y23.0241
G01 X11.7301 Y23.0113
G01 X11.7300 Y22.4664
G01 X10.3249 Y22.4664
G00 Z2.5400
G00 X10.5741 Y21.7895
G01 F76.20
G01 Z-0.0508
G01 F76.20
G01 X11.7898 Y21.7895
G01 X11.7899 Y21.1877
G01 X11.7919 Y21.1755
G01 X11.7939 Y21.1697
G01 X11.7998 Y21.1589
G01 X11.8036 Y21.1541
G01 X11.8128 Y21.1459
G01 X11.8236 Y21.1400
G01 X11.8294 Y21.1380
G01 X11.8442 Y21.1360
G01 X13.0088 Y21.1360
G01 X13.0176 Y21.1367
G01 X13.0294 Y21.1400
G01 X13.0402 Y21.1459
G01 X13.0450 Y21.1498
G01 X13.0532 Y21.1589
G01 X13.0591 Y21.1697
G01 X13.0625 Y21.1816
G01 X13.0632 Y21.1904
G01 X13.0632 Y22.0120
G01 X13.0800 Y22.0242
G01 X13.1033 Y22.0452
G01 X13.1262 Y22.0707
G01 X13.1479 Y22.1011
G01 X13.1630 Y22.1285
G01 X13.1774 Y22.1629
G01 X13.1868 Y22.1959
G01 X13.1925 Y22.2297
G01 X13.1943 Y22.2610
G01 X13.1944 Y24.4565
G01 X13.4248 Y24.4565
G01 X13.4593 Y24.4584
G01 X13.4935 Y24.4642
G01 X13.5267 Y24.4738
G01 X13.5587 Y24.4870
G01 X13.5852 Y24.5016
G01 X14.0908 Y24.5016
G01 X14.1056 Y24.5037
G01 X14.1114 Y24.5057
G01 X14.1222 Y24.5116
G01 X14.1314 Y24.5198
G01 X14.1385 Y24.5298
G01 X14.1431 Y24.5412
G01 X14.1452 Y24.5560
G01 X14.1452 Y25.1060
G01 X14.1445 Y25.1148
G01 X14.1411 Y25.1266
G01 X14.1352 Y25.1374
G01 X14.1314 Y25.1422
G01 X14.1222 Y25.1504
G01 X14.1114 Y25.1563
G01 X14.0996 Y25.1597
G01 X14.0908 Y25.1604
G01 X12.8908 Y25.1604
G01 X12.8820 Y25.1597
G01 X12.8702 Y25.1563
G01 X12.8594 Y25.1504
G01 X12.8502 Y25.1422
G01 X12.8431 Y25.1322
G01 X12.8385 Y25.1208
G01 X12.8371 Y25.1148
G01 X12.8364 Y25.1060
G01 X12.8364 Y25.0691
G01 X12.8172 Y25.0658
G01 X12.7840 Y25.0562
G01 X12.7520 Y25.0430
G01 X12.7244 Y25.0278
G01 X12.6912 Y25.0042
G01 X12.6677 Y24.9832
G01 X12.6467 Y24.9597
G01 X12.6231 Y24.9265
G01 X12.6079 Y24.8989
G01 X12.5947 Y24.8669
G01 X12.5845 Y24.8307
G01 X12.5793 Y24.7995
G01 X12.5774 Y24.7665
G01 X12.5774 Y23.0601
G01 X11.8442 Y23.0601
G01 X11.8354 Y23.0593
G01 X11.8236 Y23.0560
G01 X11.8128 Y23.0501
G01 X11.8080 Y23.0462
G01 X11.7998 Y23.0371
G01 X11.7965 Y23.0318
G01 X11.7919 Y23.0205
G01 X11.7899 Y23.0083
G01 X11.7898 Y22.4065
G01 X10.2991 Y22.4065
G01 X10.2847 Y22.4221
G01 X10.2038 Y22.4943
G01 X10.1128 Y22.5588
G01 X10.0153 Y22.6127
G01 X9.9094 Y22.6563
G01 X9.8021 Y22.6869
G01 X9.6952 Y22.7049
G01 X9.5870 Y22.7111
G01 X9.4726 Y22.7049
G01 X9.3627 Y22.6863
G01 X9.2555 Y22.6554
G01 X9.1553 Y22.6140
G01 X9.0524 Y22.5571
G01 X8.9640 Y22.4943
G01 X8.8809 Y22.4200
G01 X8.8066 Y22.3369
G01 X8.7438 Y22.2485
G01 X8.6869 Y22.1456
G01 X8.6455 Y22.0454
G01 X8.6146 Y21.9382
G01 X8.5960 Y21.8283
G01 X8.5898 Y21.7201
G01 X8.5960 Y21.6057
G01 X8.6146 Y21.4958
G01 X8.6455 Y21.3886
G01 X8.6882 Y21.2856
G01 X8.7405 Y21.1907
G01 X8.8086 Y21.0948
G01 X8.8809 Y21.0140
G01 X8.9640 Y20.9397
G01 X9.0550 Y20.8752
G01 X9.1498 Y20.8227
G01 X9.2584 Y20.7777
G01 X9.3627 Y20.7477
G01 X9.4726 Y20.7291
G01 X9.5839 Y20.7228
G01 X9.6952 Y20.7291
G01 X9.8051 Y20.7477
G01 X9.9094 Y20.7777
G01 X10.0180 Y20.8227
G01 X10.1128 Y20.8752
G01 X10.2038 Y20.9397
G01 X10.2869 Y21.0140
G01 X10.3612 Y21.0971
G01 X10.4257 Y21.1881
G01 X10.4782 Y21.2829
G01 X10.5232 Y21.3915
G01 X10.5532 Y21.4958
G01 X10.5718 Y21.6057
G01 X10.5781 Y21.7170
G01 X10.5741 Y21.7895
G00 Z2.5400
G00 X11.6103 Y21.4952
G01 F76.20
G01 Z-0.0508
G01 F76.20
G01 X11.6103 Y21.6100
G01 X10.7520 Y21.6100
G01 X10.7502 Y21.5856
G01 X10.7440 Y21.5468
G01 X10.7752 Y21.5551
G01 X10.8313 Y21.5658
G01 X10.8531 Y21.5689
G01 X10.8751 Y21.5699
G01 X11.3870 Y21.5699
G01 X11.4105 Y21.5687
G01 X11.4337 Y21.5652
G01 X11.4931 Y21.5531
G01 X11.5157 Y21.5473
G01 X11.5376 Y21.5393
G01 X11.5586 Y21.5291
G01 X11.5785 Y21.5169
G01 X11.6103 Y21.4952
G00 Z2.5400
G00 X11.6701 Y21.3412
G01 F76.20
G01 Z-0.0508
G01 F76.20
G01 X11.6701 Y21.6698
G01 X10.6954 Y21.6698
G01 X10.6916 Y21.6020
G01 X10.6894 Y21.5826
G01 X10.6699 Y21.4691
G01 X10.6579 Y21.4268
G01 X10.6732 Y21.4381
G01 X10.7240 Y21.4712
G01 X10.7436 Y21.4822
G01 X10.7645 Y21.4906
G01 X10.7864 Y21.4963
G01 X10.8425 Y21.5070
G01 X10.8587 Y21.5093
G01 X10.8751 Y21.5101
G01 X11.3870 Y21.5101
G01 X11.4045 Y21.5092
G01 X11.4217 Y21.5066
G01 X11.4811 Y21.4945
G01 X11.4980 Y21.4902
G01 X11.5143 Y21.4842
G01 X11.5299 Y21.4766
G01 X11.5447 Y21.4675
G01 X11.5948 Y21.4332
G01 X11.6087 Y21.4227
G01 X11.6215 Y21.4108
G01 X11.6330 Y21.3976
G01 X11.6431 Y21.3834
G01 X11.6701 Y21.3412
G00 Z2.5400
G00 X12.1291 Y23.1797
G01 F76.20
G01 Z-0.0508
G01 F76.20
G01 X12.4577 Y23.1797
G01 X12.4580 Y24.7748
G01 X12.4604 Y24.8129
G01 X12.4665 Y24.8507
G01 X12.4709 Y24.8697
G01 X12.4817 Y24.9064
G01 X12.4961 Y24.9419
G01 X12.5046 Y24.9595
G01 X12.5233 Y24.9928
G01 X12.5511 Y25.0320
G01 X12.5831 Y25.0678
G01 X12.6115 Y25.0935
G01 X12.6267 Y25.1057
G01 X12.6500 Y25.1221
G01 X12.6665 Y25.1325
G01 X12.7001 Y25.1508
G01 X12.7262 Y25.1619
G01 X12.7297 Y25.1720
G01 X12.7382 Y25.1898
G01 X12.7487 Y25.2065
G01 X12.7609 Y25.2219
G01 X12.7749 Y25.2359
G01 X12.7903 Y25.2481
G01 X12.8070 Y25.2586
G01 X12.8248 Y25.2671
G01 X12.8434 Y25.2735
G01 X12.8627 Y25.2778
G01 X12.8908 Y25.2801
G01 X13.8927 Y25.2801
G01 X13.8468 Y25.3110
G01 X13.8333 Y25.3210
G01 X13.8243 Y25.3292
G01 X13.6078 Y25.4189
G01 X13.3738 Y25.4189
G01 X13.2745 Y25.3778
G01 X13.2584 Y25.3720
G01 X13.2419 Y25.3679
G01 X13.1836 Y25.3563
G01 X13.1667 Y25.3538
G01 X13.1496 Y25.3529
G01 X12.7689 Y25.3529
G01 X12.5529 Y25.2634
G01 X12.3875 Y25.0980
G01 X12.2980 Y24.8820
G01 X12.2980 Y23.4629
G01 X12.2971 Y23.4455
G01 X12.2945 Y23.4282
G01 X12.2824 Y23.3687
G01 X12.2781 Y23.3518
G01 X12.2721 Y23.3355
G01 X12.2645 Y23.3198
G01 X12.2553 Y23.3049
G01 X12.2210 Y23.2549
G01 X12.2105 Y23.2411
G01 X12.1986 Y23.2284
G01 X12.1855 Y23.2169
G01 X12.1713 Y23.2068
G01 X12.1291 Y23.1797
G00 Z2.5400
G00 X12.2831 Y23.2396
G01 F76.20
G01 Z-0.0508
G01 F76.20
G01 X12.3979 Y23.2396
G01 X12.3979 Y24.7650
G01 X12.4009 Y24.8196
G01 X12.4101 Y24.8736
G01 X12.4252 Y24.9262
G01 X12.4462 Y24.9768
G01 X12.4727 Y25.0247
G01 X12.5043 Y25.0693
G01 X12.5408 Y25.1101
G01 X12.5816 Y25.1466
G01 X12.6262 Y25.1782
G01 X12.6625 Y25.1987
G01 X12.6805 Y25.2076
G01 X12.6858 Y25.2186
G01 X12.6998 Y25.2411
G01 X12.7163 Y25.2618
G01 X12.7241 Y25.2696
G01 X12.5868 Y25.2127
G01 X12.4382 Y25.0641
G01 X12.3578 Y24.8701
G01 X12.3578 Y23.4629
G01 X12.3566 Y23.4395
G01 X12.3531 Y23.4163
G01 X12.3410 Y23.3568
G01 X12.3352 Y23.3341
G01 X12.3272 Y23.3121
G01 X12.3170 Y23.2910
G01 X12.3047 Y23.2711
G01 X12.2831 Y23.2396
G00 Z2.5400
G00 X13.4338 Y24.1798
G01 F76.20
G01 Z-0.0508
G01 F76.20
G01 X13.4519 Y24.2063
G01 X13.4617 Y24.2187
G01 X13.4338 Y24.2173
G01 X13.4338 Y24.1798
G00 Z2.5400
G00 X13.7287 Y24.3221
G01 F76.20
G01 Z-0.0508
G01 F76.20
G01 X13.6294 Y24.3221
G01 X13.5860 Y24.3043
G01 X13.5461 Y24.2925
G01 X13.5205 Y24.2866
G01 X13.4924 Y24.2819
G01 X13.4664 Y24.2789
G01 X13.4314 Y24.2770
G01 X13.3739 Y24.2770
G01 X13.3736 Y22.2510
G01 X13.3709 Y22.2098
G01 X13.3644 Y22.1690
G01 X13.3587 Y22.1437
G01 X13.3470 Y22.1041
G01 X13.3264 Y22.0539
G01 X13.3003 Y22.0063
G01 X13.2691 Y21.9618
G01 X13.2427 Y21.9313
G01 X13.2427 Y21.8740
G01 X13.3287 Y21.9531
G01 X13.3687 Y22.0495
G01 X13.4140 Y22.1463
G01 X13.4141 Y22.2497
G01 X13.4195 Y22.3721
G01 X13.4149 Y22.4037
G01 X13.4140 Y22.4241
G01 X13.4140 Y23.9308
G01 X13.4152 Y23.9543
G01 X13.4187 Y23.9775
G01 X13.4308 Y24.0369
G01 X13.4366 Y24.0595
G01 X13.4446 Y24.0814
G01 X13.4548 Y24.1024
G01 X13.4670 Y24.1223
G01 X13.5013 Y24.1724
G01 X13.5200 Y24.1963
G01 X13.5417 Y24.2176
G01 X13.5660 Y24.2359
G01 X13.6137 Y24.2672
G01 X13.6326 Y24.2784
G01 X13.6525 Y24.2877
G01 X13.7239 Y24.3173
G01 X13.7287 Y24.3221
G00 Z2.5400
G00 X13.8935 Y24.3819
G01 F76.20
G01 Z-0.0508
G01 F76.20
G01 X13.6159 Y24.3819
G01 X13.5754 Y24.3643
G01 X13.5569 Y24.3579
G01 X13.5201 Y24.3475
G01 X13.4824 Y24.3409
G01 X13.4630 Y24.3387
G01 X13.4297 Y24.3369
G01 X13.3141 Y24.3368
G01 X13.3138 Y22.2543
G01 X13.3115 Y22.2164
G01 X13.3035 Y22.1695
G01 X13.2905 Y22.1237
G01 X13.2763 Y22.0885
G01 X13.2680 Y22.0710
G01 X13.2495 Y22.0379
G01 X13.2279 Y22.0066
G01 X13.2160 Y21.9914
G01 X13.1972 Y21.9703
G01 X13.1829 Y21.9558
G01 X13.1829 Y21.7100
G01 X13.2138 Y21.7559
G01 X13.2238 Y21.7694
G01 X13.2351 Y21.7818
G01 X13.2905 Y21.8371
G01 X13.3789 Y21.9179
G01 X13.4232 Y22.0248
G01 X13.4738 Y22.1329
G01 X13.4739 Y22.2480
G01 X13.4796 Y22.3760
G01 X13.4745 Y22.4089
G01 X13.4738 Y22.4241
G01 X13.4738 Y23.9308
G01 X13.4747 Y23.9483
G01 X13.4773 Y23.9655
G01 X13.4894 Y24.0249
G01 X13.4937 Y24.0418
G01 X13.4997 Y24.0581
G01 X13.5073 Y24.0737
G01 X13.5164 Y24.0885
G01 X13.5507 Y24.1386
G01 X13.5646 Y24.1564
G01 X13.5807 Y24.1722
G01 X13.5988 Y24.1858
G01 X13.6465 Y24.2171
G01 X13.6606 Y24.2255
G01 X13.6754 Y24.2324
G01 X13.7578 Y24.2666
G01 X13.8209 Y24.3297
G01 X13.8339 Y24.3414
G01 X13.8479 Y24.3518
G01 X13.8935 Y24.3819
G00 Z2.5400
G00 X13.3395 Y25.3399
G01 F76.20
G01 Z-0.0508
G01 F76.20
G01 X13.6421 Y25.3399
G01 X13.5959 Y25.3591
G01 X13.3857 Y25.3591
