(G-CODE GENERATED BY FLATCAM v8.912 - www.flatcam.org - Version Date: 2019/03/17)

(Name: drill_1_16.xln_edit_copy_mill_cnc)
(Type: G-code from Geometry)
(Units: MM)

(Created on Monday, 26 July 2021 at 18:54)

(TOOL DIAMETER: 1.0 mm)
(Feedrate: 76.2 mm/min)
(Feedrate_Z: 76.2 mm/min)
(Feedrate rapids 76.2 mm/min)

(Z_Cut: -1.6 mm)
(DepthPerCut: 0.4 mm <=>4 passes)
(Z_Move: 2.54 mm)
(Z Toolchange: 25.4 mm)
(X,Y Toolchange: 0.0000, 0.0000 mm)
(Z Start: None mm)
(Z End: 10.0 mm)
(Steps per circle: 64)
(Postprocessor Geometry: default)

(X range:    8.5999 ...   59.5309  mm)
(Y range:    8.6000 ...   31.6650  mm)

(Spindle Speed: None RPM)

G21
G90
G94

G01 F76.20
G00 Z2.5400

M03
G00 X11.3999 Y10.0000
G01 F76.20
G01 Z-0.4000
G01 F76.20
G01 X11.3932 Y9.8628
G01 X11.3730 Y9.7269
G01 X11.3396 Y9.5936
G01 X11.2933 Y9.4642
G01 X11.2346 Y9.3400
G01 X11.1640 Y9.2222
G01 X11.0821 Y9.1118
G01 X10.9898 Y9.0101
G01 X10.8881 Y8.9178
G01 X10.7777 Y8.8359
G01 X10.6599 Y8.7653
G01 X10.5357 Y8.7066
G01 X10.4063 Y8.6603
G01 X10.2730 Y8.6269
G01 X10.1371 Y8.6067
G01 X9.9999 Y8.6000
G01 X9.8627 Y8.6067
G01 X9.7268 Y8.6269
G01 X9.5935 Y8.6603
G01 X9.4641 Y8.7066
G01 X9.3399 Y8.7653
G01 X9.2221 Y8.8359
G01 X9.1117 Y8.9178
G01 X9.0100 Y9.0101
G01 X8.9177 Y9.1118
G01 X8.8358 Y9.2222
G01 X8.7652 Y9.3400
G01 X8.7065 Y9.4642
G01 X8.6602 Y9.5936
G01 X8.6268 Y9.7269
G01 X8.6066 Y9.8628
G01 X8.5999 Y10.0000
G01 X8.6066 Y10.1372
G01 X8.6268 Y10.2731
G01 X8.6602 Y10.4064
G01 X8.7065 Y10.5358
G01 X8.7652 Y10.6600
G01 X8.8358 Y10.7778
G01 X8.9177 Y10.8882
G01 X9.0100 Y10.9899
G01 X9.1117 Y11.0822
G01 X9.2221 Y11.1641
G01 X9.3399 Y11.2347
G01 X9.4641 Y11.2934
G01 X9.5935 Y11.3397
G01 X9.7268 Y11.3731
G01 X9.8627 Y11.3933
G01 X9.9999 Y11.4000
G01 X10.1371 Y11.3933
G01 X10.2730 Y11.3731
G01 X10.4063 Y11.3397
G01 X10.5357 Y11.2934
G01 X10.6599 Y11.2347
G01 X10.7777 Y11.1641
G01 X10.8881 Y11.0822
G01 X10.9898 Y10.9899
G01 X11.0821 Y10.8882
G01 X11.1640 Y10.7778
G01 X11.2346 Y10.6600
G01 X11.2933 Y10.5358
G01 X11.3396 Y10.4064
G01 X11.3730 Y10.2731
G01 X11.3932 Y10.1372
G01 X11.3999 Y10.0000
G00 X11.3999 Y10.0000
G01 F76.20
G01 Z-0.8000
G01 F76.20
G01 X11.3932 Y9.8628
G01 X11.3730 Y9.7269
G01 X11.3396 Y9.5936
G01 X11.2933 Y9.4642
G01 X11.2346 Y9.3400
G01 X11.1640 Y9.2222
G01 X11.0821 Y9.1118
G01 X10.9898 Y9.0101
G01 X10.8881 Y8.9178
G01 X10.7777 Y8.8359
G01 X10.6599 Y8.7653
G01 X10.5357 Y8.7066
G01 X10.4063 Y8.6603
G01 X10.2730 Y8.6269
G01 X10.1371 Y8.6067
G01 X9.9999 Y8.6000
G01 X9.8627 Y8.6067
G01 X9.7268 Y8.6269
G01 X9.5935 Y8.6603
G01 X9.4641 Y8.7066
G01 X9.3399 Y8.7653
G01 X9.2221 Y8.8359
G01 X9.1117 Y8.9178
G01 X9.0100 Y9.0101
G01 X8.9177 Y9.1118
G01 X8.8358 Y9.2222
G01 X8.7652 Y9.3400
G01 X8.7065 Y9.4642
G01 X8.6602 Y9.5936
G01 X8.6268 Y9.7269
G01 X8.6066 Y9.8628
G01 X8.5999 Y10.0000
G01 X8.6066 Y10.1372
G01 X8.6268 Y10.2731
G01 X8.6602 Y10.4064
G01 X8.7065 Y10.5358
G01 X8.7652 Y10.6600
G01 X8.8358 Y10.7778
G01 X8.9177 Y10.8882
G01 X9.0100 Y10.9899
G01 X9.1117 Y11.0822
G01 X9.2221 Y11.1641
G01 X9.3399 Y11.2347
G01 X9.4641 Y11.2934
G01 X9.5935 Y11.3397
G01 X9.7268 Y11.3731
G01 X9.8627 Y11.3933
G01 X9.9999 Y11.4000
G01 X10.1371 Y11.3933
G01 X10.2730 Y11.3731
G01 X10.4063 Y11.3397
G01 X10.5357 Y11.2934
G01 X10.6599 Y11.2347
G01 X10.7777 Y11.1641
G01 X10.8881 Y11.0822
G01 X10.9898 Y10.9899
G01 X11.0821 Y10.8882
G01 X11.1640 Y10.7778
G01 X11.2346 Y10.6600
G01 X11.2933 Y10.5358
G01 X11.3396 Y10.4064
G01 X11.3730 Y10.2731
G01 X11.3932 Y10.1372
G01 X11.3999 Y10.0000
G00 X11.3999 Y10.0000
G01 F76.20
G01 Z-1.2000
G01 F76.20
G01 X11.3932 Y9.8628
G01 X11.3730 Y9.7269
G01 X11.3396 Y9.5936
G01 X11.2933 Y9.4642
G01 X11.2346 Y9.3400
G01 X11.1640 Y9.2222
G01 X11.0821 Y9.1118
G01 X10.9898 Y9.0101
G01 X10.8881 Y8.9178
G01 X10.7777 Y8.8359
G01 X10.6599 Y8.7653
G01 X10.5357 Y8.7066
G01 X10.4063 Y8.6603
G01 X10.2730 Y8.6269
G01 X10.1371 Y8.6067
G01 X9.9999 Y8.6000
G01 X9.8627 Y8.6067
G01 X9.7268 Y8.6269
G01 X9.5935 Y8.6603
G01 X9.4641 Y8.7066
G01 X9.3399 Y8.7653
G01 X9.2221 Y8.8359
G01 X9.1117 Y8.9178
G01 X9.0100 Y9.0101
G01 X8.9177 Y9.1118
G01 X8.8358 Y9.2222
G01 X8.7652 Y9.3400
G01 X8.7065 Y9.4642
G01 X8.6602 Y9.5936
G01 X8.6268 Y9.7269
G01 X8.6066 Y9.8628
G01 X8.5999 Y10.0000
G01 X8.6066 Y10.1372
G01 X8.6268 Y10.2731
G01 X8.6602 Y10.4064
G01 X8.7065 Y10.5358
G01 X8.7652 Y10.6600
G01 X8.8358 Y10.7778
G01 X8.9177 Y10.8882
G01 X9.0100 Y10.9899
G01 X9.1117 Y11.0822
G01 X9.2221 Y11.1641
G01 X9.3399 Y11.2347
G01 X9.4641 Y11.2934
G01 X9.5935 Y11.3397
G01 X9.7268 Y11.3731
G01 X9.8627 Y11.3933
G01 X9.9999 Y11.4000
G01 X10.1371 Y11.3933
G01 X10.2730 Y11.3731
G01 X10.4063 Y11.3397
G01 X10.5357 Y11.2934
G01 X10.6599 Y11.2347
G01 X10.7777 Y11.1641
G01 X10.8881 Y11.0822
G01 X10.9898 Y10.9899
G01 X11.0821 Y10.8882
G01 X11.1640 Y10.7778
G01 X11.2346 Y10.6600
G01 X11.2933 Y10.5358
G01 X11.3396 Y10.4064
G01 X11.3730 Y10.2731
G01 X11.3932 Y10.1372
G01 X11.3999 Y10.0000
G00 X11.3999 Y10.0000
G01 F76.20
G01 Z-1.6000
G01 F76.20
G01 X11.3932 Y9.8628
G01 X11.3730 Y9.7269
G01 X11.3396 Y9.5936
G01 X11.2933 Y9.4642
G01 X11.2346 Y9.3400
G01 X11.1640 Y9.2222
G01 X11.0821 Y9.1118
G01 X10.9898 Y9.0101
G01 X10.8881 Y8.9178
G01 X10.7777 Y8.8359
G01 X10.6599 Y8.7653
G01 X10.5357 Y8.7066
G01 X10.4063 Y8.6603
G01 X10.2730 Y8.6269
G01 X10.1371 Y8.6067
G01 X9.9999 Y8.6000
G01 X9.8627 Y8.6067
G01 X9.7268 Y8.6269
G01 X9.5935 Y8.6603
G01 X9.4641 Y8.7066
G01 X9.3399 Y8.7653
G01 X9.2221 Y8.8359
G01 X9.1117 Y8.9178
G01 X9.0100 Y9.0101
G01 X8.9177 Y9.1118
G01 X8.8358 Y9.2222
G01 X8.7652 Y9.3400
G01 X8.7065 Y9.4642
G01 X8.6602 Y9.5936
G01 X8.6268 Y9.7269
G01 X8.6066 Y9.8628
G01 X8.5999 Y10.0000
G01 X8.6066 Y10.1372
G01 X8.6268 Y10.2731
G01 X8.6602 Y10.4064
G01 X8.7065 Y10.5358
G01 X8.7652 Y10.6600
G01 X8.8358 Y10.7778
G01 X8.9177 Y10.8882
G01 X9.0100 Y10.9899
G01 X9.1117 Y11.0822
G01 X9.2221 Y11.1641
G01 X9.3399 Y11.2347
G01 X9.4641 Y11.2934
G01 X9.5935 Y11.3397
G01 X9.7268 Y11.3731
G01 X9.8627 Y11.3933
G01 X9.9999 Y11.4000
G01 X10.1371 Y11.3933
G01 X10.2730 Y11.3731
G01 X10.4063 Y11.3397
G01 X10.5357 Y11.2934
G01 X10.6599 Y11.2347
G01 X10.7777 Y11.1641
G01 X10.8881 Y11.0822
G01 X10.9898 Y10.9899
G01 X11.0821 Y10.8882
G01 X11.1640 Y10.7778
G01 X11.2346 Y10.6600
G01 X11.2933 Y10.5358
G01 X11.3396 Y10.4064
G01 X11.3730 Y10.2731
G01 X11.3932 Y10.1372
G01 X11.3999 Y10.0000
G00 Z2.5400
G00 X44.2649 Y21.4650
G01 F76.20
G01 Z-0.4000
G01 F76.20
G01 X44.2158 Y20.4652
G01 X44.0689 Y19.4751
G01 X43.8257 Y18.5041
G01 X43.4885 Y17.5616
G01 X43.0605 Y16.6568
G01 X42.5459 Y15.7982
G01 X41.9496 Y14.9942
G01 X41.2774 Y14.2525
G01 X40.5357 Y13.5803
G01 X39.7317 Y12.9840
G01 X38.8731 Y12.4694
G01 X37.9683 Y12.0414
G01 X37.0258 Y11.7042
G01 X36.0548 Y11.4610
G01 X35.0647 Y11.3141
G01 X34.0649 Y11.2650
G01 X33.0651 Y11.3141
G01 X32.0750 Y11.4610
G01 X31.1040 Y11.7042
G01 X30.1615 Y12.0414
G01 X29.2567 Y12.4694
G01 X28.3981 Y12.9840
G01 X27.5941 Y13.5803
G01 X26.8524 Y14.2525
G01 X26.1802 Y14.9942
G01 X25.5839 Y15.7982
G01 X25.0693 Y16.6568
G01 X24.6413 Y17.5616
G01 X24.3041 Y18.5041
G01 X24.0609 Y19.4751
G01 X23.9140 Y20.4652
G01 X23.8649 Y21.4650
G01 X23.9140 Y22.4648
G01 X24.0609 Y23.4549
G01 X24.3041 Y24.4259
G01 X24.6413 Y25.3684
G01 X25.0693 Y26.2732
G01 X25.5839 Y27.1318
G01 X26.1802 Y27.9358
G01 X26.8524 Y28.6775
G01 X27.5941 Y29.3497
G01 X28.3981 Y29.9460
G01 X29.2567 Y30.4606
G01 X30.1615 Y30.8886
G01 X31.1040 Y31.2258
G01 X32.0750 Y31.4690
G01 X33.0651 Y31.6159
G01 X34.0649 Y31.6650
G01 X35.0647 Y31.6159
G01 X36.0548 Y31.4690
G01 X37.0258 Y31.2258
G01 X37.9683 Y30.8886
G01 X38.8731 Y30.4606
G01 X39.7317 Y29.9460
G01 X40.5357 Y29.3497
G01 X41.2774 Y28.6775
G01 X41.9496 Y27.9358
G01 X42.5459 Y27.1318
G01 X43.0605 Y26.2732
G01 X43.4885 Y25.3684
G01 X43.8257 Y24.4259
G01 X44.0689 Y23.4549
G01 X44.2158 Y22.4648
G01 X44.2649 Y21.4650
G00 X44.2649 Y21.4650
G01 F76.20
G01 Z-0.8000
G01 F76.20
G01 X44.2158 Y20.4652
G01 X44.0689 Y19.4751
G01 X43.8257 Y18.5041
G01 X43.4885 Y17.5616
G01 X43.0605 Y16.6568
G01 X42.5459 Y15.7982
G01 X41.9496 Y14.9942
G01 X41.2774 Y14.2525
G01 X40.5357 Y13.5803
G01 X39.7317 Y12.9840
G01 X38.8731 Y12.4694
G01 X37.9683 Y12.0414
G01 X37.0258 Y11.7042
G01 X36.0548 Y11.4610
G01 X35.0647 Y11.3141
G01 X34.0649 Y11.2650
G01 X33.0651 Y11.3141
G01 X32.0750 Y11.4610
G01 X31.1040 Y11.7042
G01 X30.1615 Y12.0414
G01 X29.2567 Y12.4694
G01 X28.3981 Y12.9840
G01 X27.5941 Y13.5803
G01 X26.8524 Y14.2525
G01 X26.1802 Y14.9942
G01 X25.5839 Y15.7982
G01 X25.0693 Y16.6568
G01 X24.6413 Y17.5616
G01 X24.3041 Y18.5041
G01 X24.0609 Y19.4751
G01 X23.9140 Y20.4652
G01 X23.8649 Y21.4650
G01 X23.9140 Y22.4648
G01 X24.0609 Y23.4549
G01 X24.3041 Y24.4259
G01 X24.6413 Y25.3684
G01 X25.0693 Y26.2732
G01 X25.5839 Y27.1318
G01 X26.1802 Y27.9358
G01 X26.8524 Y28.6775
G01 X27.5941 Y29.3497
G01 X28.3981 Y29.9460
G01 X29.2567 Y30.4606
G01 X30.1615 Y30.8886
G01 X31.1040 Y31.2258
G01 X32.0750 Y31.4690
G01 X33.0651 Y31.6159
G01 X34.0649 Y31.6650
G01 X35.0647 Y31.6159
G01 X36.0548 Y31.4690
G01 X37.0258 Y31.2258
G01 X37.9683 Y30.8886
G01 X38.8731 Y30.4606
G01 X39.7317 Y29.9460
G01 X40.5357 Y29.3497
G01 X41.2774 Y28.6775
G01 X41.9496 Y27.9358
G01 X42.5459 Y27.1318
G01 X43.0605 Y26.2732
G01 X43.4885 Y25.3684
G01 X43.8257 Y24.4259
G01 X44.0689 Y23.4549
G01 X44.2158 Y22.4648
G01 X44.2649 Y21.4650
G00 X44.2649 Y21.4650
G01 F76.20
G01 Z-1.2000
G01 F76.20
G01 X44.2158 Y20.4652
G01 X44.0689 Y19.4751
G01 X43.8257 Y18.5041
G01 X43.4885 Y17.5616
G01 X43.0605 Y16.6568
G01 X42.5459 Y15.7982
G01 X41.9496 Y14.9942
G01 X41.2774 Y14.2525
G01 X40.5357 Y13.5803
G01 X39.7317 Y12.9840
G01 X38.8731 Y12.4694
G01 X37.9683 Y12.0414
G01 X37.0258 Y11.7042
G01 X36.0548 Y11.4610
G01 X35.0647 Y11.3141
G01 X34.0649 Y11.2650
G01 X33.0651 Y11.3141
G01 X32.0750 Y11.4610
G01 X31.1040 Y11.7042
G01 X30.1615 Y12.0414
G01 X29.2567 Y12.4694
G01 X28.3981 Y12.9840
G01 X27.5941 Y13.5803
G01 X26.8524 Y14.2525
G01 X26.1802 Y14.9942
G01 X25.5839 Y15.7982
G01 X25.0693 Y16.6568
G01 X24.6413 Y17.5616
G01 X24.3041 Y18.5041
G01 X24.0609 Y19.4751
G01 X23.9140 Y20.4652
G01 X23.8649 Y21.4650
G01 X23.9140 Y22.4648
G01 X24.0609 Y23.4549
G01 X24.3041 Y24.4259
G01 X24.6413 Y25.3684
G01 X25.0693 Y26.2732
G01 X25.5839 Y27.1318
G01 X26.1802 Y27.9358
G01 X26.8524 Y28.6775
G01 X27.5941 Y29.3497
G01 X28.3981 Y29.9460
G01 X29.2567 Y30.4606
G01 X30.1615 Y30.8886
G01 X31.1040 Y31.2258
G01 X32.0750 Y31.4690
G01 X33.0651 Y31.6159
G01 X34.0649 Y31.6650
G01 X35.0647 Y31.6159
G01 X36.0548 Y31.4690
G01 X37.0258 Y31.2258
G01 X37.9683 Y30.8886
G01 X38.8731 Y30.4606
G01 X39.7317 Y29.9460
G01 X40.5357 Y29.3497
G01 X41.2774 Y28.6775
G01 X41.9496 Y27.9358
G01 X42.5459 Y27.1318
G01 X43.0605 Y26.2732
G01 X43.4885 Y25.3684
G01 X43.8257 Y24.4259
G01 X44.0689 Y23.4549
G01 X44.2158 Y22.4648
G01 X44.2649 Y21.4650
G00 X44.2649 Y21.4650
G01 F76.20
G01 Z-1.6000
G01 F76.20
G01 X44.2158 Y20.4652
G01 X44.0689 Y19.4751
G01 X43.8257 Y18.5041
G01 X43.4885 Y17.5616
G01 X43.0605 Y16.6568
G01 X42.5459 Y15.7982
G01 X41.9496 Y14.9942
G01 X41.2774 Y14.2525
G01 X40.5357 Y13.5803
G01 X39.7317 Y12.9840
G01 X38.8731 Y12.4694
G01 X37.9683 Y12.0414
G01 X37.0258 Y11.7042
G01 X36.0548 Y11.4610
G01 X35.0647 Y11.3141
G01 X34.0649 Y11.2650
G01 X33.0651 Y11.3141
G01 X32.0750 Y11.4610
G01 X31.1040 Y11.7042
G01 X30.1615 Y12.0414
G01 X29.2567 Y12.4694
G01 X28.3981 Y12.9840
G01 X27.5941 Y13.5803
G01 X26.8524 Y14.2525
G01 X26.1802 Y14.9942
G01 X25.5839 Y15.7982
G01 X25.0693 Y16.6568
G01 X24.6413 Y17.5616
G01 X24.3041 Y18.5041
G01 X24.0609 Y19.4751
G01 X23.9140 Y20.4652
G01 X23.8649 Y21.4650
G01 X23.9140 Y22.4648
G01 X24.0609 Y23.4549
G01 X24.3041 Y24.4259
G01 X24.6413 Y25.3684
G01 X25.0693 Y26.2732
G01 X25.5839 Y27.1318
G01 X26.1802 Y27.9358
G01 X26.8524 Y28.6775
G01 X27.5941 Y29.3497
G01 X28.3981 Y29.9460
G01 X29.2567 Y30.4606
G01 X30.1615 Y30.8886
G01 X31.1040 Y31.2258
G01 X32.0750 Y31.4690
G01 X33.0651 Y31.6159
G01 X34.0649 Y31.6650
G01 X35.0647 Y31.6159
G01 X36.0548 Y31.4690
G01 X37.0258 Y31.2258
G01 X37.9683 Y30.8886
G01 X38.8731 Y30.4606
G01 X39.7317 Y29.9460
G01 X40.5357 Y29.3497
G01 X41.2774 Y28.6775
G01 X41.9496 Y27.9358
G01 X42.5459 Y27.1318
G01 X43.0605 Y26.2732
G01 X43.4885 Y25.3684
G01 X43.8257 Y24.4259
G01 X44.0689 Y23.4549
G01 X44.2158 Y22.4648
G01 X44.2649 Y21.4650
G00 Z2.5400
G00 X59.5309 Y29.4410
G01 F76.20
G01 Z-0.4000
G01 F76.20
G01 X59.5242 Y29.3038
G01 X59.5040 Y29.1679
G01 X59.4706 Y29.0346
G01 X59.4243 Y28.9052
G01 X59.3656 Y28.7810
G01 X59.2950 Y28.6632
G01 X59.2131 Y28.5528
G01 X59.1208 Y28.4511
G01 X59.0191 Y28.3588
G01 X58.9087 Y28.2769
G01 X58.7909 Y28.2063
G01 X58.6667 Y28.1476
G01 X58.5373 Y28.1013
G01 X58.4040 Y28.0679
G01 X58.2681 Y28.0477
G01 X58.1309 Y28.0410
G01 X57.9937 Y28.0477
G01 X57.8578 Y28.0679
G01 X57.7245 Y28.1013
G01 X57.5951 Y28.1476
G01 X57.4709 Y28.2063
G01 X57.3531 Y28.2769
G01 X57.2427 Y28.3588
G01 X57.1410 Y28.4511
G01 X57.0487 Y28.5528
G01 X56.9668 Y28.6632
G01 X56.8962 Y28.7810
G01 X56.8375 Y28.9052
G01 X56.7912 Y29.0346
G01 X56.7578 Y29.1679
G01 X56.7376 Y29.3038
G01 X56.7309 Y29.4410
G01 X56.7376 Y29.5782
G01 X56.7578 Y29.7141
G01 X56.7912 Y29.8474
G01 X56.8375 Y29.9768
G01 X56.8962 Y30.1010
G01 X56.9668 Y30.2188
G01 X57.0487 Y30.3292
G01 X57.1410 Y30.4309
G01 X57.2427 Y30.5232
G01 X57.3531 Y30.6051
G01 X57.4709 Y30.6757
G01 X57.5951 Y30.7344
G01 X57.7245 Y30.7807
G01 X57.8578 Y30.8141
G01 X57.9937 Y30.8343
G01 X58.1309 Y30.8410
G01 X58.2681 Y30.8343
G01 X58.4040 Y30.8141
G01 X58.5373 Y30.7807
G01 X58.6667 Y30.7344
G01 X58.7909 Y30.6757
G01 X58.9087 Y30.6051
G01 X59.0191 Y30.5232
G01 X59.1208 Y30.4309
G01 X59.2131 Y30.3292
G01 X59.2950 Y30.2188
G01 X59.3656 Y30.1010
G01 X59.4243 Y29.9768
G01 X59.4706 Y29.8474
G01 X59.5040 Y29.7141
G01 X59.5242 Y29.5782
G01 X59.5309 Y29.4410
G00 X59.5309 Y29.4410
G01 F76.20
G01 Z-0.8000
G01 F76.20
G01 X59.5242 Y29.3038
G01 X59.5040 Y29.1679
G01 X59.4706 Y29.0346
G01 X59.4243 Y28.9052
G01 X59.3656 Y28.7810
G01 X59.2950 Y28.6632
G01 X59.2131 Y28.5528
G01 X59.1208 Y28.4511
G01 X59.0191 Y28.3588
G01 X58.9087 Y28.2769
G01 X58.7909 Y28.2063
G01 X58.6667 Y28.1476
G01 X58.5373 Y28.1013
G01 X58.4040 Y28.0679
G01 X58.2681 Y28.0477
G01 X58.1309 Y28.0410
G01 X57.9937 Y28.0477
G01 X57.8578 Y28.0679
G01 X57.7245 Y28.1013
G01 X57.5951 Y28.1476
G01 X57.4709 Y28.2063
G01 X57.3531 Y28.2769
G01 X57.2427 Y28.3588
G01 X57.1410 Y28.4511
G01 X57.0487 Y28.5528
G01 X56.9668 Y28.6632
G01 X56.8962 Y28.7810
G01 X56.8375 Y28.9052
G01 X56.7912 Y29.0346
G01 X56.7578 Y29.1679
G01 X56.7376 Y29.3038
G01 X56.7309 Y29.4410
G01 X56.7376 Y29.5782
G01 X56.7578 Y29.7141
G01 X56.7912 Y29.8474
G01 X56.8375 Y29.9768
G01 X56.8962 Y30.1010
G01 X56.9668 Y30.2188
G01 X57.0487 Y30.3292
G01 X57.1410 Y30.4309
G01 X57.2427 Y30.5232
G01 X57.3531 Y30.6051
G01 X57.4709 Y30.6757
G01 X57.5951 Y30.7344
G01 X57.7245 Y30.7807
G01 X57.8578 Y30.8141
G01 X57.9937 Y30.8343
G01 X58.1309 Y30.8410
G01 X58.2681 Y30.8343
G01 X58.4040 Y30.8141
G01 X58.5373 Y30.7807
G01 X58.6667 Y30.7344
G01 X58.7909 Y30.6757
G01 X58.9087 Y30.6051
G01 X59.0191 Y30.5232
G01 X59.1208 Y30.4309
G01 X59.2131 Y30.3292
G01 X59.2950 Y30.2188
G01 X59.3656 Y30.1010
G01 X59.4243 Y29.9768
G01 X59.4706 Y29.8474
G01 X59.5040 Y29.7141
G01 X59.5242 Y29.5782
G01 X59.5309 Y29.4410
G00 X59.5309 Y29.4410
G01 F76.20
G01 Z-1.2000
G01 F76.20
G01 X59.5242 Y29.3038
G01 X59.5040 Y29.1679
G01 X59.4706 Y29.0346
G01 X59.4243 Y28.9052
G01 X59.3656 Y28.7810
G01 X59.2950 Y28.6632
G01 X59.2131 Y28.5528
G01 X59.1208 Y28.4511
G01 X59.0191 Y28.3588
G01 X58.9087 Y28.2769
G01 X58.7909 Y28.2063
G01 X58.6667 Y28.1476
G01 X58.5373 Y28.1013
G01 X58.4040 Y28.0679
G01 X58.2681 Y28.0477
G01 X58.1309 Y28.0410
G01 X57.9937 Y28.0477
G01 X57.8578 Y28.0679
G01 X57.7245 Y28.1013
G01 X57.5951 Y28.1476
G01 X57.4709 Y28.2063
G01 X57.3531 Y28.2769
G01 X57.2427 Y28.3588
G01 X57.1410 Y28.4511
G01 X57.0487 Y28.5528
G01 X56.9668 Y28.6632
G01 X56.8962 Y28.7810
G01 X56.8375 Y28.9052
G01 X56.7912 Y29.0346
G01 X56.7578 Y29.1679
G01 X56.7376 Y29.3038
G01 X56.7309 Y29.4410
G01 X56.7376 Y29.5782
G01 X56.7578 Y29.7141
G01 X56.7912 Y29.8474
G01 X56.8375 Y29.9768
G01 X56.8962 Y30.1010
G01 X56.9668 Y30.2188
G01 X57.0487 Y30.3292
G01 X57.1410 Y30.4309
G01 X57.2427 Y30.5232
G01 X57.3531 Y30.6051
G01 X57.4709 Y30.6757
G01 X57.5951 Y30.7344
G01 X57.7245 Y30.7807
G01 X57.8578 Y30.8141
G01 X57.9937 Y30.8343
G01 X58.1309 Y30.8410
G01 X58.2681 Y30.8343
G01 X58.4040 Y30.8141
G01 X58.5373 Y30.7807
G01 X58.6667 Y30.7344
G01 X58.7909 Y30.6757
G01 X58.9087 Y30.6051
G01 X59.0191 Y30.5232
G01 X59.1208 Y30.4309
G01 X59.2131 Y30.3292
G01 X59.2950 Y30.2188
G01 X59.3656 Y30.1010
G01 X59.4243 Y29.9768
G01 X59.4706 Y29.8474
G01 X59.5040 Y29.7141
G01 X59.5242 Y29.5782
G01 X59.5309 Y29.4410
G00 X59.5309 Y29.4410
G01 F76.20
G01 Z-1.6000
G01 F76.20
G01 X59.5242 Y29.3038
G01 X59.5040 Y29.1679
G01 X59.4706 Y29.0346
G01 X59.4243 Y28.9052
G01 X59.3656 Y28.7810
G01 X59.2950 Y28.6632
G01 X59.2131 Y28.5528
G01 X59.1208 Y28.4511
G01 X59.0191 Y28.3588
G01 X58.9087 Y28.2769
G01 X58.7909 Y28.2063
G01 X58.6667 Y28.1476
G01 X58.5373 Y28.1013
G01 X58.4040 Y28.0679
G01 X58.2681 Y28.0477
G01 X58.1309 Y28.0410
G01 X57.9937 Y28.0477
G01 X57.8578 Y28.0679
G01 X57.7245 Y28.1013
G01 X57.5951 Y28.1476
G01 X57.4709 Y28.2063
G01 X57.3531 Y28.2769
G01 X57.2427 Y28.3588
G01 X57.1410 Y28.4511
G01 X57.0487 Y28.5528
G01 X56.9668 Y28.6632
G01 X56.8962 Y28.7810
G01 X56.8375 Y28.9052
G01 X56.7912 Y29.0346
G01 X56.7578 Y29.1679
G01 X56.7376 Y29.3038
G01 X56.7309 Y29.4410
G01 X56.7376 Y29.5782
G01 X56.7578 Y29.7141
G01 X56.7912 Y29.8474
G01 X56.8375 Y29.9768
G01 X56.8962 Y30.1010
G01 X56.9668 Y30.2188
G01 X57.0487 Y30.3292
G01 X57.1410 Y30.4309
G01 X57.2427 Y30.5232
G01 X57.3531 Y30.6051
G01 X57.4709 Y30.6757
G01 X57.5951 Y30.7344
G01 X57.7245 Y30.7807
G01 X57.8578 Y30.8141
G01 X57.9937 Y30.8343
G01 X58.1309 Y30.8410
G01 X58.2681 Y30.8343
G01 X58.4040 Y30.8141
G01 X58.5373 Y30.7807
G01 X58.6667 Y30.7344
G01 X58.7909 Y30.6757
G01 X58.9087 Y30.6051
G01 X59.0191 Y30.5232
G01 X59.1208 Y30.4309
G01 X59.2131 Y30.3292
G01 X59.2950 Y30.2188
G01 X59.3656 Y30.1010
G01 X59.4243 Y29.9768
G01 X59.4706 Y29.8474
G01 X59.5040 Y29.7141
G01 X59.5242 Y29.5782
G01 X59.5309 Y29.4410
G00 Z2.5400
M05
G00 Z2.5400
G00 Z10.00
G00 X0.0 Y0.0

