(G-CODE GENERATED BY FLATCAM v8.912 - www.flatcam.org - Version Date: 2019/03/17)

(Name: PERCAGE_edit_cnc)
(Type: G-code from Excellon)
(Units: MM)

(Created on Monday, 26 July 2021 at 16:17)

(Feedrate: 76.2 mm/min)
(Feedrate rapids 76.2 mm/min)

(Z_Cut: -1.6 mm)
(Z_Move: 2.54 mm)
(Z Toolchange: 25.4 mm)
(X,Y Toolchange: 0.0000, 0.0000 mm)
(Z Start: None mm)
(Z End: 10.8 mm)
(Steps per circle: 64)
(Postprocessor Excellon: default)

(X range:    9.1339 ...   38.5419  mm)
(Y range:   21.2670 ...   35.4350  mm)

(Spindle Speed: None RPM)

G21
G90
G94

G01 F76.20
G00 Z2.5400

M03
G00 X9.5839 Y24.2570
G01 Z-1.6000
G01 Z0
G00 Z2.5400
G00 X9.5839 Y21.7170
G01 Z-1.6000
G01 Z0
G00 Z2.5400
M03
G00 X38.0319 Y34.9250
G01 Z-1.6000
G01 Z0
G00 Z2.5400
G00 X35.4919 Y34.9250
G01 Z-1.6000
G01 Z0
G00 Z2.5400
G00 X32.9519 Y34.9250
G01 Z-1.6000
G01 Z0
G00 Z2.5400
G00 X30.4119 Y34.9250
G01 Z-1.6000
G01 Z0
G00 Z2.5400
G00 X27.8719 Y34.9250
G01 Z-1.6000
G01 Z0
G00 Z2.5400
M05
G00 Z10.80
G00 X0.0 Y0.0

