(G-CODE GENERATED BY FLATCAM v8.912 - www.flatcam.org - Version Date: 2019/03/17)

(Name: profile.gbr_cutout_cnc_1)
(Type: G-code from Geometry)
(Units: MM)

(Created on Monday, 26 July 2021 at 16:15)

(TOOL DIAMETER: 1.0 mm)
(Feedrate: 76.2 mm/min)
(Feedrate_Z: 76.2 mm/min)
(Feedrate rapids 76.2 mm/min)

(Z_Cut: -1.6 mm)
(DepthPerCut: 0.4 mm <=>4 passes)
(Z_Move: 2.54 mm)
(Z Toolchange: 25.4 mm)
(X,Y Toolchange: 0.0000, 0.0000 mm)
(Z Start: None mm)
(Z End: 10.0 mm)
(Steps per circle: 64)
(Postprocessor Geometry: default)

(X range:    0.2729 ...   67.8580  mm)
(Y range:    0.2729 ...   39.1682  mm)

(Spindle Speed: None RPM)

G21
G90
G94

G01 F76.20
G00 Z2.5400

M03
G00 X0.2729 Y18.3206
G01 F76.20
G01 Z-0.4000
G01 F76.20
G01 X0.2729 Y9.0715
G01 X0.3067 Y8.2992
G01 X0.4067 Y7.5387
G01 X0.5728 Y6.7899
G01 X0.8034 Y6.0583
G01 X1.0969 Y5.3497
G01 X1.4511 Y4.6693
G01 X1.8632 Y4.0224
G01 X2.3302 Y3.4139
G01 X2.8484 Y2.8484
G01 X3.4139 Y2.3302
G01 X4.0224 Y1.8633
G01 X4.6693 Y1.4511
G01 X5.3497 Y1.0970
G01 X6.0583 Y0.8034
G01 X6.7898 Y0.5728
G01 X7.5386 Y0.4067
G01 X8.2991 Y0.3067
G01 X9.0714 Y0.2729
G01 X32.6654 Y0.2729
G00 X32.6654 Y0.2729
G01 F76.20
G01 Z-0.8000
G01 F76.20
G01 X9.0714 Y0.2729
G01 X8.2991 Y0.3067
G01 X7.5386 Y0.4067
G01 X6.7898 Y0.5728
G01 X6.0583 Y0.8034
G01 X5.3497 Y1.0970
G01 X4.6693 Y1.4511
G01 X4.0224 Y1.8633
G01 X3.4139 Y2.3302
G01 X2.8484 Y2.8484
G01 X2.3302 Y3.4139
G01 X1.8632 Y4.0224
G01 X1.4511 Y4.6693
G01 X1.0969 Y5.3497
G01 X0.8034 Y6.0583
G01 X0.5728 Y6.7899
G01 X0.4067 Y7.5387
G01 X0.3067 Y8.2992
G01 X0.2729 Y9.0715
G01 X0.2729 Y18.3206
G00 X0.2729 Y18.3206
G01 F76.20
G01 Z-1.2000
G01 F76.20
G01 X0.2729 Y9.0715
G01 X0.3067 Y8.2992
G01 X0.4067 Y7.5387
G01 X0.5728 Y6.7899
G01 X0.8034 Y6.0583
G01 X1.0969 Y5.3497
G01 X1.4511 Y4.6693
G01 X1.8632 Y4.0224
G01 X2.3302 Y3.4139
G01 X2.8484 Y2.8484
G01 X3.4139 Y2.3302
G01 X4.0224 Y1.8633
G01 X4.6693 Y1.4511
G01 X5.3497 Y1.0970
G01 X6.0583 Y0.8034
G01 X6.7898 Y0.5728
G01 X7.5386 Y0.4067
G01 X8.2991 Y0.3067
G01 X9.0714 Y0.2729
G01 X32.6654 Y0.2729
G00 X32.6654 Y0.2729
G01 F76.20
G01 Z-1.6000
G01 F76.20
G01 X9.0714 Y0.2729
G01 X8.2991 Y0.3067
G01 X7.5386 Y0.4067
G01 X6.7898 Y0.5728
G01 X6.0583 Y0.8034
G01 X5.3497 Y1.0970
G01 X4.6693 Y1.4511
G01 X4.0224 Y1.8633
G01 X3.4139 Y2.3302
G01 X2.8484 Y2.8484
G01 X2.3302 Y3.4139
G01 X1.8632 Y4.0224
G01 X1.4511 Y4.6693
G01 X1.0969 Y5.3497
G01 X0.8034 Y6.0583
G01 X0.5728 Y6.7899
G01 X0.4067 Y7.5387
G01 X0.3067 Y8.2992
G01 X0.2729 Y9.0715
G01 X0.2729 Y18.3206
G00 Z2.5400
G00 X0.2729 Y19.3206
G01 F76.20
G01 Z-0.4000
G01 F76.20
G01 X0.2729 Y30.3696
G00 X0.2729 Y30.3696
G01 F76.20
G01 Z-0.8000
G01 F76.20
G01 X0.2729 Y19.3206
G00 X0.2729 Y19.3206
G01 F76.20
G01 Z-1.2000
G01 F76.20
G01 X0.2729 Y30.3696
G00 X0.2729 Y30.3696
G01 F76.20
G01 Z-1.6000
G01 F76.20
G01 X0.2729 Y19.3206
G00 Z2.5400
G00 X0.2729 Y30.3696
G01 F76.20
G01 Z-0.4000
G01 F76.20
G01 X0.3067 Y31.1419
G01 X0.4067 Y31.9024
G01 X0.5728 Y32.6512
G01 X0.8034 Y33.3828
G01 X1.0969 Y34.0913
G01 X1.4511 Y34.7717
G01 X1.8632 Y35.4186
G01 X2.3302 Y36.0272
G01 X2.8484 Y36.5926
G01 X3.4139 Y37.1108
G01 X4.0224 Y37.5778
G01 X4.6693 Y37.9899
G01 X5.3497 Y38.3441
G01 X6.0583 Y38.6376
G01 X6.7898 Y38.8683
G01 X7.5386 Y39.0343
G01 X8.2991 Y39.1344
G01 X9.0714 Y39.1682
G01 X32.6654 Y39.1682
G00 X32.6654 Y39.1682
G01 F76.20
G01 Z-0.8000
G01 F76.20
G01 X9.0714 Y39.1682
G01 X8.2991 Y39.1344
G01 X7.5386 Y39.0343
G01 X6.7898 Y38.8683
G01 X6.0583 Y38.6376
G01 X5.3497 Y38.3441
G01 X4.6693 Y37.9899
G01 X4.0224 Y37.5778
G01 X3.4139 Y37.1108
G01 X2.8484 Y36.5926
G01 X2.3302 Y36.0272
G01 X1.8632 Y35.4186
G01 X1.4511 Y34.7717
G01 X1.0969 Y34.0913
G01 X0.8034 Y33.3828
G01 X0.5728 Y32.6512
G01 X0.4067 Y31.9024
G01 X0.3067 Y31.1419
G01 X0.2729 Y30.3696
G00 X0.2729 Y30.3696
G01 F76.20
G01 Z-1.2000
G01 F76.20
G01 X0.3067 Y31.1419
G01 X0.4067 Y31.9024
G01 X0.5728 Y32.6512
G01 X0.8034 Y33.3828
G01 X1.0969 Y34.0913
G01 X1.4511 Y34.7717
G01 X1.8632 Y35.4186
G01 X2.3302 Y36.0272
G01 X2.8484 Y36.5926
G01 X3.4139 Y37.1108
G01 X4.0224 Y37.5778
G01 X4.6693 Y37.9899
G01 X5.3497 Y38.3441
G01 X6.0583 Y38.6376
G01 X6.7898 Y38.8683
G01 X7.5386 Y39.0343
G01 X8.2991 Y39.1344
G01 X9.0714 Y39.1682
G01 X32.6654 Y39.1682
G00 X32.6654 Y39.1682
G01 F76.20
G01 Z-1.6000
G01 F76.20
G01 X9.0714 Y39.1682
G01 X8.2991 Y39.1344
G01 X7.5386 Y39.0343
G01 X6.7898 Y38.8683
G01 X6.0583 Y38.6376
G01 X5.3497 Y38.3441
G01 X4.6693 Y37.9899
G01 X4.0224 Y37.5778
G01 X3.4139 Y37.1108
G01 X2.8484 Y36.5926
G01 X2.3302 Y36.0272
G01 X1.8632 Y35.4186
G01 X1.4511 Y34.7717
G01 X1.0969 Y34.0913
G01 X0.8034 Y33.3828
G01 X0.5728 Y32.6512
G01 X0.4067 Y31.9024
G01 X0.3067 Y31.1419
G01 X0.2729 Y30.3696
G00 Z2.5400
G00 X33.6654 Y39.1682
G01 F76.20
G01 Z-0.4000
G01 F76.20
G01 X59.0594 Y39.1682
G01 X59.8317 Y39.1344
G01 X60.5922 Y39.0343
G01 X61.3410 Y38.8683
G01 X62.0726 Y38.6376
G01 X62.7812 Y38.3441
G01 X63.4616 Y37.9899
G01 X64.1085 Y37.5778
G01 X64.7170 Y37.1108
G01 X65.2825 Y36.5926
G01 X65.8007 Y36.0272
G01 X66.2676 Y35.4186
G01 X66.6798 Y34.7717
G01 X67.0339 Y34.0913
G01 X67.3275 Y33.3828
G01 X67.5581 Y32.6512
G01 X67.7242 Y31.9024
G01 X67.8242 Y31.1419
G01 X67.8580 Y30.3696
G01 X67.8580 Y19.3206
G00 X67.8580 Y19.3206
G01 F76.20
G01 Z-0.8000
G01 F76.20
G01 X67.8580 Y30.3696
G01 X67.8242 Y31.1419
G01 X67.7242 Y31.9024
G01 X67.5581 Y32.6512
G01 X67.3275 Y33.3828
G01 X67.0339 Y34.0913
G01 X66.6798 Y34.7717
G01 X66.2676 Y35.4186
G01 X65.8007 Y36.0272
G01 X65.2825 Y36.5926
G01 X64.7170 Y37.1108
G01 X64.1085 Y37.5778
G01 X63.4616 Y37.9899
G01 X62.7812 Y38.3441
G01 X62.0726 Y38.6376
G01 X61.3410 Y38.8683
G01 X60.5922 Y39.0343
G01 X59.8317 Y39.1344
G01 X59.0594 Y39.1682
G01 X33.6654 Y39.1682
G00 X33.6654 Y39.1682
G01 F76.20
G01 Z-1.2000
G01 F76.20
G01 X59.0594 Y39.1682
G01 X59.8317 Y39.1344
G01 X60.5922 Y39.0343
G01 X61.3410 Y38.8683
G01 X62.0726 Y38.6376
G01 X62.7812 Y38.3441
G01 X63.4616 Y37.9899
G01 X64.1085 Y37.5778
G01 X64.7170 Y37.1108
G01 X65.2825 Y36.5926
G01 X65.8007 Y36.0272
G01 X66.2676 Y35.4186
G01 X66.6798 Y34.7717
G01 X67.0339 Y34.0913
G01 X67.3275 Y33.3828
G01 X67.5581 Y32.6512
G01 X67.7242 Y31.9024
G01 X67.8242 Y31.1419
G01 X67.8580 Y30.3696
G01 X67.8580 Y19.3206
G00 X67.8580 Y19.3206
G01 F76.20
G01 Z-1.6000
G01 F76.20
G01 X67.8580 Y30.3696
G01 X67.8242 Y31.1419
G01 X67.7242 Y31.9024
G01 X67.5581 Y32.6512
G01 X67.3275 Y33.3828
G01 X67.0339 Y34.0913
G01 X66.6798 Y34.7717
G01 X66.2676 Y35.4186
G01 X65.8007 Y36.0272
G01 X65.2825 Y36.5926
G01 X64.7170 Y37.1108
G01 X64.1085 Y37.5778
G01 X63.4616 Y37.9899
G01 X62.7812 Y38.3441
G01 X62.0726 Y38.6376
G01 X61.3410 Y38.8683
G01 X60.5922 Y39.0343
G01 X59.8317 Y39.1344
G01 X59.0594 Y39.1682
G01 X33.6654 Y39.1682
G00 Z2.5400
G00 X33.6654 Y0.2729
G01 F76.20
G01 Z-0.4000
G01 F76.20
G01 X59.0594 Y0.2729
G01 X59.8317 Y0.3067
G01 X60.5922 Y0.4067
G01 X61.3410 Y0.5728
G01 X62.0726 Y0.8034
G01 X62.7812 Y1.0970
G01 X63.4616 Y1.4511
G01 X64.1085 Y1.8633
G01 X64.7170 Y2.3302
G01 X65.2825 Y2.8484
G01 X65.8007 Y3.4139
G01 X66.2676 Y4.0224
G01 X66.6798 Y4.6693
G01 X67.0339 Y5.3497
G01 X67.3275 Y6.0583
G01 X67.5581 Y6.7899
G01 X67.7242 Y7.5387
G01 X67.8242 Y8.2992
G01 X67.8580 Y9.0715
G01 X67.8580 Y18.3206
G00 X67.8580 Y18.3206
G01 F76.20
G01 Z-0.8000
G01 F76.20
G01 X67.8580 Y9.0715
G01 X67.8242 Y8.2992
G01 X67.7242 Y7.5387
G01 X67.5581 Y6.7899
G01 X67.3275 Y6.0583
G01 X67.0339 Y5.3497
G01 X66.6798 Y4.6693
G01 X66.2676 Y4.0224
G01 X65.8007 Y3.4139
G01 X65.2825 Y2.8484
G01 X64.7170 Y2.3302
G01 X64.1085 Y1.8633
G01 X63.4616 Y1.4511
G01 X62.7812 Y1.0970
G01 X62.0726 Y0.8034
G01 X61.3410 Y0.5728
G01 X60.5922 Y0.4067
G01 X59.8317 Y0.3067
G01 X59.0594 Y0.2729
G01 X33.6654 Y0.2729
G00 X33.6654 Y0.2729
G01 F76.20
G01 Z-1.2000
G01 F76.20
G01 X59.0594 Y0.2729
G01 X59.8317 Y0.3067
G01 X60.5922 Y0.4067
G01 X61.3410 Y0.5728
G01 X62.0726 Y0.8034
G01 X62.7812 Y1.0970
G01 X63.4616 Y1.4511
G01 X64.1085 Y1.8633
G01 X64.7170 Y2.3302
G01 X65.2825 Y2.8484
G01 X65.8007 Y3.4139
G01 X66.2676 Y4.0224
G01 X66.6798 Y4.6693
G01 X67.0339 Y5.3497
G01 X67.3275 Y6.0583
G01 X67.5581 Y6.7899
G01 X67.7242 Y7.5387
G01 X67.8242 Y8.2992
G01 X67.8580 Y9.0715
G01 X67.8580 Y18.3206
G00 X67.8580 Y18.3206
G01 F76.20
G01 Z-1.6000
G01 F76.20
G01 X67.8580 Y9.0715
G01 X67.8242 Y8.2992
G01 X67.7242 Y7.5387
G01 X67.5581 Y6.7899
G01 X67.3275 Y6.0583
G01 X67.0339 Y5.3497
G01 X66.6798 Y4.6693
G01 X66.2676 Y4.0224
G01 X65.8007 Y3.4139
G01 X65.2825 Y2.8484
G01 X64.7170 Y2.3302
G01 X64.1085 Y1.8633
G01 X63.4616 Y1.4511
G01 X62.7812 Y1.0970
G01 X62.0726 Y0.8034
G01 X61.3410 Y0.5728
G01 X60.5922 Y0.4067
G01 X59.8317 Y0.3067
G01 X59.0594 Y0.2729
G01 X33.6654 Y0.2729
G00 Z2.5400
M05
G00 Z2.5400
G00 Z10.00
G00 X0.0 Y0.0

